luts/Timeless 22.cube
# 3D LUT of size 33x33x33 converted by Filestar.
#   Input:
#     color space: sRGB
#     white point: default (D65)
#     transfer function: default (sRGB)
#   Output:
#     color space: sRGB
#     white point: default (D65)
#     transfer function: default (sRGB)
#   Exposure: +0.53999996
#   Contrast: +23
#   Whites: +8
#   Blacks: -20
#   Vibrance: +5
LUT_3D_SIZE 33
0 .00158175 .00933342
0 .00600071 .00298476
.00584527 .00676403 0
.0875578 0 .00411168
.1382786 0 .00373588
.1822555 0 .004322
.2248795 0 .00092086
.2670987 0 0
.3084068 0 0
.3479193 0 0
.3875824 0 0
.4258486 0 0
.4628786 0 0
.4991153 0 0
.5351441 0 0
.5705177 0 0
.6050285 0 0
.63855 0 0
.6710774 0 0
.7028974 0 0
.7336606 0 0
.7635841 0 0
.7921259 0 0
.8195876 0 0
.846024 0 0
.8715085 0 0
.8959153 0 0
.9192042 0 0
.9415083 0 0
.9630134 0 0
.9838074 0 0
.9999999 0 0
.9999999 0 0
0 .02315838 .01069601
0 .03214713 .00375278
0 .03547312 .00183142
.08398729 .02422417 .00622986
.1351063 .01707366 .00425873
.1809506 .0113231 .00370746
.2254895 .01238796 0
.2681051 .0134579 0
.3087741 .018841 0
.3486892 .02366481 0
.3880658 .0255148 0
.4261616 .02517518 0
.463137 .025181 0
.4995504 .02286003 0
.5355431 .01975097 0
.5708849 .01482151 0
.6053692 .00556861 0
.6388858 0 0
.6712633 0 0
.7030215 0 0
.7337721 0 0
.7636856 0 0
.7921976 0 0
.8196338 0 0
.8460369 0 0
.8715273 0 0
.895941 0 0
.9192355 0 0
.9415349 0 0
.96306 0 0
.9838635 0 0
.9999999 0 0
.9999999 0 0
0 .06344339 0
0 .06731771 0
0 .0674445 0
.08372948 .06028974 .00262222
.1368206 .0566204 .00160189
.1831849 .05633154 0
.2272159 .05714392 0
.2689612 .06100806 0
.3091978 .06581207 0
.349553 .06709757 0
.3885135 .06808476 0
.4265052 .06796008 0
.463428 .06801845 0
.5000406 .06538538 0
.5359925 .06314331 0
.5712327 .0603691 0
.605753 .05273626 0
.6392253 .04500963 0
.6714033 .03705848 0
.7031614 .03331716 0
.73387 .02999673 0
.763808 .02826221 0
.7922786 .02535272 0
.8196859 .02356881 0
.8460864 .02135698 0
.8715482 .01778392 0
.8959768 .01340709 0
.9192848 .00404388 0
.9415861 0 0
.9631178 0 0
.9839272 0 0
.9999999 0 0
.9999999 0 0
0 .1064614 0
0 .1062695 0
.00056647 .1065395 0
.08582409 .1024875 0
.1391836 .0999931 0
.1857704 .1003751 0
.2285386 .1024612 0
.2697403 .1050144 0
.3106447 .1064689 0
.3504392 .1064683 0
.3891811 .1070521 0
.4269656 .1072525 0
.4640556 .10659 0
.5007395 .1045366 0
.5366333 .1030296 0
.5717419 .1018646 0
.6062398 .09730313 0
.6393278 .09411515 0
.6716128 .09034445 0
.7032987 .0890305 0
.7339748 .08767549 0
.7639375 .08649869 0
.792378 .08493809 0
.8197604 .08399648 0
.846158 .08270337 0
.871592 .08086837 0
.8960627 .07802228 0
.9193215 .07166522 0
.9416652 .06780913 0
.9632005 .06762728 0
.9840176 .06667075 0
.9999999 .06509864 0
.9999999 .06475724 0
0 .1448857 0
0 .1443971 0
.00878939 .1446652 0
.08663739 .1428026 0
.142054 .1417576 0
.1875414 .1422209 0
.2302772 .1430915 0
.2713389 .1436582 0
.3117714 .1442685 0
.3516299 .1440187 0
.3900968 .1443685 0
.4275922 .14482 0
.4650521 .1432453 0
.5016705 .1418416 0
.5374393 .1408686 0
.5721984 .141045 0
.6063864 .1387755 0
.639455 .1366308 0
.6718082 .1351094 0
.7034434 .1343907 0
.7341132 .1337814 0
.7640508 .1329144 0
.792494 .1318331 0
.8198597 .1312873 0
.8462898 .1302759 0
.8716986 .129269 0
.8960842 .1270565 0
.9193621 .123331 0
.9417791 .121732 0
.9633111 .1216222 0
.9841399 .1209932 0
.9999999 .1200743 0
.9999999 .1199316 0
0 .181604 0
0 .1818378 0
.02885268 .1821331 0
.09293932 .1817518 0
.1465428 .1805234 0
.1899818 .1804246 0
.2319043 .1805415 0
.2723286 .1809871 0
.3133577 .1808717 0
.3528852 .1808414 0
.3912486 .1808123 0
.4290687 .1802874 0
.4661902 .1793806 0
.5023364 .1793151 0
.5377114 .1795469 0
.5724022 .1795884 0
.6065116 .1786117 0
.6395317 .1773939 0
.6719621 .1764084 0
.7036502 .1759096 0
.7343367 .1756003 0
.7641913 .175081 0
.7926717 .1741214 0
.8200663 .1736317 0
.846495 .172855 0
.8718783 .1721933 0
.8961357 .1707773 0
.9194319 .1679621 0
.9419233 .1674787 0
.9634511 .1673995 0
.9842965 .1668692 0
.9999999 .1663547 0
.9999999 .1662524 0
0 .2174872 0
0 .2177917 0
.04078999 .2178832 0
.09794634 .2178974 0
.1511191 .2166577 0
.1940494 .2161198 0
.2351753 .2160985 0
.2752395 .216323 0
.3147473 .2171177 0
.3543659 .2168641 0
.392594 .2168355 0
.4299486 .2167377 0
.466586 .2166706 0
.5026234 .2171719 0
.5379111 .2177824 0
.5725616 .2179963 0
.6066163 .2174153 0
.6396322 .2164093 0
.6721759 .2158028 0
.7039022 .2154587 0
.7347163 .2150901 0
.7644319 .214639 0
.7928218 .2149265 0
.8202984 .2138947 0
.8467268 .2131137 0
.8720745 .2124484 0
.8962767 .2113049 0
.9195955 .2102089 0
.9420952 .2097046 0
.9636231 .2096213 0
.9844524 .2092687 0
.9999999 .2088862 0
.9999999 .2084507 0
0 .2527988 0
0 .2524781 0
.05682037 .252174 0
.1137279 .2515317 0
.1579244 .2513937 0
.1981249 .251525 0
.2373575 .2519784 0
.2768324 .2525721 0
.3154483 .253553 0
.3549132 .2534848 0
.3930025 .2539344 0
.4304357 .2540167 0
.4669466 .2541839 0
.5029501 .2546878 0
.5380874 .2552559 0
.5727505 .2554359 0
.6065431 .2552606 0
.6397945 .2544464 0
.6725656 .2539742 0
.7043512 .2536219 0
.7351892 .2534147 0
.764734 .2530657 0
.7932256 .2527597 0
.8206385 .2523284 0
.8469859 .2519647 0
.8722455 .2511503 0
.896491 .2501654 0
.9199154 .250019 0
.9423291 .2497929 0
.9637935 .2498997 0
.9846368 .2494507 0
.9999999 .2492667 0
.9999999 .2491739 0
0 .2884084 0
0 .2882174 0
.06202019 .2880774 0
.1153389 .2877674 0
.1600595 .287715 0
.1997285 .2880898 0
.2382334 .2886001 0
.276851 .2896664 0
.3159558 .2902361 0
.3548095 .2903606 0
.3931852 .2905366 0
.4304078 .2909928 0
.4672369 .2910652 0
.5033709 .2914031 0
.5384782 .2917515 0
.5729113 .2918904 0
.6067197 .2919214 0
.6402591 .2915674 0
.6730677 .2913651 0
.7048807 .2911994 0
.7355292 .2909375 0
.7650627 .2906324 0
.7935532 .2903228 0
.8210016 .2900678 0
.8472244 .2897593 0
.872453 .288932 0
.8968495 .2888611 0
.92031 .2885556 0
.9426863 .2882491 0
.9640827 .2886096 0
.9848446 .288563 0
.9999999 .2881123 0
.9999999 .2880172 0
0 .3245668 0
.00483461 .3245597 0
.06563716 .3244525 0
.1167641 .3243046 0
.1627235 .3241585 0
.2009533 .3245137 0
.2396281 .3248224 0
.2783387 .3255008 0
.3176139 .3257284 0
.3564288 .3257443 0
.394252 .3259906 0
.4307177 .3269176 0
.4675908 .3275766 0
.5035777 .3277927 0
.5388508 .3281255 0
.5733743 .3281408 0
.6071628 .3284973 0
.6407897 .3284261 0
.6736258 .3282404 0
.7053446 .328048 0
.7358519 .3278083 0
.7653776 .327567 0
.7938614 .327322 0
.8213055 .3271029 0
.8475813 .3263997 0
.8728257 .3262261 0
.8972059 .3266765 0
.9206496 .3264259 0
.9430153 .3262821 0
.964444 .326382 0
.9851682 .325923 0
.9999999 .3254541 0
.9999999 .3253717 0
0 .3611781 0
.00903504 .3611488 0
.067745 .3611079 0
.1171624 .3610496 0
.1616412 .3610293 0
.1999527 .3615554 0
.240378 .361587 0
.2795909 .3616689 0
.3191397 .3615058 0
.3580564 .3612411 0
.3960766 .361137 0
.4330297 .3617716 0
.4682444 .3636323 0
.5039407 .3639994 0
.5391883 .3641683 0
.5739244 .3644929 0
.6078848 .3645847 0
.6413955 .36464 0
.67418 .3644233 0
.7057261 .364232 0
.7362135 .3640167 0
.7657211 .3638039 0
.7941889 .3635883 0
.8215361 .3630097 0
.8478439 .3631081 0
.8731565 .3635571 0
.8974915 .3639094 0
.9210088 .3632728 0
.9433255 .3632574 0
.964705 .3631434 0
.9854003 .3627054 0
.9999999 .3622706 0
.9999999 .3621801 0
0 .3969514 0
.0120806 .3968918 0
.07058386 .3968248 0
.1196084 .3967314 0
.1626031 .3968262 0
.2008459 .3973835 0
.2400797 .3976039 0
.2801999 .397509 0
.3195782 .3973923 0
.3583541 .3974538 0
.3963422 .397532 0
.4337903 .3978675 0
.4697689 .3984588 0
.5046203 .3992459 0
.539755 .3997228 0
.5742725 .3999583 0
.6086452 .4001833 0
.6421986 .4001829 0
.6747861 .3999902 0
.7060804 .3996828 0
.7366126 .3994966 0
.7660887 .399317 0
.7944145 .3990479 0
.8217431 .399409 0
.8480675 .3998908 0
.8733939 .4002636 0
.897808 .4003031 0
.9213567 .3991279 0
.9436073 .398912 0
.9649988 .3988853 0
.9856126 .3987198 0
.9999999 .39856 0
.9999999 .3985038 0
0 .4326694 0
0 .432682 0
.05793602 .4326947 0
.1107246 .4326935 0
.157198 .4326522 0
.2008891 .432585 0
.240039 .4330586 0
.279513 .4331951 0
.3198351 .4330359 0
.3586921 .4330451 0
.3967402 .4331462 0
.4341467 .4334338 0
.4704232 .433477 0
.5057161 .4340081 0
.54061 .4344293 0
.5750133 .4348368 0
.6090974 .435132 0
.6427408 .4350994 0
.6751353 .4350906 0
.7064623 .4348231 0
.736918 .4346402 0
.7663258 .4345214 0
.7946628 .4349431 0
.8219643 .435414 0
.8482389 .4357979 0
.8735994 .4359403 0
.8980547 .4357439 0
.9216178 .434367 0
.9438668 .4341959 0
.9652337 .4340347 0
.9858412 .4338854 0
.9999999 .4337565 0
.9999999 .4337363 0
0 .4678035 0
0 .46782 0
.04136729 .4678385 0
.1023297 .4678647 0
.1515717 .4678997 0
.1966864 .4679441 0
.2381952 .4681879 0
.2778318 .4685127 0
.3182437 .4684235 0
.3584288 .468152 0
.3969906 .4681171 0
.4342796 .4681211 0
.4707958 .4681891 0
.5065897 .4684221 0
.5417362 .4684755 0
.5760279 .4689426 0
.6098677 .469542 0
.6430877 .4696679 0
.6750911 .4698199 0
.7066027 .4697784 0
.7371644 .4698769 0
.7664665 .470162 0
.7948086 .4703987 0
.8221775 .4704846 0
.8484372 .4706092 0
.8737731 .4704992 0
.8981361 .4703407 0
.9218325 .4690408 0
.9441417 .4688199 0
.9655156 .4685153 0
.9861277 .4683284 0
.9999999 .4681677 0
.9999999 .4680491 0
0 .5023824 0
0 .5023997 0
.02352125 .5024141 0
.09345321 .5024347 0
.1458177 .502462 0
.1925346 .5024965 0
.2364747 .5025387 0
.2769641 .5028397 0
.3164612 .5030584 0
.3563102 .5029924 0
.3964122 .5026193 0
.4340342 .5026467 0
.4706644 .5028094 0
.5064886 .5030029 0
.5418655 .503074 0
.5770355 .5028989 0
.6105821 .5033912 0
.6431289 .5038788 0
.6751642 .5039587 0
.7064036 .5045319 0
.7370774 .5047271 0
.766637 .5048997 0
.7950187 .5049146 0
.8222151 .5047969 0
.8485497 .5044896 0
.8740254 .5037721 0
.8985252 .5030404 0
.9219015 .5028319 0
.9443837 .502456 0
.9658446 .5022471 0
.9863535 .5019604 0
.9999999 .5017966 0
.9999999 .5017805 0
0 .5363274 0
0 .5363424 0
.00817178 .5363594 0
.08492925 .5363836 0
.140187 .536417 0
.1880808 .5364615 0
.2327701 .5365187 0
.2756559 .5365902 0
.3152275 .5370304 0
.355145 .5370575 0
.3946853 .5369269 0
.4340269 .5366502 0
.4705465 .5367731 0
.5063609 .5369619 0
.541767 .5371075 0
.5771946 .5367386 0
.6111799 .5363993 0
.6435699 .5368817 0
.6752304 .5375575 0
.7066503 .5378333 0
.7370506 .5379566 0
.7666621 .5377952 0
.7951678 .5375226 0
.8225721 .5372959 0
.8488587 .5370324 0
.8741845 .536751 0
.8985734 .5364516 0
.9219172 .5362253 0
.9442937 .5359296 0
.966086 .5353142 0
.9865482 .5350544 0
.9999999 .5350416 0
.9999999 .5350844 0
0 .569048 0
0 .5690632 0
0 .5690802 0
.07928871 .5691047 0
.1369099 .5691372 0
.1862469 .569171 0
.2318961 .5692102 0
.2753063 .5692755 0
.3157409 .5695007 0
.3553652 .5696601 0
.3939188 .5696007 0
.4325676 .5694596 0
.4707571 .5692991 0
.5066971 .5694195 0
.5420753 .5695276 0
.577238 .5693944 0
.6114083 .5692039 0
.6442433 .5692131 0
.6757504 .5699136 0
.7067186 .570522 0
.7370413 .5706051 0
.7664378 .5703033 0
.7948782 .57006 0
.8223621 .5698149 0
.8488772 .5695664 0
.8743336 .5694011 0
.8985273 .5691615 0
.921782 .5689104 0
.9442325 .5686231 0
.9661028 .5683932 0
.9868385 .5680006 0
.9999999 .5678596 0
.9999999 .5678173 0
0 .6006598 0
0 .6006768 0
0 .6006956 0
.07851826 .6007239 0
.1367015 .6007647 0
.1860905 .6008161 0
.2317965 .6008821 0
.2752219 .6009563 0
.3167501 .6010361 0
.3558458 .6013238 0
.3938464 .601413 0
.4317471 .6013612 0
.4696466 .6012847 0
.5074992 .6012664 0
.5430151 .6014423 0
.5773712 .6016232 0
.6114197 .6014448 0
.644565 .601189 0
.6763167 .6012627 0
.707124 .6017239 0
.7370774 .6021305 0
.7663376 .6021872 0
.7948999 .6016079 0
.822176 .6015593 0
.8486518 .6013038 0
.8740482 .6010175 0
.8984717 .6007999 0
.9218321 .600626 0
.9443516 .6005663 0
.9661371 .6005023 0
.9868563 .6003888 0
.9999999 .6000128 0
.9999999 .5999863 0
0 .6315993 0
0 .631617 0
0 .631637 0
.07717735 .6316655 0
.1360665 .6317003 0
.1857846 .6317398 0
.2315449 .6317878 0
.2747421 .6318513 0
.3163469 .6319317 0
.3570415 .6320676 0
.3947512 .6324793 0
.4328032 .6324401 0
.4703271 .6325134 0
.5075276 .6325416 0
.5434815 .6325402 0
.5778685 .6326362 0
.6115708 .6325145 0
.644733 .6321095 0
.6767771 .632036 0
.7076128 .6321098 0
.7373707 .6325755 0
.7662731 .6329922 0
.7944976 .6329392 0
.8221077 .6323156 0
.848191 .6321636 0
.8736306 .6319574 0
.8981182 .6318069 0
.9216521 .6317555 0
.944452 .6316875 0
.9662572 .6316041 0
.9867985 .6315148 0
.9999999 .6314397 0
.9999999 .6314647 0
0 .661681 0
0 .6616956 0
0 .6617201 0
.07766939 .6617461 0
.1369389 .6617807 0
.1869464 .6618245 0
.2326908 .6618902 0
.2760245 .6619971 0
.3177347 .6621385 0
.3582392 .6622989 0
.3964634 .6626338 0
.4339224 .6627625 0
.4710275 .6628067 0
.5071121 .662771 0
.5435451 .6625862 0
.5785003 .662446 0
.6119992 .6624095 0
.6451869 .6620679 0
.677327 .6618893 0
.708253 .6619654 0
.737717 .6620161 0
.7663584 .6624807 0
.7943133 .6628922 0
.8216534 .6627238 0
.8482128 .6622337 0
.8735557 .66207 0
.8979301 .6620708 0
.9214834 .6619939 0
.9444088 .6618453 0
.9662051 .6617554 0
.9869426 .6616858 0
.9999999 .6617761 0
.9999999 .6618298 0
0 .691137 0
0 .6911559 0
.00141598 .6911813 0
.08225384 .6912178 0
.1396096 .6912721 0
.1883366 .6913553 0
.2335254 .6914566 0
.2766111 .6915765 0
.3181645 .6917304 0
.3586199 .6918151 0
.3982862 .6918786 0
.4345141 .6921745 0
.4712229 .6920639 0
.507403 .6919528 0
.5425588 .6919941 0
.5785809 .6916363 0
.6123801 .6915308 0
.6455057 .6913165 0
.6775447 .6912648 0
.7082932 .6913022 0
.7381053 .6911152 0
.7669811 .6909823 0
.7945635 .6915724 0
.8216875 .6918702 0
.8480815 .6918832 0
.8736021 .6917136 0
.8981941 .6913748 0
.9214845 .6914592 0
.9445029 .691271 0
.9661958 .6910303 0
.9868854 .6908944 0
.9999999 .690995 0
.9999999 .6910427 0
0 .7199922 0
0 .7200093 0
.00113096 .7200363 0
.08207027 .7200668 0
.1393485 .7200819 0
.1877033 .7201617 0
.2332325 .720178 0
.2765636 .7201849 0
.3182911 .7201949 0
.358778 .7202222 0
.3980438 .7202538 0
.434885 .7205244 0
.4713748 .7204728 0
.5074744 .7204951 0
.5426227 .7204719 0
.5773345 .7203899 0
.6124812 .7199754 0
.645598 .7197847 0
.6776911 .7195718 0
.708417 .7195407 0
.7384146 .7193146 0
.767556 .7191621 0
.7954807 .7192811 0
.8219729 .7201447 0
.848222 .7203293 0
.8736101 .7203421 0
.8981515 .7202871 0
.922098 .7197708 0
.9444711 .7196418 0
.9659411 .7195292 0
.986616 .7194265 0
.9999999 .7193631 0
.9999999 .7193946 0
0 .747845 0
0 .7478351 0
0 .7478241 0
.07671889 .7478081 0
.136083 .7478513 0
.1859502 .7479334 0
.2324187 .7478511 0
.2760957 .7477999 0
.3177112 .7478134 0
.3582821 .7477906 0
.3976178 .7478011 0
.4355842 .7478829 0
.4716428 .7480305 0
.5076416 .7478779 0
.5429561 .7477585 0
.5772683 .7477697 0
.611622 .7476018 0
.6457204 .7472416 0
.6777794 .7471036 0
.7087915 .7469286 0
.7390084 .7468057 0
.7680523 .7468237 0
.7961049 .7468351 0
.8230832 .7469981 0
.8485829 .7478034 0
.8739694 .7478138 0
.8984652 .7477776 0
.9219636 .747716 0
.944381 .74738 0
.9659283 .7471249 0
.9863949 .7471114 0
.9999999 .7469742 0
.9999999 .7469574 0
0 .7747338 0
0 .7747208 0
0 .7747059 0
.07060606 .7746847 0
.1326105 .7746564 0
.183625 .7746227 0
.2301223 .7745526 0
.2742041 .7744707 0
.3165555 .7743759 0
.3574481 .7743016 0
.3970472 .7742552 0
.4351656 .7743106 0
.471581 .7745204 0
.5078368 .7743862 0
.5432992 .7742633 0
.57767 .7742482 0
.6114674 .7742248 0
.6452606 .7740383 0
.6780263 .7738707 0
.7092389 .7737253 0
.7394004 .7736687 0
.7686089 .7736538 0
.796657 .7736603 0
.8237301 .7736604 0
.84971 .7737848 0
.8743725 .7743382 0
.8984861 .7744557 0
.9217303 .7744561 0
.9441473 .7744479 0
.9657179 .7742361 0
.9863661 .7738932 0
.9999999 .7734151 0
.9999999 .7733892 0
0 .8005719 0
0 .8005576 0
0 .8005399 0
.05899652 .8005148 0
.1262589 .8004784 0
.1792195 .8004301 0
.2268853 .8003597 0
.2716404 .8002761 0
.314467 .8001799 0
.3557147 .8000813 0
.3957506 .7999734 0
.4346919 .7999223 0
.4724816 .7999187 0
.507888 .8000748 0
.5433807 .7999665 0
.5779995 .7999477 0
.6119747 .8000602 0
.6449726 .8001774 0
.6779612 .7999166 0
.709654 .7997946 0
.739817 .7997293 0
.7689728 .7996626 0
.7971426 .79961 0
.8242763 .7995913 0
.850349 .7996064 0
.8751324 .7997513 0
.8986415 .80012 0
.9216256 .8003793 0
.943993 .8003219 0
.9655107 .8001128 0
.9861338 .7998461 0
.9999999 .7993323 0
.9999999 .7992556 0
0 .8254882 0
0 .8254719 0
0 .8254531 0
.05014402 .8254268 0
.1219122 .8253914 0
.1762362 .8253468 0
.2245559 .8252925 0
.2696889 .8252224 0
.3126926 .8251411 0
.3541815 .8250486 0
.3945573 .8249477 0
.4339804 .8248274 0
.4721196 .8247358 0
.5086614 .8248549 0
.5436885 .8249449 0
.5785635 .8250052 0
.612445 .8251382 0
.645258 .8252574 0
.6771851 .8253761 0
.709652 .8250604 0
.7400899 .8249211 0
.769302 .824934 0
.7974815 .8248664 0
.8244737 .8248267 0
.8506001 .8247932 0
.875412 .8248259 0
.8989961 .8249651 0
.9218941 .8250023 0
.9438494 .825088 0
.9653206 .8248387 0
.9859459 .8245929 0
.9999999 .824351 0
.9999999 .8243003 0
0 .8495617 0
0 .849546 0
0 .849528 0
.04167164 .8495025 0
.1179909 .8494685 0
.1735175 .8494273 0
.2223007 .8493846 0
.267712 .849334 0
.3110076 .8492631 0
.3528029 .849175 0
.3935773 .8491371 0
.4332851 .849089 0
.4717369 .8490658 0
.5087677 .849068 0
.5440096 .8492535 0
.5790308 .8493027 0
.6127938 .8494077 0
.6454421 .8495432 0
.677242 .8497055 0
.7085431 .8498398 0
.7400256 .8494927 0
.7694197 .8492856 0
.7974756 .8491936 0
.8246312 .8491318 0
.8506374 .8490348 0
.8753662 .8489004 0
.8991799 .8487766 0
.9220091 .8487567 0
.9441785 .8485568 0
.9651381 .8487368 0
.98576 .8485 0
.9999999 .848267 0
.9999999 .8482181 0
0 .8728282 0
0 .872814 0
0 .8727999 0
.03104373 .8727818 0
.1130839 .8727575 0
.1701201 .8727351 0
.2199711 .8727409 0
.2660693 .8727477 0
.3098189 .8727556 0
