luts/Timeless_26.cube
# 3D LUT of size 33x33x33 converted by Filestar.
#   Input:
#     color space: sRGB
#     white point: default (D65)
#     transfer function: default (sRGB)
#   Output:
#     color space: sRGB
#     white point: default (D65)
#     transfer function: default (sRGB)
#   Exposure: +0.53999996
#   Contrast: +23
#   Whites: +8
#   Blacks: -20
LUT_3D_SIZE 5
0 .00032566 .01089675
.2984913 0 0
.5901511 0 0
.8293526 0 0
.9999999 0 0
0 .3057544 0
.3082648 .307971 0
.5922922 .3101063 0
.8307068 .3094927 0
.9999999 .3098168 0
0 .5972651 0
.3076949 .5975167 0
.5962281 .5984989 0
.8312401 .5992263 0
.9999999 .5989778 0
0 .8328765 0
.3070858 .832767 0
.599565 .8329378 0
.8341037 .8332419 0
.9999999 .8329652 0
0 .9999999 0
.3078106 .9999999 0
.5999527 .9999999 0
.8330544 .9999999 0
.9999999 .9999999 0
0 0 .3063787
.3038189 0 .3086289
.593049 0 .3114731
.8302521 0 .3113762
.9999999 0 .3109967
0 .3077181 .3096956
.3056461 .3093222 .3100915
.5938885 .3084019 .3103524
.8314444 .3067987 .3093667
.9999999 .3062662 .3088761
0 .5975074 .3090788
.3045251 .5978911 .3089092
.5957687 .5983562 .3089986
.8323015 .5984192 .3070107
.9999999 .5978342 .3070139
0 .8329059 .306049
.3037016 .8327782 .3056569
.5983996 .8329776 .3051507
.8344528 .8329072 .3045095
.9999999 .8324686 .3044221
0 .9999999 .3103606
.3059573 .9999999 .3105801
.6004242 .9999999 .3080033
.8324056 .9999999 .3052623
.9999999 .9999999 .304221
0 0 .5975946
.3089277 0 .5977207
.5949447 0 .5976881
.8311474 0 .5996569
.9999999 0 .6002879
0 .308823 .5983789
.3073521 .3081219 .5985417
.5956899 .3065907 .5984964
.831808 .3046429 .5990023
.9999999 .3005797 .5993081
0 .5966505 .5985559
.3038081 .5969235 .5984764
.5982538 .5972053 .5983285
.8330188 .5972067 .5984782
.9999999 .5964734 .5987013
0 .8333882 .5984811
.2999047 .8334404 .5981996
.5985059 .8328671 .5982347
.835089 .8325441 .5979418
.9999999 .8324757 .5992123
0 .9999999 .5998808
.3058501 .9999999 .5999008
.6009231 .9999999 .6003972
.8317789 .9999999 .601396
.9999999 .9999999 .6002963
0 0 .8336
.3082023 0 .8336551
.5966509 0 .8333074
.8327828 0 .8334087
.9999999 0 .8338544
0 .3086543 .8334586
.3048786 .3077426 .8334805
.5968049 .3064285 .8336925
.8328267 .3027891 .8336421
.9999999 .2991964 .8340594
0 .5976648 .8338433
.3008966 .5978161 .8340106
.5977846 .597046 .8342682
.8333343 .5965631 .834155
.9999999 .5967787 .8337371
0 .8332403 .8337489
.301656 .8328911 .8337269
.5986983 .8322931 .8337669
.8327291 .8321383 .8338916
.9999999 .8328288 .8339462
0 .9999999 .8338281
.307735 .9999999 .833811
.6039788 .9999999 .8337213
.8347601 .9999999 .834426
.9999999 .9999999 .8340582
0 0 .9999999
.3092251 0 .9999999
.5980811 0 .9999999
.8323598 0 .9999999
.9999999 0 .9999999
0 .3091111 .9999999
.3056961 .3089672 .9999999
.5988317 .3107416 .9999999
.8321943 .3062359 .9999999
.9999999 .3048348 .9999999
0 .598451 .9999999
.3059808 .5977136 .9999999
.5989074 .5988187 .9999999
.8327625 .6001746 .9999999
.9999999 .5984727 .9999999
0 .8326534 .9999999
.3145693 .8325499 .9999999
.6035501 .8322577 .9999999
.8325384 .8332947 .9999999
.9999999 .8329183 .9999999
0 .9999999 .9999999
.3173525 .9999999 .9999999
.6060079 .9999999 .9999999
.8402653 .9999999 .9999999
.9999999 .9976622 .9999999
