luts/Timeless 35.cube
# 3D LUT of size 33x33x33 converted by Filestar.
#   Input:
#     color space: sRGB
#     white point: default (D65)
#     transfer function: default (sRGB)
#   Output:
#     color space: sRGB
#     white point: default (D65)
#     transfer function: default (sRGB)
#   Exposure: +0.72999996
#   Contrast: +21
#   Whites: +11
#   Blacks: -27
#   Vibrance: +7
LUT_3D_SIZE 9
.02750685 .00345072 .01606212
.1443395 0 0
.3258121 0 0
.4835355 0 0
.6236389 0 0
.7466283 0 0
.8524638 0 0
.9389325 0 0
.9999999 0 0
0 .1586883 0
.1586372 .1616748 0
.3291335 .1605366 0
.4858803 .1590877 0
.6249118 .1584536 0
.7475419 .1606089 0
.8528159 .1533789 0
.9391879 .1460803 0
.9999999 .1423678 0
0 .3329471 0
.1666829 .3328588 0
.3335699 .3323986 0
.4869816 .3349493 0
.6264784 .3356405 0
.7497477 .3360386 0
.854017 .3357048 0
.9398931 .3342418 0
.9999999 .3329484 0
0 .4922972 0
.1643195 .4924533 0
.333728 .4929674 0
.4881084 .4930822 0
.628373 .4942104 0
.7524198 .4953088 0
.8547217 .496241 0
.9406922 .4954613 0
.9999999 .4943194 0
0 .6360333 0
.1383135 .6361011 0
.3308931 .6363415 0
.489487 .6363091 0
.6315277 .6370466 0
.752164 .6376916 0
.8558414 .6376585 0
.941255 .6373609 0
.9999999 .6358117 0
0 .7596487 0
.1263616 .7595933 0
.3275057 .7594953 0
.4911092 .7590788 0
.6333818 .7585593 0
.7544966 .7584187 0
.8553456 .7590781 0
.9419612 .7581756 0
.9999999 .7574984 0
0 .8617424 0
.1252705 .8617396 0
.3271625 .8616446 0
.4908822 .8616209 0
.6319637 .8616279 0
.7543634 .8610446 0
.856851 .860321 0
.941029 .8601663 0
.9999999 .8599042 0
0 .9462184 0
.1059374 .9461235 0
.3217002 .9457672 0
.4872465 .9455046 0
.6313985 .9453641 0
.7520811 .9456144 0
.8562967 .9443718 0
.9410042 .9435642 0
.9999999 .9430515 0
0 .9999999 0
.09024069 .9999999 0
.3165347 .9999999 0
.4847748 .9999999 0
.6297183 .9999999 0
.7505794 .9999999 0
.8518064 .9999999 0
.9372993 .9999999 0
.9999999 .9999999 0
0 .01297938 .1604132
.1526641 0 .162786
.3279476 0 .1625538
.4862073 0 .1613408
.6256724 0 .1604675
.7481676 0 .156212
.8534751 0 .1518889
.9396061 0 .1483184
.9999999 0 .1429333
0 .1588907 .1666441
.1602626 .1606223 .1655425
.3303078 .1601538 .1609611
.4872903 .1548592 .1575617
.626553 .1510947 .1568163
.7491014 .1515301 .1524781
.8539106 .1441575 .1488038
.9399889 .1374465 .1456451
.9999999 .1344582 .1395687
0 .3336367 .1586838
.1629432 .3334152 .1564342
.3347663 .3330684 .158117
.4885305 .3329861 .1571373
.6277413 .3331144 .1523756
.7508138 .3335522 .1470316
.8547187 .3328454 .1419503
.9405591 .3314375 .1380916
.9999999 .3300603 .132749
0 .4926137 .144509
.1507931 .493131 .1411642
.3330047 .4933945 .1385439
.4889464 .4937919 .1423145
.6300716 .4935508 .1420541
.753198 .4936711 .1423118
.8554248 .4942464 .1372558
.9414871 .4930677 .1332101
.9999999 .492273 .1280975
0 .6369861 .1264735
.1214589 .6370391 .1242245
.325364 .6371709 .121923
.4894843 .6369124 .1236188
.6325225 .6371561 .1262343
.7534564 .6374826 .1249087
.8570579 .6366884 .117879
.9422316 .6362377 .1111961
.9999999 .6349081 .1130198
0 .7599969 .1075088
.1151683 .7598435 .104721
.3237469 .7597904 .1056743
.4881703 .7597157 .101613
.6329451 .7590075 .1058156
.7553939 .7583963 .1056858
.8562548 .7590346 .09986892
.9423874 .7580469 .096177
.9999999 .7574721 .09772664
0 .8619177 .083815
.1082381 .8618711 .08207735
.3223078 .8619642 .08568644
.4881991 .8620406 .08601936
.6305195 .8621935 .08308514
.7542117 .8613154 .0899234
.8572906 .8602901 .0906642
.9417304 .8600845 .09231708
.9999999 .8598099 .09416313
0 .9465743 .06774323
.08422401 .9463879 .06457053
.317168 .9461039 .06602573
.484973 .9456769 .0771886
.6296403 .9459258 .07321323
.7503754 .9460643 .07591017
.8565874 .9444452 .08402968
.941615 .9435055 .08517478
.9999999 .9428894 .08243222
0 .9999999 .06967408
.06907455 .9999999 .06938057
.3116021 .9999999 .0730918
.4820812 .9999999 .06919247
.6273821 .9999999 .06021456
.7498074 .9999999 .06387653
.8509437 .9999999 .06717935
.937894 .9999999 .07295401
.9999999 .9999999 .07376533
0 0 .3352922
.1577714 0 .3366164
.3283031 0 .3380266
.488174 0 .3392315
.627178 0 .338712
.749357 0 .3387636
.8550988 0 .3368599
.9406606 0 .3355194
.9999999 0 .3335311
0 .1582151 .3388925
.1506001 .1563479 .3399722
.3290108 .154608 .3401692
.489254 .148478 .3381774
.6270388 .1444212 .338148
.7503579 .136988 .3379121
.8552436 .1281906 .3361872
.9411227 .1205679 .3342655
.9999999 .1175731 .3319697
0 .3329706 .3399683
.1500868 .3329751 .3400582
.3335639 .3320471 .3390562
.4891415 .3313752 .3375444
.6277705 .3315898 .3377481
.7521558 .3298782 .3372452
.8558742 .3265748 .3350868
.9422121 .3242317 .3321372
.9999999 .3228854 .3295961
0 .4932837 .3351172
.1285036 .4931871 .3344343
.3270437 .4932721 .3341372
.4890231 .4935918 .3346427
.6313943 .4916927 .3335726
.7536849 .4928041 .3333607
.8570809 .4916498 .3317323
.9430153 .4900674 .3303372
.9999999 .4890591 .3283878
0 .6369092 .329151
.1015109 .6369714 .329373
.3150721 .6377038 .3289377
.4862305 .63772 .3272623
.6329544 .6376581 .326974
.7546512 .6372449 .3255303
.8586966 .6357476 .3213156
.9431708 .6346548 .3271847
.9999999 .6331739 .3280709
0 .7598088 .3218032
.06649876 .760105 .3215932
.3101491 .7604699 .3209384
.4839767 .7602516 .3197824
.6304936 .7600309 .3170624
.7551525 .7594406 .3178691
.8576475 .7592145 .3165565
.9444286 .7577717 .3153164
.9999999 .7575874 .3165398
0 .8623482 .314635
.04207054 .8625685 .3146672
.3072797 .8628099 .3142038
.481118 .8629201 .3139754
.6284847 .8629319 .3129174
.7522745 .8628371 .3118275
.8581187 .8615006 .3128191
.9430461 .8605427 .3127191
.9999999 .8594999 .3144336
0 .9468672 .3126343
.02289912 .9468784 .3119549
.3014721 .9469759 .3101097
.4775643 .9464806 .3107337
.6259934 .9461971 .3103563
.7488934 .9467244 .3067039
.8557625 .9454326 .3074946
.9422691 .9440038 .3093032
.9999999 .9428797 .3080742
0 .9999999 .3121853
.02700722 .9999999 .3116923
.3010114 .9999999 .3102419
.4751166 .9999999 .3108428
.6235315 .9999999 .3099363
.7477802 .9999999 .3045471
.850044 .9999999 .3001021
.9384642 .9999999 .3024794
.9999999 .9999999 .3049214
0 0 .4974378
.1511174 0 .49784
.3327816 0 .4988946
.4877816 0 .4997714
.626877 0 .4989232
.7508031 0 .5003735
.8555833 0 .4992288
.941517 0 .4978499
.9999999 0 .4967719
0 .1532912 .4991318
.139232 .1494147 .4997895
.3307171 .1417567 .5007187
.4878507 .1412858 .5011594
.6274781 .1394863 .4997234
.7519922 .1269069 .4995052
.8563955 .1152977 .4984984
.942286 .1037124 .4968415
.9999999 .09509502 .4957535
0 .3313043 .4999723
.1303495 .3300929 .5002405
.3220777 .3275114 .5010996
.4891323 .3254993 .5009117
.630375 .3279354 .4990306
.7533563 .3252976 .4982328
.8573687 .3204432 .4969221
.9432716 .3188341 .4963345
.9999999 .3186335 .4953704
0 .4933081 .5001969
.1073924 .4929496 .4999766
.3194999 .49272 .4996421
.4874225 .4916545 .4991433
.630356 .4919549 .4976968
.7531824 .4920722 .4983526
.8567715 .4904741 .4971178
.9428134 .4883192 .4958056
.9999999 .4871396 .4950072
0 .6368975 .4970474
.05942404 .6368809 .4961386
.3081581 .6370193 .494267
.4832125 .6368797 .4929908
.6337501 .6365706 .4923012
.7562336 .6355336 .4911645
.8580639 .6342412 .4950353
.9432313 .6334703 .4945452
.9999999 .6327497 .4946886
0 .7597944 .490308
.01226997 .7596912 .4896667
.3034826 .7595596 .488575
.481593 .7601411 .4872638
.6304821 .7591731 .4875907
.7554086 .759329 .4865251
.8591246 .7585976 .4877474
.944715 .7570555 .4874092
.9999999 .7563272 .4909937
0 .8622575 .486802
0 .8621367 .4866434
.3034147 .8621789 .4853324
.4776294 .8626172 .485329
.6268504 .8624215 .4848994
.7533542 .8619396 .4846967
.858505 .8618264 .4839917
.9436923 .8604541 .4847258
.9999999 .8590807 .4853935
0 .946215 .4847462
0 .9460831 .4844562
.2981973 .9460797 .4841351
.475143 .9460999 .4839205
.6237754 .9458099 .4847324
.7483625 .9456599 .4850251
.8546044 .9457772 .483398
.9412847 .9445512 .4814476
.9999999 .9429396 .479902
0 .9999999 .4836394
0 .9999999 .4840332
.3012829 .9999999 .484382
.4760337 .9999999 .4847157
.6215838 .9999999 .4866769
.7455447 .9999999 .4864135
.8498967 .9999999 .4820235
.9377531 .9999999 .4806867
.9999999 .9999999 .4810658
0 0 .6414062
.1505077 0 .6418209
.3321462 0 .6423017
.4906776 0 .6424925
.6291456 0 .6422963
.7507114 0 .6423911
.8568716 0 .643666
.9425942 0 .6439724
.9999999 0 .6433157
0 .1445339 .6419449
.1335604 .1402001 .642318
.3283539 .1324791 .6431223
.489414 .129945 .6431303
.6300027 .1285812 .6432456
.7528276 .1234957 .6433406
.8578093 .1083212 .6439341
.9434269 .09266634 .643616
.9999999 .0882679 .6428622
0 .3267019 .6430742
.1159184 .3260712 .6432772
.3229416 .3243 .6431926
.4879087 .3212208 .6436436
.6315997 .3213128 .6440026
.7567462 .318582 .6445014
.8587658 .3185467 .6433321
.944611 .3154013 .6427864
.9999999 .3146871 .6417381
0 .4910235 .6438981
.08218767 .4899954 .6439811
.3107736 .4879253 .6437907
.4812955 .4874721 .6431149
.6348234 .4870842 .6439414
.7581496 .4863726 .6426169
.8583964 .4875267 .6422305
.9426662 .4879398 .6413859
.9999999 .4876401 .6403493
0 .6361499 .6438094
.02429024 .6363901 .6438228
.30186 .6368365 .6437169
.479761 .6363398 .6433603
.6308794 .6347178 .6421422
.7544278 .6346955 .642142
.8559136 .6348781 .6418035
.9409401 .6339111 .640806
.9999999 .6329852 .640365
0 .7611409 .6414548
0 .7610004 .6410714
.2953325 .7607131 .6399863
.4758595 .7601471 .6394177
.6296425 .7587756 .6389914
.7555696 .7584964 .6371884
.8595996 .757479 .6357359
.9422283 .7565831 .639899
.9999999 .7563109 .6395077
0 .8631541 .6375408
0 .8629894 .6373736
.2936037 .8626027 .6370575
.4726844 .8622408 .6359829
.6258768 .8618981 .6349396
.7525312 .8614714 .6344967
.8571718 .8612584 .6343193
.9421465 .8604243 .6338096
.9999999 .858242 .6338048
0 .9468378 .6342192
0 .9467236 .6340439
.2864822 .9463541 .6335996
.4681521 .9458136 .6327474
.6221957 .9454481 .632679
.7475281 .9453025 .6332704
.8533504 .9448724 .6341332
.9403871 .944599 .6318501
.9999999 .9433912 .6306281
0 .9999999 .6322088
0 .9999999 .6317521
.2920032 .9999999 .6301323
.4730921 .9999999 .6309658
.622319 .9999999 .632898
.7442378 .9999999 .6346251
.8486224 .9999999 .6341648
.9362671 .9999999 .6327404
.9999999 .9999999 .6310274
0 0 .7650754
.1401025 0 .7653517
.3287194 0 .7656567
.488456 0 .7659813
.6323963 0 .7662359
.7546629 0 .766798
.8574774 0 .7662274
.9423727 0 .7663302
.9999999 0 .7658126
0 .1347373 .765599
.1214795 .1343497 .7656255
.3239673 .1242313 .7660639
.487447 .113443 .7663636
.6320385 .1094823 .7665417
.7549655 .1017951 .7673005
.8586723 .09621852 .76668
.9438332 .09074002 .76654
.9999999 .0809535 .7657828
0 .3237984 .7663226
.1036732 .323209 .7664099
.3191128 .3200336 .7666584
.4845511 .3166535 .7669882
.6299787 .3152792 .7674292
.7557958 .3127643 .7679312
.8610055 .3089974 .7675552
.9451542 .3087479 .7665539
.9999999 .311505 .7644763
0 .4891949 .7670367
.02060997 .4885121 .7670091
.3014153 .4860938 .7670707
.4786589 .4840305 .7673873
.6290584 .4825552 .7677006
.7558484 .4816721 .7683029
.8616849 .4790493 .7673762
.9449791 .4830385 .7643994
.9999999 .4849443 .7634441
0 .6331738 .7676173
0 .632942 .7675899
.2901261 .6331304 .7673708
.4751201 .6324777 .7672583
.6277844 .6305682 .7669899
.7545502 .6308663 .7664052
.8586114 .6315808 .7646328
.9424778 .6323103 .7634232
.9999999 .6327098 .7635079
0 .7595866 .7664963
0 .7596121 .7664234
.2970578 .7596262 .766271
.4759836 .7593881 .7659633
.6261307 .7588143 .7655119
.7526368 .7575989 .7646872
.8557501 .7577938 .7648526
.940128 .7574213 .7638755
.9999999 .7567462 .7639804
0 .8635026 .764567
0 .8632891 .7645054
.2923256 .8627443 .764299
.4728315 .8620114 .7637398
.6254469 .8610184 .7632467
.7513534 .8605931 .7631416
.8572514 .8602756 .7627388
.9415606 .859846 .7614782
.9999999 .8590404 .7643625
0 .9466723 .7620846
0 .946597 .7618759
.2905029 .9464156 .7613717
.470148 .9464696 .760515
.6212002 .9459174 .7607434
.7495998 .9446697 .7612386
.851926 .9448619 .761581
.9387009 .9437069 .7600698
.9999999 .9420549 .7585199
0 .9999999 .7592653
0 .9999999 .7588305
.296603 .9999999 .7580585
.471745 .9999999 .7584208
.6235455 .9999999 .7590344
.7470293 .9999999 .7593873
.8492458 .9999999 .7594087
.9340187 .9999999 .7597904
.9999999 .9999999 .7586
0 0 .867663
.1344393 0 .8678262
.3251577 0 .8682346
.4864419 0 .8688986
.6298774 0 .8689672
.7542533 0 .8692818
.8568354 0 .8695019
.941554 0 .8689473
.9999999 0 .8682905
0 .127607 .8680506
.1194407 .1239732 .8682212
.3218161 .1170634 .8685619
.484752 .1064726 .8691489
.6280794 .1022373 .8691093
.7531848 .09134049 .8694728
.8570781 .08374213 .8699744
.942142 .07534183 .8691532
.9999999 .05947758 .8685807
0 .3204479 .8685963
.08586893 .3196114 .8687035
.3143883 .3175278 .8690127
.4804119 .3170407 .8691306
.6260912 .3158759 .8693396
.7509006 .3120254 .870101
.8568335 .3085252 .8701162
.9430879 .3059629 .8695886
.9999999 .3028546 .8689209
0 .4850715 .8689247
.01326868 .4838737 .8689126
.2995903 .4820135 .8690388
.4768614 .4814437 .869199
.6245534 .4802837 .8691891
.7507714 .4793019 .8698766
.8571051 .4782841 .8701881
.9439114 .4768406 .8695425
.9999999 .4769829 .8688131
0 .6311233 .8690034
0 .6307877 .8690309
.2882229 .6295069 .8690169
.4736632 .627681 .868656
.6245269 .6280494 .8685667
.7505751 .6280672 .8689446
.856982 .6281262 .869377
.9442074 .6265523 .8687231
.9999999 .6279024 .8675918
0 .7552084 .8689474
0 .7554997 .8688734
.2922804 .7559907 .868769
.471994 .7558675 .8686333
.6228163 .7549069 .8684666
.7502559 .7550766 .8684056
.8565246 .7553273 .8681833
.9411925 .7551813 .8674866
.9999999 .7561057 .866622
0 .861555 .8685898
0 .8616199 .8685365
.2921923 .8616045 .8683567
.4721066 .8617367 .8677604
.6231146 .8609856 .8674931
.7499012 .8608457 .8674837
.8550345 .8600627 .8673925
.9386292 .8602046 .8672189
.9999999 .8593875 .8669538
0 .9469209 .8668913
0 .9467868 .8667957
.2875946 .9464952 .8665802
.4708109 .9461272 .8665965
.624046 .9455116 .8672531
.7503889 .9443464 .8660292
.8532999 .943552 .8661152
.938103 .9430798 .865591
.9999999 .9420959 .8654158
0 .9999999 .8648005
0 .9999999 .8646873
.2907556 .9999999 .864113
.4728434 .9999999 .8638867
.6255248 .9999999 .8633851
.7514603 .9999999 .8629415
.8531131 .9999999 .8646173
.9359733 .9999999 .8655484
.9999999 .9999999 .8652913
0 0 .951171
.1363792 0 .9510792
.3252758 0 .9512199
.4856371 0 .9513418
.6263045 0 .9514392
.7510228 0 .952014
.8554172 0 .9526171
.9399535 0 .9527376
.9999999 0 .9522827
0 .1223179 .9511504
.1205601 .1196786 .9512109
.3200549 .1134639 .9513434
.4832624 .1055927 .9514361
.6247467 .09887458 .9515157
.7498013 .08816347 .9522036
.8548056 .07805342 .9528247
.939904 .07624213 .953152
.9999999 .06471887 .9524756
0 .3185752 .9513701
.0800053 .3180752 .9514193
.3081412 .3163395 .9514878
.4780338 .3146742 .9516074
.6230282 .3140886 .9518048
.7479461 .3103082 .9527048
.854258 .3075625 .9534504
.9407205 .3047968 .9535573
.9999999 .3055505 .9529164
0 .4796759 .9516125
0 .4780958 .9517058
.290572 .4772895 .951834
.4718626 .4787259 .9519572
.6223779 .4788173 .9519312
.7475203 .4785994 .9527591
.8545449 .4777174 .9535034
.9408069 .4780141 .9530672
.9999999 .4775252 .952482
0 .6282107 .9515254
0 .6279323 .9514697
.2927518 .6271291 .9514197
.4728949 .625663 .9513769
.6232325 .6261467 .951171
.7471043 .6269587 .9515734
.8547565 .6256607 .9525321
.9408073 .6259695 .9523959
.9999999 .6256325 .952167
0 .7538666 .9519385
0 .7540036 .9518389
.2880164 .754276 .9515005
.4702918 .7537844 .9510246
.6213756 .7523445 .9508443
.7490385 .7519543 .9506721
.8537434 .7527938 .9511256
.9403458 .7522854 .952024
.9999999 .7519076 .9516885
0 .859126 .951976
0 .8592369 .9518715
.2869576 .8591719 .9516159
.4684695 .8589119 .9513238
.6191096 .8586046 .9512178
.7479337 .8577257 .950551
.8528167 .8571099 .9498193
.9388052 .8576518 .9499628
.9999999 .8582278 .949787
0 .944577 .9513478
0 .9445649 .9511889
.2845557 .9445512 .9508215
.4696529 .9447501 .9501081
.6211661 .9446147 .9499846
.7475663 .9439988 .9494902
.8525677 .9438618 .9493791
.9380241 .9436657 .9488934
.9999999 .943077 .9497178
0 .9999999 .9484833
0 .9999999 .9484378
.2868623 .9999999 .9479452
.4714276 .9999999 .9474019
.6240476 .9999999 .9476768
.7518475 .9999999 .9479806
.8583574 .9999999 .9476653
.9390121 .9999999 .9495754
.9999999 .9999999 .950412
0 0 .9999999
.1374122 0 .9999999
.3235379 0 .9999999
.4875495 0 .9999999
.6269937 0 .9999999
.7480002 0 .9999999
.8523335 0 .9999999
.9381993 0 .9999999
.9999999 0 .9999999
0 .1190213 .9999999
.12071 .1172401 .9999999
.3186373 .1130731 .9999999
.4853389 .107286 .9999999
.6260273 .1051753 .9999999
.747539 .09889559 .9999999
.8522846 .08769903 .9999999
.9386916 .07599892 .9999999
.9999999 .05601937 .9999999
0 .3163748 .9999999
.08404801 .316438 .9999999
.3101472 .3166935 .9999999
.4798356 .3153286 .9999999
.6239645 .3151565 .9999999
.7469451 .3138131 .9999999
.8516393 .3086445 .9999999
.9388905 .3062857 .9999999
.9999999 .303489 .9999999
0 .4764395 .9999999
0 .4766924 .9999999
.2915985 .4778157 .9999999
.4719934 .4796524 .9999999
.6222878 .4798108 .9999999
.745616 .4795228 .9999999
.8518925 .4771321 .9999999
.9388987 .4764105 .9999999
.9999999 .476353 .9999999
0 .6272233 .9999999
0 .6267641 .9999999
.2898614 .625431 .9999999
.4672973 .6228157 .9999999
.6202233 .6245896 .9999999
.7471667 .6268799 .9999999
.8519102 .6259218 .9999999
.9382654 .6261686 .9999999
.9999999 .6248801 .9999999
0 .7517346 .9999999
0 .7517253 .9999999
.2979244 .7514646 .9999999
.4746267 .7507849 .9999999
.6199304 .7514757 .9999999
.7458169 .7510262 .9999999
.8500968 .7515505 .9999999
.9363003 .7509404 .9999999
.9999999 .7501256 .9999999
0 .855401 .9999999
0 .8555205 .9999999
.2947932 .8558497 .9999999
.4725251 .855608 .9999999
.6217357 .8550311 .9999999
.7490976 .8547575 .9999999
.849968 .8567412 .9999999
.9346906 .8575507 .9999999
.9999999 .8573644 .9999999
0 .9419016 .9999999
0 .9416524 .9999999
.2984723 .9411837 .9999999
.4769679 .9404504 .9999999
.6234953 .9403899 .9999999
.749304 .9397291 .9999999
.8548323 .9392718 .9999999
.936692 .9418452 .9999999
.9999999 .9437277 .9999999
0 .9999999 .9999999
.03182097 .9999999 .9999999
.3084971 .9999999 .9999999
.4825815 .9999999 .9999999
.6309994 .9999999 .9999999
.7557209 .9999999 .9999999
.85909 .9999999 .9999999
.9436639 .9998414 .9999999
.9999999 .9991124 .9998403
