luts/Timeless_31.cube
# 3D LUT of size 33x33x33 converted by Filestar.
#   Input:
#     color space: sRGB
#     white point: default (D65)
#     transfer function: default (sRGB)
#   Output:
#     color space: sRGB
#     white point: default (D65)
#     transfer function: default (sRGB)
#   Exposure: +0.25
#   Contrast: -61
#   Whites: -57
#   Blacks: +30
#   Vibrance: -10
#   Saturation: -11
LUT_3D_SIZE 33
.04183792 .04042311 .00616885
.07314458 .03458502 .00570389
.09962497 .03164351 .00670457
.1338857 .01898173 .01040362
.1691556 .00890573 .01632191
.2007326 .01373693 .01821306
.2354082 .01995442 .01890155
.2691681 .02430476 .01561156
.3032412 .02586052 .01460997
.3361667 .03078828 .01794153
.3680756 .04053126 .02285418
.3991104 .05154547 .02413566
.4301843 .05918597 .03387143
.4603907 .06875122 .04250891
.4903613 .07836328 .05491949
.5197768 .09011986 .07513174
.5496933 .1003856 .09066258
.579195 .1107415 .104013
.6071916 .1182127 .1077013
.6350856 .1255245 .1141455
.6624678 .1345588 .122626
.6908865 .1429 .1315652
.7181656 .1498166 .1450894
.7439808 .1570207 .153251
.7695584 .1633302 .1600187
.7944467 .1696402 .1663134
.8180985 .1760829 .1717447
.8416059 .1822152 .1769741
.8645384 .1889731 .1831366
.88761 .1958309 .1903032
.9103106 .2034369 .198619
.9328308 .2116737 .206944
.9526291 .2181037 .2139945
.04224364 .05851287 .00452696
.07862826 .05581123 .00724553
.1055796 .05614097 .01156794
.1369492 .0557076 .01520595
.1687173 .05722111 .01895625
.2003645 .06055553 .02205056
.2339523 .06510893 .02107788
.2669213 .0678242 .02014761
.3011678 .06817024 .02206112
.33463 .07104599 .02606691
.3671736 .07559491 .02847283
.3986054 .08221283 .0300363
.4294032 .08763012 .04117931
.45973 .09473849 .0493782
.4897691 .1022173 .0611397
.5191578 .1116079 .07966118
.5490736 .1206451 .0945976
.5784005 .1282255 .1066792
.6062117 .1352526 .111311
.6343357 .1415561 .1170714
.6618226 .1496745 .1254838
.6902757 .1572027 .134236
.7174947 .1630374 .1473868
.7433994 .1695122 .1553191
.769033 .1753379 .1619613
.7938678 .1812129 .1681277
.8174011 .1873526 .1735063
.8409307 .1931107 .1786956
.863904 .1994877 .184744
.8869649 .2060466 .1913571
.9097348 .2132376 .2001546
.932399 .2206726 .2084484
.9522828 .2261256 .2153572
.05227073 .08852465 .00889047
.08633929 .08717278 .01109631
.1138852 .08583974 .01421983
.141335 .08809651 .01830562
.1713468 .09020782 .02217535
.201114 .09270803 .02703375
.2331791 .09523412 .02855179
.265748 .09678412 .02669884
.3000422 .0975953 .02861958
.3334844 .1002979 .03240224
.3661489 .1037482 .03479816
.3973834 .1076844 .04068511
.4284815 .1124504 .04872432
.4589815 .1181548 .05635168
.4890987 .1243174 .06755606
.5184563 .1321066 .08445344
.5482495 .1392976 .09823943
.577498 .1455806 .1095748
.6051015 .1522532 .1152558
.6334872 .1577075 .1202954
.6610926 .165062 .1286388
.6895843 .1718908 .1371922
.7167524 .1768427 .1496124
.7427737 .1824751 .1575668
.7684387 .1879285 .1641275
.7932131 .1934 .1701528
.8166122 .1992624 .175474
.8401836 .2046375 .1805613
.8632544 .2108033 .1862437
.8862804 .2170605 .1930231
.9090839 .22374 .2018717
.9320207 .229972 .2100234
.9519169 .2348162 .21685
.06580345 .1196448 .01294078
.09599573 .1186996 .01551697
.1211802 .1177546 .01952894
.1490524 .117268 .02454461
.1729642 .1215754 .02827291
.2021596 .1230846 .03229878
.2326925 .1256773 .03315065
.2652729 .128273 .03329519
.2984128 .1302582 .03756778
.3318259 .1322678 .04135378
.364669 .1349369 .04364186
.3959909 .137698 .05058056
.427362 .1409575 .05737745
.4579072 .145519 .06534187
.4881365 .1505495 .0759804
.5173677 .1564024 .09075714
.5470896 .1616895 .1034531
.5760931 .1677681 .1126422
.6034854 .1733423 .1206292
.6322702 .1782074 .1247707
.6600459 .1847662 .1330253
.6885936 .1908464 .1413151
.7158303 .1952927 .1506887
.7418769 .1994645 .1607275
.767587 .2045005 .1671763
.7922749 .2095093 .1730081
.8156629 .2148567 .1779753
.8392207 .2199697 .1827274
.8623232 .2259124 .1883677
.8852915 .2317992 .1955073
.908289 .2373333 .2042062
.931468 .2424026 .2122264
.9514062 .2466696 .2190177
.08028949 .1514786 .02083232
.1041878 .1512413 .02506747
.126181 .1509837 .02942856
.1506113 .1514468 .03312958
.177412 .1525756 .03833954
.2030295 .1562766 .04152193
.233579 .1579159 .04170605
.2662999 .1594882 .04162943
.2985935 .1619071 .04680283
.3305482 .1645135 .05132851
.3624102 .1662355 .05780534
.3943699 .1691957 .06049248
.4259374 .1721247 .06675427
.4564632 .1755269 .07608036
.4861857 .1790434 .08688659
.5157158 .1827762 .09804934
.5455276 .1873903 .1100166
.5739903 .1925938 .1182871
.6013835 .1976181 .1259577
.6306777 .2024076 .1303161
.6586412 .2080519 .138685
.6874328 .2130629 .1465058
.7146385 .2166442 .1538082
.7406788 .2200049 .1648057
.7665384 .2244813 .1708553
.791203 .2288809 .1761232
.8145593 .2338681 .1808387
.8378971 .2390357 .1855566
.8610615 .2444428 .191302
.884007 .2497498 .1989678
.9074892 .253657 .2072413
.9307383 .2576264 .2149559
.9507163 .2616215 .2219283
.08768357 .1845777 .03697852
.109781 .1845281 .03934469
.1295798 .1844149 .04126904
.1531155 .1842691 .04379714
.1787068 .1851435 .04667194
.207091 .1864553 .04878142
.236157 .1894097 .05038306
.2685481 .1905886 .05086837
.3003278 .1926313 .05599201
.3312001 .1944494 .06305972
.3634146 .1963242 .06568294
.3950966 .1987956 .06842842
.4263349 .2009416 .07442374
.4563878 .2028755 .08425019
.4853609 .2060368 .09480567
.5146883 .209664 .1046131
.5439304 .214964 .1169604
.5716025 .2195382 .1246342
.5992419 .2239032 .1324616
.6288571 .2281195 .136441
.6571055 .2332213 .1444003
.6863149 .2374009 .1518961
.7132697 .2401905 .1584871
.7394785 .2430751 .1685607
.7652159 .247107 .1747654
.7898036 .2512872 .1798224
.813101 .2561506 .1843557
.8362601 .2609958 .1891349
.8595787 .2652212 .1953453
.882899 .2691329 .2029691
.9064698 .272723 .2110165
.9298081 .27568 .2182076
.9499024 .2792791 .2253848
.0939415 .2173958 .04813519
.1142077 .2173406 .04963412
.1336923 .2172744 .05128191
.1550502 .2184143 .0542494
.1806118 .219265 .05694325
.2086641 .2203363 .05776069
.2385998 .2214887 .05853331
.2700466 .2241309 .06125937
.3014536 .2245844 .06779362
.3329599 .2262768 .07116736
.3640524 .2274499 .07336929
.395745 .2284163 .07620003
.4265256 .2294607 .08210505
.4567537 .2306435 .092193
.4859099 .2328209 .1013937
.515015 .2361441 .110623
.5431263 .2407339 .1213807
.5703449 .2458099 .129084
.5982563 .2507543 .1372578
.6273286 .2548144 .1424741
.655637 .2595549 .1492614
.6844861 .2627389 .1566383
.7115649 .2653728 .1636084
.7381124 .2687528 .1700808
.7634816 .272278 .178936
.7880077 .2761186 .1840944
.8115781 .2798344 .1882817
.8348548 .2838095 .1931663
.8583484 .2869878 .1997437
.8815461 .2907914 .2074172
.9052912 .2936403 .2148336
.9288265 .2960886 .2218262
.9490466 .2993741 .2288681
.09813281 .2512449 .06051051
.1177085 .2513229 .06170732
.1358972 .2517258 .06295959
.1583389 .2523015 .06471797
.1840559 .2530556 .06594457
.2120842 .2539967 .06634104
.2397659 .255143 .07084208
.2702419 .2564846 .07292909
.3015252 .2581111 .07630517
.3320608 .2588621 .07845422
.363137 .2594986 .08046278
.3945078 .2601558 .08362316
.4255959 .2607975 .08967694
.4557197 .2611722 .1000507
.4858778 .2617972 .1079251
.5147088 .2641974 .1176274
.5422315 .2681218 .12514
.5697099 .272496 .1327097
.5983123 .2768275 .1401975
.626022 .2817625 .1476904
.6541986 .286496 .1543909
.6823311 .289382 .1615747
.7093999 .2923474 .1684658
.7363138 .2949099 .1749853
.7617759 .2976189 .1831909
.786325 .3010375 .1875834
.8102541 .3042567 .1918425
.8337675 .3073144 .1970546
.8568979 .3104953 .2037833
.8802404 .3139223 .2110959
.9042599 .3163282 .21808
.92776 .3186761 .2252445
.9480473 .3216732 .2322946
.1052782 .2860627 .07612509
.1217534 .2861585 .07708
.1394037 .2864072 .07836004
.1612133 .2866225 .07988105
.1862162 .2866157 .08048183
.2134111 .286924 .08079886
.2416364 .2873579 .08150143
.2705901 .288032 .08229017
.2992255 .2898875 .08451351
.3308197 .2920604 .08615021
.3615588 .2930032 .08785213
.3932656 .2929837 .0907562
.4243546 .2934288 .09765414
.4546707 .2931059 .1073732
.485031 .2919424 .1174718
.5135244 .2938138 .1235038
.5414444 .2968667 .1290956
.56919 .3007471 .1369373
.59827 .3045979 .143353
.6250939 .3094538 .1511867
.6529725 .3138587 .1585252
.6803078 .3164901 .1654978
.7077276 .3185735 .1721254
.7345508 .3208622 .1784107
.7603137 .3237624 .1836109
.7850005 .326111 .1910078
.8090073 .3290979 .1961076
.8324764 .332073 .2013875
.8553101 .3353466 .2078406
.8791108 .3381619 .2149858
.9030151 .3406766 .2221532
.9265003 .3428953 .2290395
.9468938 .3460079 .2361844
.1209927 .3198718 .09110213
.1351624 .3197681 .0918349
.1495143 .3196526 .09233097
.1680505 .3195139 .09223542
.1895937 .3194067 .09234855
.2145095 .3194373 .09261291
.2424651 .3196996 .09328032
.2713455 .3201847 .0939318
.2996636 .3215638 .09430472
.3300969 .3235465 .09405228
.3614561 .3261366 .09622344
.3927266 .3269166 .09990663
.4233421 .3264906 .1073703
.4534025 .3251799 .1181436
.4832296 .3242259 .126386
.5119979 .3251812 .1306364
.5401968 .3274449 .1349438
.5685552 .3304306 .1416269
.597684 .3330703 .1472678
.6249475 .3364308 .1549882
.651783 .3399907 .1628486
.6786536 .3431939 .1693433
.7062719 .3451979 .1759644
.7330206 .3469635 .1815431
.7590074 .3494436 .1866717
.7837015 .3522983 .1914151
.8076414 .3542748 .1991972
.8312839 .3568344 .2050274
.8544469 .3598851 .2122823
.8778993 .3633716 .2192372
.9015977 .3662155 .2266664
.9250295 .3683572 .2332337
.9453073 .3714121 .2400689
.1296021 .3534002 .1036191
.1434536 .3534746 .103571
.1576312 .3535586 .1035184
.176005 .3536288 .103538
.1977871 .3537331 .1034923
.2207457 .3536567 .1035283
.2455139 .3535389 .1035835
.2718338 .3534945 .1037861
.299956 .354496 .1045487
.3281486 .3558177 .1060467
.3597406 .3576709 .1084879
.3935627 .3594338 .1119908
.4212458 .359387 .1212761
.45095 .3582335 .1297268
.4802762 .3580615 .1345714
.5100659 .3576076 .1383683
.5390288 .3578272 .1410824
.5684013 .3595522 .1465722
.5974767 .3617224 .1527521
.6249573 .3645149 .159811
.6513775 .3668393 .166775
.6781235 .3692749 .1728767
.7050776 .3716039 .1793844
.7313794 .3739179 .1850942
.7574989 .3761113 .190161
.7821007 .3784718 .1951883
.8062623 .3803988 .201713
.8300689 .3825707 .207997
.8534877 .3853627 .2154125
.876729 .3884431 .2235667
.9002915 .3912434 .2311108
.9235423 .3940622 .2375756
.9436202 .3972 .2439062
.1418355 .3857201 .1166017
.1545846 .385787 .1165585
.1677938 .3858624 .1165114
.1849832 .3859706 .1164427
.2056074 .3861153 .1163515
.2288515 .3862988 .1162388
.2539901 .3865161 .1162228
.2794051 .3866654 .1171534
.3039056 .3875708 .1185146
.3296399 .388653 .1201445
.3587312 .390113 .1241961
.3886724 .3908166 .1300506
.4205971 .3908372 .1339951
.4492665 .391335 .1371047
.4787467 .3905216 .140976
.5085264 .3891785 .144605
.5381607 .388074 .1475466
.567419 .3888009 .1525459
.597336 .3901188 .1579107
.6247183 .3922355 .1645371
.6511508 .3943621 .1712994
.6774185 .3965808 .1779752
.7035892 .3989934 .1835442
.7298231 .4013981 .1889843
.7555551 .403347 .1943894
.780415 .4052697 .1990599
.80496 .4071053 .2034875
.8288687 .4089257 .2110983
.8524626 .4117028 .2192493
.8757221 .4146178 .2271352
.8986863 .4175044 .2339918
.921649 .4201683 .240145
.9419162 .423061 .2469057
.1543282 .4179778 .1260121
.1661876 .417958 .1264101
.1785967 .4179356 .1268593
.1949013 .4179083 .1274672
.2146419 .4179243 .1280377
.2368078 .418014 .1290449
.2591484 .4186478 .1325939
.2842806 .4188019 .1334416
.3093054 .4194117 .134561
.3359799 .4199676 .1364905
.3611612 .4197526 .1406029
.3879527 .4197263 .1447026
.4179832 .4197459 .1470566
.4488441 .4202573 .1479479
.4781532 .4208646 .1482142
.5070662 .4202954 .1500423
.5368001 .4190418 .1531754
.5661871 .4184724 .1581506
.5961382 .4195019 .1635435
.6239945 .4207656 .1695461
.6508857 .4224143 .1761491
.6766071 .4246103 .1824475
.7022702 .4268978 .1879212
.7283517 .4288908 .1937112
.7536721 .4309945 .1990416
.7785912 .4330627 .2038152
.8035886 .4342174 .2075454
.8275917 .4364582 .2142739
.8512623 .4388004 .2229817
.8744995 .4414947 .2298571
.8973007 .4443996 .2357633
.9194582 .4472769 .2417245
.939506 .4501227 .2498688
.1599468 .4488887 .1427296
.1713274 .4487876 .1430874
.1832916 .4486737 .1434909
.1990782 .4485103 .1440663
.2183198 .4483258 .1445997
.2403401 .4480984 .145225
.2645238 .4478199 .1459882
.2890978 .4478045 .1467144
.3143369 .4478158 .1486728
.340118 .4479141 .1513166
.364573 .4486831 .156287
.3903159 .4489035 .158083
.416809 .4486893 .1585779
.4470691 .4488793 .1591632
.4774659 .4494841 .1598991
.506696 .4498581 .1606103
.5353378 .4491669 .1624541
.564162 .4484153 .1662099
.5946278 .4484179 .1707498
.6227372 .449742 .1754822
.6497173 .4513325 .1807893
.6757722 .4529922 .1863302
.701032 .4547737 .1931484
.7267845 .4567333 .1986413
.7521092 .4584852 .203376
.7773671 .460125 .2074564
.8019466 .4620844 .2118745
.8260112 .4647178 .218837
.8497286 .4674045 .225653
.8728715 .4699307 .233057
.8955445 .4721695 .2384458
.9168344 .4747139 .2462973
.9367347 .4770729 .2536817
.1664857 .4788238 .1585571
.1772491 .4787199 .1588219
.1886256 .4786028 .1591208
.2037668 .4784443 .1595715
.2223964 .4782813 .159991
.2438076 .4780737 .1605237
.2668311 .477859 .161249
.2921559 .4773811 .1627468
.3184875 .4769071 .1643928
.3437692 .4767714 .165139
.3689111 .4767576 .1667994
.394122 .4768888 .168496
.4200727 .4774094 .1687671
.4473825 .4775595 .1694745
.4768653 .4776304 .1709281
.5065929 .4780704 .1719272
.5352953 .4789173 .1734573
.5634894 .4786125 .175726
.5923622 .4781455 .1788434
.6208046 .4787883 .182579
.6477123 .4797711 .1876082
.6742761 .4808648 .1929039
.7004892 .4820785 .1978039
.7254808 .484092 .2019732
.7505421 .4860796 .2056752
.7757787 .4879185 .2097739
.800658 .4899094 .2163016
.82469 .4922947 .2234228
.8481413 .4949445 .2298287
.8713433 .4968172 .2348477
.8936119 .4984121 .2427299
.9151596 .5007763 .2502002
.9344931 .5033867 .2566122
.1723803 .508565 .1737186
.1827773 .5084695 .1739547
.1938264 .5083761 .1741257
.208288 .5081637 .1744301
.2264596 .5078136 .1748334
.2475835 .5073845 .1758312
.2712235 .5069441 .1768524
.2952156 .5066354 .1771341
.3197146 .5064011 .1773243
.3452867 .5060753 .1776707
.3715885 .5056673 .1788382
.3978469 .5053541 .1801366
.4239647 .5053726 .1802916
.4509492 .5054823 .179316
.4792015 .5056647 .1789672
.5074877 .5067378 .1821306
.5362409 .5075031 .1840703
.5640177 .5082394 .1849244
.5922616 .5073433 .1858476
.6193429 .5073408 .189006
.6465082 .5080484 .1926162
.6729862 .5088556 .1974135
.6991987 .5098062 .2021703
.7241275 .5113298 .2064081
.748756 .513245 .210963
.7736532 .515152 .2155344
.7985242 .5172675 .2224888
.8229517 .5191739 .2279398
.8467327 .5210616 .2327801
.8695458 .5228712 .2394833
.8920507 .5245499 .246269
.913819 .5267009 .2532879
.9331412 .5288938 .2606322
.1828 .5365676 .1887349
.1922734 .5364715 .1890098
.2022446 .5363811 .1891316
.215941 .5362535 .1892495
.2327908 .5361111 .1894332
.2522662 .5359219 .1896025
.273957 .5355576 .1897453
.2972981 .5351198 .1900143
.322308 .5346321 .1900712
.3483706 .5341457 .1900239
.374646 .5337752 .1899715
.400879 .5335941 .1901574
.4271975 .53348 .1906131
.4538339 .5334876 .1899463
.4815145 .5333906 .1889002
.5096865 .5337921 .189078
.5383384 .5342645 .1900713
.5644077 .5356871 .1928055
.5925455 .5362814 .1930922
.618172 .5363593 .1956175
.6453201 .536259 .1984485
.6719875 .5369394 .2021397
.6976737 .5378288 .2065992
.7225381 .5388509 .2112163
.7472395 .5397159 .2154829
.7723544 .5414105 .2218622
.7968493 .5434599 .2281142
.8214808 .5450819 .2335956
.8450565 .5467091 .2389827
.8682113 .5485438 .2444733
.8908299 .5505229 .2492436
.9125947 .5527212 .2560534
.9316022 .5551003 .2647827
.1965201 .5635854 .2008481
.2051491 .563529 .2009621
.2144402 .5634651 .2010907
.2269686 .5633736 .2012614
.2419655 .5632953 .201402
.2593894 .5633218 .2015126
.2804721 .5631939 .2012575
.3029343 .5630893 .2009483
.326253 .5628745 .2003471
.3508814 .5627003 .1994926
.3765541 .5624774 .198603
.4025276 .5620731 .1980683
.4284688 .5617844 .1980165
.4544908 .5615672 .1984097
.4814174 .5613058 .1978036
.5088516 .5615614 .1981927
.5356228 .5620074 .1982206
.5635561 .5623552 .1986693
.5913888 .5632149 .1999527
.6177175 .5639054 .2026898
.6446906 .5638729 .2051631
.6720822 .5634186 .2081688
.6972009 .5643911 .2112944
.7221926 .5653167 .2153191
.7471361 .5664052 .2206953
.7716901 .567979 .2268235
.7963241 .569624 .2320665
.8201208 .571081 .2385754
.8438761 .57204 .2446419
.8671888 .5735622 .2491443
.8895544 .575825 .2546489
.9110349 .5788203 .2625655
.9300501 .5815898 .2706677
.2158465 .5908026 .2091354
.2235959 .5907671 .2089871
.2318123 .5907327 .2087928
.2428636 .5907058 .2085122
.2555349 .5908716 .208959
.2699987 .5912064 .2101464
.2877356 .591293 .210715
.3082598 .5912177 .2105643
.3296026 .5912875 .2104404
.3534703 .5910535 .2094404
.3782768 .5906656 .2086325
.4032684 .5901363 .2081973
.4288276 .589551 .2077145
.4545885 .5890847 .207871
.4803672 .5888335 .2078423
.5080204 .5884588 .207245
.5350689 .5884829 .2068317
.5627471 .588719 .207222
.589905 .5890422 .2083233
.6178771 .589641 .2101282
.6449741 .5898039 .2116438
.6708718 .5905362 .2151632
.697207 .5904846 .2177262
.7222006 .5914507 .2210612
.7469202 .5930938 .2258733
.7710595 .5936654 .2320146
.7954922 .5944075 .2384737
.8191242 .5955111 .2454717
.8425305 .5972118 .2506185
.8659487 .5990633 .255715
.8876966 .6018272 .2623997
.9092788 .6046188 .2699552
.9288153 .6071689 .2769197
.2248517 .6177987 .2195128
.2319333 .6177307 .2193671
.2396516 .617654 .2192023
.250229 .6175439 .2189663
.2636383 .6173967 .2186496
.2796019 .6171989 .2182455
.297955 .6170087 .2175344
.317693 .6170256 .2168064
.3369107 .6174806 .2179468
.3581395 .6178116 .218801
.3817257 .6176804 .2187005
.4053978 .6173845 .2185805
.4302314 .6169527 .2177354
.455147 .6164821 .2166221
.4801434 .6161411 .215955
.5054611 .6158974 .2163986
.534699 .6152804 .2172131
.5621822 .6152418 .2174852
.5894772 .6152101 .2178091
.6167794 .6152754 .2189659
.6441787 .6157439 .2205925
.6709333 .6162542 .2219573
.696856 .6169374 .2241514
.7223812 .6176086 .2283328
.7467456 .6179183 .2328583
.7705708 .6184655 .2388347
.7941637 .6196911 .2447346
.8177415 .6218216 .251133
.8412434 .6236505 .2570129
.8641682 .6252721 .2635496
.886036 .627219 .269533
.9078446 .6297854 .2765899
.9276882 .6321383 .2826764
.2339883 .6444631 .2297241
.2406422 .6443807 .2296644
.2479526 .6442898 .2295569
.2580885 .6441651 .2293031
.2709841 .643998 .2289621
.2864117 .6437854 .2285284
.3040796 .6435541 .2279492
.323557 .6433827 .2270285
.3446315 .6431652 .2259528
.3667957 .6430054 .2249699
.3882877 .6431783 .2250947
.4086339 .6438381 .2270812
.4324862 .6435816 .2266117
.4564831 .6433729 .2261074
.4813836 .6429892 .225825
.5075878 .6425281 .2261533
.5348272 .6421182 .227426
.561583 .6419669 .2284482
.5887011 .6419423 .2287901
.6161742 .6418084 .229658
.6436411 .64155 .2297296
.6704574 .6421072 .2304105
.696306 .6431578 .2317107
.7217139 .6432853 .2359271
.7468929 .6428695 .2404644
.7703201 .6442532 .2460863
.7929989 .6461657 .2514694
.8164118 .6478243 .2566696
.8394634 .6498568 .2635945
.862013 .6513296 .2707812
.8847523 .6524405 .27604
.9071722 .6548283 .282509
.9270847 .6570995 .2885122
.2442702 .670347 .2382532
.2506365 .6702679 .2380763
.2576134 .6701785 .2378766
.2672344 .6700507 .2375896
.2795432 .6698931 .2373206
.2940311 .66974 .2371292
.3105283 .6695972 .2369455
.3286794 .6694987 .2367918
.3484363 .6693842 .2366125
.3694918 .6692575 .23642
.3915215 .6691817 .2360911
.4145635 .6690792 .2356207
.4378369 .6691578 .2351401
.4598115 .6696705 .2369948
.4837807 .669382 .2373471
.5092407 .6690731 .237017
.5360039 .6686384 .2376903
.5631532 .6683475 .2396066
.589575 .6683915 .2410625
.6165065 .6685681 .2413307
.6440477 .668391 .2404779
.6705002 .6680751 .2403367
.6948646 .6683542 .2414412
.7206203 .6693623 .244344
.7454298 .6701341 .2482904
.7692872 .6705471 .2534958
.7926009 .6718664 .2576158
.8149313 .6736391 .2633571
.8377096 .6754305 .2699118
.8606861 .6768483 .2758291
.8838545 .6779807 .2815215
.9074618 .6790287 .2870468
.9267747 .681311 .2937192
.2534234 .6963365 .2501428
.2593365 .6962891 .2501425
.2659062 .6962315 .2500687
.2749931 .6961486 .2499636
.2866406 .6960377 .2498226
.3006897 .6958964 .249643
.3167476 .6957674 .2494627
.3344904 .6956739 .2493028
.3535546 .6955972 .2491994
.3739185 .6955045 .2489504
.3953439 .6953812 .24844
.4176905 .6952426 .2476163
.4411401 .6951008 .2466694
.4648277 .6950774 .2469964
.4891263 .6951604 .2477599
.5130907 .6951603 .2493054
.537971 .6950428 .2507431
.5653962 .694896 .2524267
.5923933 .6947464 .2530759
.6185039 .6941991 .2541714
.6447145 .6939751 .2537501
.6698337 .6940523 .2535517
.6945607 .6940981 .2539308
.7188078 .6947216 .2542483
.7439504 .6955103 .2571148
.7678875 .6965731 .2611379
.7917333 .6973869 .2650725
.8147736 .698684 .2703398
.8379607 .6999359 .275016
.8609377 .7016421 .2800743
.8838257 .702847 .2858251
.9052898 .7050725 .2945383
.925007 .7070841 .302468
.2616487 .7220114 .2610137
.26775 .7219451 .2610568
.2744608 .7218695 .2611015
.2837497 .7217612 .2611571
.2957519 .7216105 .2610922
.3096896 .7214283 .2607511
.3250398 .7213277 .2602804
.3419993 .721314 .2597553
.3606837 .7213185 .2593011
.3805869 .7212726 .2589551
.4016136 .7212064 .258669
.4235304 .7211208 .2583513
.4454198 .7211002 .2592023
.46888 .720975 .2605111
.4934309 .7209307 .2618104
.5184571 .7207248 .2623374
.5431181 .7200282 .2635151
.5692021 .7197937 .2642825
.5953919 .71983 .2645741
.6209422 .7196555 .2660522
.6449972 .7199168 .2684028
.6697354 .7198555 .2690844
.6942457 .7198644 .2697911
.7178216 .7201388 .2701737
.7413836 .7211381 .2697551
.7667775 .7223245 .2700624
.7912806 .7229512 .2717129
.8154617 .7236665 .2755367
.839254 .7245967 .2802184
.8609422 .7263856 .2874584
.8826665 .7280351 .2942181
.9050698 .7294934 .3020201
.9247172 .7309837 .3105282
.271508 .747148 .2704742
.2773387 .7470859 .2705982
.2837601 .7470156 .2707384
.2926638 .7469149 .2709385
.3041108 .7467802 .2712067
.3180771 .7466018 .2714039
.3337897 .746489 .2715725
.3509144 .7463799 .2716682
.3694148 .7462522 .2716572
.3887283 .7461535 .271722
.4090762 .7461101 .2717352
.4295861 .7459243 .2725964
.4520058 .7455873 .274043
.4753881 .7453205 .2754741
.5001316 .7451216 .276184
.5254634 .7448779 .2763528
.5500019 .7445841 .2758557
.5748504 .7441722 .2756024
.5997959 .7439446 .2767904
.6235485 .7441119 .27875
.6479875 .7443379 .2801264
.6728112 .7443886 .2807422
.6971294 .7447775 .2804878
.7210112 .7451721 .2805661
.7443758 .7456138 .2803971
.7671075 .7464975 .2791145
.7915005 .7475155 .2810287
.816322 .7484338 .284917
.8394604 .7492692 .2912739
.8613986 .7504834 .2994679
.883418 .7517954 .3068833
.9050786 .7531797 .3148143
.9244089 .7547073 .322129
.2827661 .7719025 .2812111
.28828 .7718396 .2813985
.2946271 .7717919 .2817057
.3031015 .7716755 .2820331
.3140183 .7714793 .2825393
.3273802 .7712332 .2830783
.3424916 .7710721 .2834433
.3593916 .7709104 .2838577
.3777586 .7707106 .2843093
.3967528 .7705399 .2850288
.417542 .7702718 .2856555
.4395854 .7699699 .2865827
.461943 .7696983 .2874778
.4851205 .7694408 .2881955
.5091912 .7691744 .2880189
.5329398 .7689731 .2873516
.5567063 .7686993 .287944
.57957 .7686048 .2892293
.6038542 .7684263 .2909243
.6280659 .7683709 .29252
.6516612 .7685654 .2944103
.6762409 .768851 .2952151
.7008752 .7690043 .2955073
.7250544 .7691866 .2953815
.7481106 .7696732 .2951215
.7706739 .7702208 .2961277
.7925412 .7713301 .2995627
.8157527 .7727972 .3026669
.8397319 .7739974 .3078118
.8620643 .774903 .3137728
.8831599 .7759801 .3197017
.9048676 .7773718 .3261538
.9243529 .7787702 .3322983
.3000149 .7958971 .2942359
.3050903 .7958196 .2943742
.3107071 .7957323 .2945302
.3185417 .7956071 .2947516
.3286896 .7954422 .2950228
.3410708 .7952323 .295367
.355043 .7950709 .2956176
.3708762 .7949103 .2956805
.3876101 .7947568 .2963136
.4071654 .7944785 .2968892
.4279524 .7941732 .2976401
.4493738 .7938753 .2982733
.4714579 .7936056 .2989802
.4942971 .7933666 .2990364
.5176629 .7929838 .3003419
.5400169 .7928723 .3012403
.5623412 .7928545 .3020479
.584884 .792868 .3029085
.6081701 .792756 .3044531
.632384 .792716 .3059379
