luts/Timeless_33.cube
# 3D LUT of size 33x33x33 converted by Filestar.
#   Input:
#     color space: sRGB
#     white point: default (D65)
#     transfer function: default (sRGB)
#   Output:
#     color space: sRGB
#     white point: default (D65)
#     transfer function: default (sRGB)
#   Exposure: +0.41
#   Contrast: -26
#   Whites: -7
#   Blacks: -33
#   Vibrance: +15
#   Saturation: +5
LUT_3D_SIZE 33
.01974648 .02330076 .01034555
.01989524 .02331256 .01011292
.02101151 .02339596 .00838458
.03532939 .02117618 .00907845
.0801399 .01191263 .01212199
.1277125 0 .02085668
.1773333 0 .01589271
.2202652 0 .0040171
.2645149 0 0
.3069564 0 0
.3457868 0 0
.3829311 0 0
.4197053 0 0
.4555142 0 0
.4923517 0 0
.5271974 0 0
.56121 0 0
.5944519 0 0
.6265274 0 0
.6581431 0 0
.688852 0 0
.7193623 0 0
.7501557 0 0
.780191 0 0
.8096403 0 0
.8378648 0 0
.8649583 0 0
.89108 0 0
.9160124 0 0
.9395854 0 0
.9621447 0 0
.9842615 0 0
.9999999 0 0
.01800193 .0231691 .01304115
.01884191 .02323284 .01174626
.02043008 .02335244 .00928399
.04857732 .01914177 .00907307
.09056539 .00870188 .01468845
.1377711 0 .01601422
.1844258 0 .00391706
.2257053 0 0
.2676639 0 0
.308044 0 0
.3461459 0 0
.3829495 0 0
.4196938 0 0
.4558506 0 0
.4925544 0 0
.52736 0 0
.5613356 0 0
.5945756 0 0
.6266451 0 0
.6581737 0 0
.6889157 0 0
.7194698 0 0
.7501929 0 0
.7803424 0 0
.8096656 0 0
.8378894 0 0
.864939 0 0
.8911651 0 0
.9162195 0 0
.9397562 0 0
.9622946 0 0
.9844927 0 0
.9999999 0 0
.0227084 .02340507 .00658722
.02332576 .02364562 .00463969
.02923848 .02289404 .00415527
.06942511 .01538447 .00869897
.1063657 .00599048 .00671202
.1442486 .01291157 0
.1862408 .00552087 0
.2275118 0 0
.2688425 0 0
.3083514 0 0
.345851 0 0
.3832016 0 0
.4199899 .0014296 0
.4563571 .00576679 0
.4927542 0 0
.5275155 0 0
.5614222 0 0
.5946903 0 0
.62686 0 0
.6582073 0 0
.6890289 0 0
.7195881 0 0
.7502349 0 0
.7806119 0 0
.8096921 0 0
.8379176 0 0
.8650494 0 0
.8912612 0 0
.9164628 0 0
.9399368 0 0
.9624588 0 0
.9847021 0 0
.9999999 0 0
0 .06581773 0
.00126141 .0653085 0
.03256576 .06068448 0
.07301996 .06142943 0
.1115731 .06101748 0
.1498803 .05851523 0
.1886595 .05593839 0
.2293113 .05347025 0
.2688116 .05414481 0
.3077048 .05526289 0
.3462361 .05610747 0
.3835648 .05605778 0
.4204145 .0585593 0
.456485 .06180578 0
.4929251 .05433679 0
.527701 .04682085 0
.5615461 .04027138 0
.5948161 .03524658 0
.627485 .03335735 0
.6582479 .04084595 0
.689108 .03644759 0
.719889 .03151505 0
.7503268 .02232352 0
.780644 .00687923 0
.8097298 0 0
.8380917 0 0
.865207 0 0
.8913981 0 0
.916729 0 0
.9401863 0 0
.9626127 0 0
.9849755 0 0
.9999999 0 0
0 .1040243 0
0 .1017958 0
.03492303 .1026645 0
.07916342 .1018513 0
.1164358 .100662 0
.1494237 .1022628 0
.1878113 .103411 0
.2289832 .1039666 0
.2690527 .1042392 0
.3086598 .1039559 0
.3468291 .104479 0
.3840617 .1045189 0
.4210832 .1053954 0
.4569733 .1078556 0
.4929664 .1039937 0
.5278618 .09959776 0
.5616803 .09647507 0
.5949708 .09493432 0
.6275085 .0951618 0
.6583776 .09929543 0
.6892003 .0984586 0
.7201437 .09618834 0
.7506716 .08999874 0
.7806848 .08369213 0
.8099858 .07199573 0
.8383968 .05810194 0
.8654713 .04265341 0
.8916674 .02513831 0
.9168112 .01034498 0
.940302 .00762939 0
.9626302 .00905922 0
.9849084 .0007793 0
.9999999 0 0
0 .1441205 0
0 .1446057 0
.01838082 .1448798 0
.06714816 .1452288 0
.1074461 .1456846 0
.1465534 .1460183 0
.1866983 .1469789 0
.2297605 .1472203 0
.2705221 .1474401 0
.3096883 .1475511 0
.3472158 .1478012 0
.384572 .1477078 0
.4217148 .1470561 0
.4575486 .1479047 0
.4934134 .1457927 0
.5276337 .143566 0
.5617662 .1413101 0
.5951059 .1410259 0
.6275041 .1419926 0
.6589939 .1429552 0
.6892788 .1454883 0
.7205427 .1432074 0
.7510859 .139298 0
.7812827 .1331824 0
.810571 .1265763 0
.8386484 .1205633 0
.8654999 .1143878 0
.8914438 .1083775 0
.9162115 .1043801 0
.9400563 .1018357 0
.9625867 .1014091 0
.9850059 .09618019 0
.9999999 .09262516 0
0 .187357 0
0 .1884759 0
0 .1885761 0
.0486775 .1887445 0
.101704 .1887094 0
.1447739 .1888387 0
.1896053 .1887385 0
.2315381 .1890096 0
.2722816 .1889144 0
.3107924 .1883823 0
.348378 .1882294 0
.3857167 .1872671 0
.4222995 .1874919 0
.4578379 .1877386 0
.4933134 .1873822 0
.5274761 .1860829 0
.5614261 .1842448 0
.5948668 .1840361 0
.6272817 .1850926 0
.6592491 .1849226 0
.6899858 .1855147 0
.7212587 .1841086 0
.7517864 .1814837 0
.7817833 .1779261 0
.8104725 .1749381 0
.8382824 .1716613 0
.8649735 .1688494 0
.8909371 .1648283 0
.9156086 .1628981 0
.9395847 .1608374 0
.9627418 .1585678 0
.985148 .1554068 0
.9999999 .1537485 0
0 .2297501 0
0 .2296953 0
0 .230086 0
.0372563 .23048 0
.09995329 .2298106 0
.1464991 .2290268 0
.1907725 .2288904 0
.23265 .2285503 0
.2731059 .2279131 0
.3126935 .2270847 0
.3502762 .2265192 0
.3872585 .2259238 0
.4236423 .226303 0
.4586396 .2268494 0
.4939967 .2266613 0
.5280557 .2265148 0
.5612669 .2260805 0
.5948175 .2254223 0
.6276668 .2247148 0
.6597399 .2240369 0
.6905711 .2245114 0
.7213233 .2251579 0
.7512563 .2254847 0
.7811849 .2231313 0
.8098536 .2205797 0
.837734 .2175801 0
.8646088 .2145882 0
.8903381 .2126553 0
.9148703 .2120174 0
.9389471 .2106935 0
.9628289 .2072195 0
.9853525 .2058327 0
.9999999 .2040919 0
0 .2705235 0
0 .2706323 0
0 .2703942 0
.03883227 .2699769 0
.09497768 .2699367 0
.1465116 .2691123 0
.1924242 .268318 0
.2352599 .2675758 0
.2757113 .2669716 0
.3138436 .2665547 0
.3510944 .2658134 0
.3881688 .2656489 0
.4243705 .2655427 0
.459623 .2654319 0
.4946688 .2650302 0
.5286852 .2654092 0
.5610885 .2665622 0
.5940033 .2665235 0
.6268682 .2658021 0
.6588575 .2647994 0
.6902369 .2645676 0
.7215032 .264102 0
.7516246 .2646605 0
.7807475 .2643029 0
.8093175 .2626419 0
.8369518 .2604671 0
.863817 .2584298 0
.8893427 .2573825 0
.9141231 .2563989 0
.9382538 .2553731 0
.9624526 .2533289 0
.9853349 .2508959 0
.9999999 .2494926 0
0 .3087829 0
0 .3089016 0
0 .3087732 0
.04347705 .308594 0
.1030704 .3084663 0
.1501018 .3081709 0
.1954979 .307544 0
.2377101 .3068204 0
.277413 .3058344 0
.3151772 .3051088 0
.3523875 .3044906 0
.3882008 .3046632 0
.4243401 .3045072 0
.4595187 .3043253 0
.4943447 .3045315 0
.5285436 .3047213 0
.5615181 .305336 0
.5939808 .3061649 0
.6269112 .305516 0
.6589631 .304764 0
.6910114 .3033301 0
.7223202 .3018806 0
.7526135 .3019282 0
.7814265 .3021824 0
.8096626 .3015086 0
.8369284 .3007126 0
.8633694 .2997815 0
.8888521 .2990905 0
.9136429 .2985184 0
.9380312 .2970326 0
.9622689 .2950021 0
.9854509 .2926954 0
.9999999 .2917001 0
0 .3467468 0
0 .346705 0
0 .3466527 0
.04397017 .3465778 0
.1048799 .3464779 0
.1521046 .3464346 0
.1952232 .3463619 0
.2362824 .3457683 0
.2755596 .3448671 0
.3137664 .3441185 0
.3521787 .343329 0
.3883515 .3430118 0
.42357 .3431548 0
.4588127 .3429475 0
.493513 .3430427 0
.5284811 .3431775 0
.5622349 .3435538 0
.5946099 .343936 0
.6266637 .3441324 0
.6591294 .3432327 0
.6913483 .3418697 0
.7228889 .3403915 0
.7533591 .3390724 0
.7825201 .3385556 0
.8104334 .338485 0
.8374459 .3385212 0
.8632692 .3390049 0
.8885949 .3388807 0
.9135668 .338282 0
.9383159 .3369642 0
.9623786 .3349694 0
.9855098 .3330877 0
.9999999 .3323728 0
0 .3844704 0
0 .3843277 0
0 .3842055 0
.02853131 .3840689 0
.09812848 .3838821 0
.1485683 .3834799 0
.1917685 .3833027 0
.2331058 .3831124 0
.2738247 .3827137 0
.3134767 .3821054 0
.3515741 .3814415 0
.3885401 .38062 0
.4235765 .3803133 0
.458095 .3806697 0
.4927922 .3806532 0
.5280532 .3807682 0
.5625736 .3809875 0
.5950538 .381378 0
.6264539 .3817766 0
.6585137 .3814428 0
.6908486 .3801489 0
.7225326 .3787617 0
.7530313 .3775175 0
.7826272 .3760029 0
.8107273 .3754504 0
.8375729 .3758046 0
.8633628 .3764318 0
.8885419 .3770729 0
.9135982 .3767489 0
.9384238 .3750485 0
.9625081 .3733465 0
.9855284 .3719101 0
.9999999 .3710856 0
0 .4209931 0
0 .4208111 0
0 .420617 0
.00858966 .4203625 0
.0902425 .420022 0
.144488 .4197481 0
.1895845 .419563 0
.2330007 .4195479 0
.2731151 .4195524 0
.3118999 .4192489 0
.3500201 .418667 0
.387333 .4179466 0
.4237498 .4171399 0
.4582834 .4167843 0
.4929618 .4172327 0
.5278256 .4174401 0
.5619333 .4175033 0
.5947987 .4177707 0
.6265363 .4181802 0
.6585371 .4181589 0
.6906157 .4174664 0
.7220909 .4161445 0
.7524557 .4148565 0
.7820227 .4135765 0
.8106346 .4125494 0
.8376191 .4123292 0
.8634208 .4131315 0
.8890147 .4133356 0
.9139649 .4128137 0
.9383833 .4120228 0
.9622923 .4108356 0
.9853348 .4093923 0
.9999999 .4086457 0
0 .4565419 0
0 .4564706 0
0 .4563377 0
0 .4561478 0
.08086783 .4559546 0
.1383498 .4557514 0
.1867015 .4555195 0
.2303641 .4553996 0
.271452 .4553002 0
.3105282 .455075 0
.3485605 .4547681 0
.3860056 .4541675 0
.4226355 .4535043 0
.4586167 .4528517 0
.4933488 .4525563 0
.5276634 .4529539 0
.5616454 .4531936 0
.5947264 .4533781 0
.626673 .4535732 0
.6586208 .4536517 0
.6908044 .4533436 0
.7217867 .4528448 0
.7522398 .451665 0
.7817373 .450636 0
.809874 .4495577 0
.8372662 .4484732 0
.8636327 .4491777 0
.8892933 .4488462 0
.914385 .4481968 0
.9387938 .447499 0
.9623633 .4468042 0
.9849482 .4462738 0
.9999999 .4459358 0
0 .4919534 0
0 .4918426 0
0 .4917123 0
0 .4915452 0
.06195924 .4913209 0
.1294878 .4910327 0
.1802807 .4907734 0
.2255429 .4905102 0
.2695999 .4901116 0
.3090866 .4899309 0
.3475172 .4896112 0
.3847447 .4893512 0
.4216853 .4887977 0
.4581122 .488192 0
.4931065 .4876516 0
.527736 .4874882 0
.5612656 .4877459 0
.5944149 .4880191 0
.626947 .4882736 0
.6587093 .4883067 0
.689751 .4884529 0
.7211316 .4883729 0
.7518883 .4880664 0
.7812877 .487098 0
.8095693 .4865655 0
.8367909 .4858083 0
.8635787 .4847544 0
.8894143 .4837864 0
.9147568 .4832541 0
.9392135 .4826285 0
.9628198 .481914 0
.9851412 .4816663 0
.9999999 .4814295 0
0 .5263703 0
0 .5262794 0
0 .5261737 0
0 .5260429 0
.03634885 .5258632 0
.1167076 .5256339 0
.1719469 .5253538 0
.2195452 .5250211 0
.263552 .524753 0
.3076774 .5240806 0
.3459079 .5238752 0
.3837388 .523599 0
.4208442 .5233369 0
.4574049 .5228109 0
.492772 .5223797 0
.5275557 .5220481 0
.5613241 .5222058 0
.5941922 .5225629 0
.6267232 .5231285 0
.6580495 .5236426 0
.6888204 .5239194 0
.7201858 .5237029 0
.7506862 .5234925 0
.7802108 .5235047 0
.8088447 .5228177 0
.8365217 .5218703 0
.8633454 .5208871 0
.8893841 .519969 0
.9149915 .518565 0
.9399049 .5171625 0
.963613 .5163201 0
.985729 .5157061 0
.9999999 .516069 0
0 .5604746 0
0 .5603969 0
0 .5603095 0
0 .5601967 0
.00547236 .5600573 0
.1024589 .5598784 0
.1625106 .5596598 0
.2125227 .5593804 0
.2574866 .5591508 0
.3004196 .5588675 0
.3437345 .5581977 0
.3823336 .558062 0
.4198025 .5579134 0
.4561181 .5578068 0
.4918287 .5574422 0
.5266926 .5569838 0
.5603712 .5567988 0
.5937651 .5569279 0
.6268165 .5570766 0
.6581662 .557874 0
.6883285 .5583853 0
.7196597 .5582312 0
.7495354 .5582476 0
.7788737 .5582187 0
.8078408 .5576993 0
.8360575 .5568934 0
.8633876 .5558104 0
.8898134 .5546743 0
.9152916 .5537171 0
.9399503 .5521976 0
.9636536 .550867 0
.9861547 .5504312 0
.9999999 .5502052 0
0 .5943599 0
0 .5942888 0
0 .5942069 0
0 .594101 0
0 .5939678 0
.07752953 .593797 0
.1492438 .5935709 0
.2038825 .5932944 0
.2501992 .5931181 0
.2952427 .5928442 0
.3376212 .5926215 0
.3802194 .5918664 0
.4178428 .5916256 0
.4541683 .5914412 0
.4891239 .5914136 0
.5241221 .5912184 0
.5596614 .5907917 0
.5937758 .5907148 0
.6265376 .5908999 0
.6582698 .5910871 0
.6884157 .5920998 0
.7187729 .5922549 0
.7488939 .5918357 0
.778495 .5914298 0
.8073471 .5909664 0
.8355072 .5904279 0
.8631104 .5895678 0
.889746 .5884848 0
.9151813 .5873823 0
.9391705 .5869205 0
.9626688 .586061 0
.9857084 .5849368 0
.9999999 .5835095 0
0 .6274395 0
0 .6274254 0
0 .6274092 0
0 .6273863 0
0 .6273119 0
.02203914 .6271404 0
.1246833 .6269483 0
.1873057 .6267011 0
.2395211 .6264144 0
.2865472 .6262407 0
.3312746 .6259593 0
.3746709 .6253288 0
.4140955 .6249329 0
.4515874 .6246585 0
.487147 .6246154 0
.522263 .6246933 0
.557925 .6244199 0
.5929038 .6239316 0
.6263345 .624173 0
.6583468 .6243588 0
.689129 .6244099 0
.7186954 .6246471 0
.7485145 .6246318 0
.7783405 .6238769 0
.8072699 .6233482 0
.8347897 .6228156 0
.8620619 .622031 0
.8881999 .6216558 0
.9135114 .6211624 0
.938266 .6203187 0
.9619371 .6193582 0
.9846482 .617907 0
.9999999 .6170238 0
0 .6593822 0
0 .6593632 0
0 .6593415 0
0 .6593106 0
0 .6592692 0
0 .6592234 0
.0946461 .6591684 0
.1664141 .6591432 0
.2237678 .6589775 0
.2734562 .6589122 0
.3205265 .6587433 0
.3644916 .6585584 0
.4079994 .6579556 0
.4472278 .6575304 0
.4846366 .6572154 0
.5211394 .6570982 0
.5564232 .6574497 0
.5913841 .6571473 0
.6254953 .6566654 0
.6579104 .6565942 0
.6891019 .6566403 0
.7189733 .6564921 0
.7484275 .6561554 0
.7769584 .6560227 0
.805578 .6554204 0
.8335971 .6545237 0
.8604032 .6543235 0
.8863754 .6540294 0
.9121624 .653519 0
.9369035 .6526676 0
.9607269 .6516692 0
.9837593 .6515266 0
.9999999 .6504785 0
0 .6904948 0
0 .6904972 0
0 .6904998 0
0 .6905035 0
0 .6905084 0
0 .6905147 0
.06633837 .6905224 0
.1515161 .6905046 0
.2110402 .6904815 0
.2603737 .6906096 0
.3085768 .6905758 0
.3543458 .6904109 0
.397436 .6902304 0
.4407986 .6895791 0
.4819756 .6892144 0
.5198892 .6889325 0
.5555714 .6888639 0
.5892281 .6890643 0
.623333 .6885486 0
.6563813 .6880311 0
.6877313 .6878508 0
.7182157 .6874827 0
.7474402 .6870801 0
.7763259 .6864479 0
.8047608 .6862931 0
.832814 .6858741 0
.8604441 .685088 0
.8868814 .6845079 0
.9120185 .6842248 0
.9362035 .684029 0
.9596565 .6836616 0
.9829931 .6827247 0
.9999999 .6820408 0
0 .7207255 0
0 .7209464 0
0 .7209518 0
0 .7209594 0
0 .7209696 0
0 .7209818 0
.02145037 .7209891 0
.1336381 .7209961 0
.1989688 .7210013 0
.2520851 .7210405 0
.2999653 .7213632 0
.3451239 .7214258 0
.389933 .7213535 0
.4356154 .7208114 0
.4770765 .7203158 0
.5159312 .7198984 0
.5522275 .7197589 0
.5867125 .7196483 0
.6199391 .719541 0
.6542312 .7186978 0
.6868488 .7178808 0
.718973 .7169203 0
.7495597 .7163345 0
.7785534 .7157717 0
.8071822 .7152022 0
.8348919 .7149275 0
.8614888 .7148408 0
.8875648 .7142887 0
.9121912 .71419 0
.935505 .7141461 0
.9591591 .7135638 0
.9824211 .7127884 0
.9999999 .7120467 0
0 .750025 0
0 .7500095 0
0 .7499934 0
0 .7499704 0
0 .7499605 0
0 .7504768 0
0 .7504923 0
.1201208 .7505172 0
.1905927 .7505353 0
.246375 .7505388 0
.2944189 .7507081 0
.3425969 .7507216 0
.3869989 .750737 0
.429172 .7507359 0
.4709622 .7502245 0
.5106925 .7496287 0
.5490059 .7491494 0
.5851067 .7488329 0
.6198362 .7485318 0
.6534951 .7477438 0
.6875801 .7466664 0
.7197791 .745883 0
.7512902 .745046 0
.7809492 .7443208 0
.8088854 .7440855 0
.8361183 .7438731 0
.8619106 .7442219 0
.8869142 .7442259 0
.9112591 .7438273 0
.9350718 .7433136 0
.9590237 .7426697 0
.982218 .7420415 0
.9999999 .7414274 0
0 .7787906 0
0 .7787682 0
0 .7787427 0
0 .7787066 0
0 .7786583 0
0 .7785968 0
0 .7785217 0
.1079793 .7788944 0
.1817398 .7789591 0
.2395669 .7790353 0
.2884624 .7792686 0
.3378831 .7792305 0
.3835823 .7791514 0
.4265672 .7788972 0
.4687077 .778502 0
.5078923 .7779682 0
.5470875 .777006 0
.5842046 .7766142 0
.6195773 .7763602 0
.653886 .7760838 0
.6870067 .7756385 0
.7195017 .7745933 0
.7509407 .7738738 0
.78127 .7733486 0
.8082135 .7736595 0
.8350807 .7733971 0
.860889 .7731004 0
.8858862 .7729414 0
.9101466 .7728324 0
.934429 .7722217 0
.9587434 .7711465 0
.9821894 .7706373 0
.9999999 .7702774 0
0 .8064457 0
0 .8064334 0
0 .8064196 0
0 .8063995 0
0 .806373 0
0 .8063392 0
0 .8062982 0
.09879469 .8062301 0
.1764854 .8065543 0
.2371712 .8065655 0
.2878975 .8066753 0
.3360768 .8065419 0
.3824917 .8063365 0
.4255925 .8060103 0
.4671298 .8055096 0
.5074897 .8050641 0
.5457655 .8045578 0
.5833095 .8040315 0
.6181309 .8039204 0
.6516976 .8038761 0
.6846135 .8038451 0
.7174761 .8034678 0
.7490729 .8027262 0
.7791103 .8021659 0
.8072213 .8017692 0
.8338152 .8014593 0
.8596196 .8012091 0
.8846666 .8009436 0
.9088259 .8007625 0
.9340331 .8002904 0
.9582652 .7998645 0
.9817974 .7991069 0
.9999999 .7984811 0
0 .8331496 0
0 .8331261 0
0 .8330994 0
0 .8330612 0
0 .8329924 0
0 .8329297 0
0 .8328701 0
.09364683 .8327994 0
.1775062 .8327339 0
.2365679 .8329211 0
.2900691 .8326202 0
.3364858 .8326241 0
.3826075 .8324481 0
.4261983 .8322217 0
.4671209 .8320175 0
.5057731 .8318583 0
.5434039 .831543 0
.5794774 .8314193 0
.6148653 .831266 0
.6491113 .8311618 0
.682345 .8310504 0
.7145127 .8308783 0
.7459764 .8304503 0
.7763881 .8297172 0
.8051891 .8291934 0
.8323756 .8287873 0
.858577 .8285188 0
.8845084 .8282166 0
.9092913 .8279746 0
.9335358 .827719 0
.9576862 .8273892 0
.9811648 .8269953 0
.9999999 .8265031 0
0 .8595086 0
0 .8594862 0
0 .8593993 0
0 .8591162 0
0 .8589702 0
0 .8589201 0
0 .8589041 0
.0802991 .8587813 0
.1727114 .8586389 0
.2365906 .8584889 0
.2884536 .8585544 0
.332622 .8588418 0
.3786654 .8587312 0
.4219375 .858602 0
.462769 .8584687 0
.5018477 .8583562 0
.5396105 .8581254 0
.5767213 .8578492 0
.612044 .8577471 0
.6461234 .8575023 0
.6790113 .8573473 0
.710887 .8571797 0
.7417403 .8569934 0
.772727 .8564666 0
.8031225 .8559098 0
.8320143 .8553995 0
.8590992 .8549768 0
.8845822 .8547092 0
.9092989 .8545139 0
.9332651 .85432 0
.9573984 .8539499 0
.9809054 .8537163 0
.9999999 .8534736 0
0 .8847883 0
0 .8847739 0
0 .8847581 0
0 .8847349 0
0 .8847043 0
0 .8846655 0
0 .884618 0
.03982622 .8845476 0
.1548989 .8844661 0
