luts/Timeless 24.cube
# 3D LUT of size 33x33x33 converted by Filestar.
#   Input:
#     color space: sRGB
#     white point: default (D65)
#     transfer function: default (sRGB)
#   Output:
#     color space: sRGB
#     white point: default (D65)
#     transfer function: default (sRGB)
#   Exposure: +0.5
#   Contrast: +21
#   Whites: +7
#   Blacks: -19
#   Vibrance: +5
LUT_3D_SIZE 9
0 .0019221 .00886285
.1359214 0 .00345344
.3023004 0 0
.4550659 0 0
.5970772 0 0
.7262601 0 0
.8397444 0 0
.9377182 0 0
.9999999 0 0
0 .1416989 0
.1397034 .1383401 0
.3052768 .1416681 0
.4573436 .1400057 0
.5982476 .1365916 0
.7266147 .1311545 0
.8400576 .1279973 0
.9379086 .1185494 0
.9999999 .1180368 0
0 .2836612 0
.1558779 .2826256 0
.3099635 .2847733 0
.4594953 .2859404 0
.5986682 .2869097 0
.727487 .2858697 0
.8411571 .2846765 0
.9388958 .282689 0
.9999999 .2821344 0
0 .4254227 0
.1540051 .4254314 0
.3140684 .4255996 0
.4634116 .4261653 0
.6007019 .4282807 0
.7286496 .4278752 0
.8420573 .4280488 0
.9400527 .4266381 0
.9999999 .4265226 0
0 .5606682 0
.1353358 .5607193 0
.3105745 .5611854 0
.4642462 .560896 0
.6031292 .5606746 0
.728741 .5623111 0
.8425198 .5613722 0
.940671 .5604219 0
.9999999 .5593759 0
0 .6830125 0
.1362073 .6831532 0
.3129289 .6834024 0
.4635749 .683716 0
.6045919 .6831763 0
.7302972 .6829846 0
.8419693 .683445 0
.9405712 .6828767 0
.9999999 .6827534 0
0 .7933083 0
.1267855 .7932472 0
.3091375 .7931148 0
.4647315 .7930079 0
.6032386 .793017 0
.7318003 .7926427 0
.8441337 .7925584 0
.9399301 .7933886 0
.9999999 .7921646 0
0 .8902633 0
.106619 .8901576 0
.3028266 .8900464 0
.4625601 .8897868 0
.6041024 .8899989 0
.7305933 .8903337 0
.8441157 .8894325 0
.9403648 .8888903 0
.9999999 .8887989 0
0 .9742096 0
.09635236 .9741684 0
.2986636 .9740626 0
.4587857 .9741258 0
.6034333 .9740953 0
.7313886 .9735319 0
.8428048 .9728358 0
.9396577 .972415 0
.9999999 .9721208 0
0 .0060106 .1520109
.1386575 0 .1524081
.3059609 0 .1536094
.4582102 0 .1516823
.5986719 0 .1505825
.7272267 0 .1496797
.8403702 0 .1470546
.938224 0 .1426713
.9999999 0 .1398844
0 .1347072 .1547676
.1449447 .1381707 .1533405
.3072597 .1346722 .1516258
.4588624 .1318744 .1503276
.5991065 .1296391 .1484564
.7276304 .1255973 .1482072
.8406286 .1227181 .1446311
.9383218 .1152957 .1429931
.9999999 .1120697 .138311
0 .2850198 .1519731
.1467187 .2843632 .1489893
.3095184 .2852629 .1481254
.4598261 .2845308 .1497863
.5996004 .2855605 .1475095
.728197 .2844916 .1443142
.8415984 .2829365 .1419452
.9391259 .2808745 .1411184
.9999999 .2804222 .1345592
0 .4260234 .1457113
.1389998 .4262572 .1441619
.3137645 .4260103 .1430711
.4628821 .4266257 .1465469
.6016365 .4277678 .1439399
.7290879 .4273303 .1407924
.8425068 .4263448 .1401409
.940237 .4259086 .1339889
.9999999 .4254318 .1305781
0 .5608034 .1346985
.1260752 .5611019 .1338249
.3087311 .5612315 .1337385
.4635264 .5615297 .1364066
.6035509 .5610483 .1370206
.7293361 .5620099 .135678
.8427286 .5609448 .1331927
.9407803 .5599351 .129575
.9999999 .5588961 .1271206
0 .6833131 .1237892
.1251692 .6834707 .1228144
.3096772 .683619 .1223074
.4632041 .6840681 .1198332
.6049482 .6834612 .1251994
.730786 .6830492 .126636
.8426403 .6834421 .1192276
.9409019 .6825209 .1166269
.9999999 .6826321 .1140126
0 .7935576 .112458
.1159474 .7934203 .1102137
.3055099 .793309 .110502
.4609282 .7935731 .1054238
.6020701 .793313 .1112439
.7321219 .7924854 .1130255
.8444148 .79237 .1104207
.9404253 .793272 .1081333
.9999999 .7917849 .1075341
0 .8905015 .1052451
.09630726 .8903496 .1036044
.2997141 .8902014 .104548
.46052 .8900267 .1044644
.6032766 .8902257 .09839606
.730468 .8904158 .09763854
.8443391 .8893785 .1048345
.9408225 .8887448 .1080431
.9999999 .8886613 .1045214
0 .9745019 .08976515
.08265277 .9744052 .09097091
.2948523 .9742783 .096596
.4568727 .9742311 .09813126
.6015748 .9743698 .09217568
.7305302 .9737419 .09086549
.8425828 .9728647 .0914237
.9397147 .972352 .09567689
.9999999 .9719136 .09544749
0 0 .3089982
.1463732 0 .3105848
.3072073 0 .3118684
.4587395 0 .3134114
.6004463 0 .313273
.7281002 0 .3129494
.84098 0 .3132592
.9390163 0 .3114878
.9999999 0 .3108754
0 .1362728 .3119803
.146084 .13488 .3125471
.3096063 .1314578 .314015
.4600744 .1299281 .3134396
.6004386 .1245327 .3123298
.7281774 .119494 .313113
.841242 .114339 .3126808
.939198 .1076388 .3109734
.9999999 .09934387 .3101702
0 .2850229 .3143333
.141929 .2849887 .3144881
.3105993 .2842943 .3136554
.4600887 .2839115 .312975
.6001567 .2835912 .312679
.7290139 .28248 .3125596
.8421183 .2803743 .311379
.9397764 .2778468 .3102261
.9999999 .2760348 .3086235
0 .4273306 .312793
.1294188 .4272287 .3115641
.3107551 .4264119 .3104071
.4627372 .4274308 .3099557
.6023036 .4281766 .3112943
.7299257 .4271091 .3109788
.8432779 .4254436 .3098138
.9407881 .4236627 .3084032
.9999999 .4232551 .3065425
0 .5606484 .3083356
.1226325 .5606843 .3079832
.3047844 .5614349 .3076616
.4629884 .5618256 .3076239
.6033173 .5615267 .3079911
.7307565 .5609543 .3069547
.8433613 .5603131 .3078152
.9414051 .5589041 .3056217
.9999999 .5576538 .3051411
0 .6835724 .3025199
.1076629 .6837776 .3022811
.3003226 .6843735 .3017265
.4607658 .684422 .3021431
.6045986 .6838968 .3025895
.7319188 .6832043 .3005677
.8441427 .6834099 .2976774
.9420837 .6824594 .2984574
.9999999 .6819574 .3019884
0 .7935612 .2978247
.08894957 .7935643 .2978126
.296347 .7937054 .2971988
.4580574 .7936493 .2971165
.6016111 .7936093 .2966597
.7327 .7929031 .2959254
.8460207 .7924717 .2949695
.9423188 .7930618 .2941081
.9999999 .7917004 .2949267
0 .8905628 .295587
.06866623 .8905631 .2953905
.2921343 .8904484 .2946697
.454947 .8904409 .2936019
.600529 .8905343 .2936957
.7296093 .890794 .2919973
.8455015 .8895078 .2937351
.9420083 .8888284 .2937064
.9999999 .8885206 .2931719
0 .9745751 .2911722
.0528503 .9746343 .2905732
.2868833 .9745988 .2906053
.4520435 .9745075 .2915027
.5994918 .974445 .2924009
.7296471 .9742939 .2895802
.8416485 .9735929 .2885791
.9401644 .9724486 .2901757
.9999999 .9720395 .2900832
0 0 .4631275
.144342 0 .4631902
.3101861 0 .4634559
.4618977 0 .4639671
.6009651 0 .4649545
.7292434 0 .465075
.841871 0 .4645122
.9396021 0 .4632611
.9999999 0 .4624164
0 .1309133 .4635741
.1403742 .129294 .4638742
.30986 .12668 .4644388
.4634423 .120841 .4649741
.6020465 .1167302 .4652822
.7293049 .1102038 .4646673
.8420474 .1057715 .4639401
.9400798 .09496785 .4627749
.9999999 .0845516 .4617039
0 .2824289 .4644176
.1330974 .2821319 .4646413
.3078518 .2808757 .4650659
.4637687 .2812182 .4648896
.6029649 .2811262 .4643991
.729679 .2793773 .4636511
.8426227 .2772417 .4632348
.9405514 .2736261 .4623607
.9999999 .2712672 .4619148
0 .4268323 .4646837
.1310621 .4265102 .4646741
.3068177 .425902 .4646508
.4639598 .4251239 .4645353
.6043655 .4262369 .4631913
.7303945 .4262447 .4637114
.8430169 .4239243 .4628627
.9408698 .4213196 .4620931
.9999999 .420793 .4616281
0 .5608867 .463872
.1014972 .5610836 .4634423
.2983961 .5614458 .4620546
.4607297 .5615562 .4616412
.6044071 .5617962 .4617324
.7312394 .5602915 .4635627
.8433201 .5593392 .4618846
.9410386 .5579829 .4609671
.9999999 .556988 .4609424
0 .6841898 .4598318
.09098198 .6842567 .4592052
.2965367 .6841435 .4581603
.4552445 .6846834 .4580665
.6034358 .6838894 .4585061
.7316345 .6834812 .4571951
.8450008 .6823553 .4567967
.9411504 .6816424 .4608524
.9999999 .681429 .4610218
0 .7934725 .4565516
.07466341 .7933998 .4563954
.2925631 .7933498 .4556818
.4539089 .7937114 .4555547
.6005477 .7936652 .4549145
.7327545 .7930475 .4551822
.8453561 .7931169 .4552936
.941699 .7928931 .4557453
.9999999 .7918391 .456184
0 .8904259 .4551136
.05526245 .8903487 .4548994
.287881 .8903251 .4546388
.4521809 .8902986 .454648
.59923 .890365 .4548529
.7302904 .8903179 .4549146
.8443664 .8898697 .4550022
.9416434 .8893564 .4543435
.9999999 .88892 .4538545
0 .9741846 .4539703
.02981921 .9741732 .4538959
.2837317 .9741884 .4535769
.4508002 .9742 .4529942
.5988824 .9739873 .4544242
.7286797 .9739776 .4550232
.8413226 .9739715 .4533473
.9397808 .9727011 .4524501
.9999999 .972114 .4497803
0 0 .6039146
.1415826 0 .6040505
.3114118 0 .6044589
.4632155 0 .6043738
.6020939 0 .6045922
.7292003 0 .6052476
.8431819 0 .6056899
.940535 0 .6053646
.9999999 0 .6049261
0 .1258813 .6046193
.1340688 .1231474 .6049878
.309704 .1174837 .6050076
.4632599 .113191 .6048923
.6026103 .108827 .6052919
.7299739 .1066785 .6056915
.8431534 .09602065 .6055796
.9408945 .08522549 .6052049
.9999999 .07819129 .6046581
0 .280208 .6050262
.1258352 .2803432 .6052232
.3065748 .278527 .6054259
.4618772 .2775492 .6053751
.6026405 .2767703 .6056181
.7313152 .2755563 .6055042
.8436881 .2740613 .6050805
.9414319 .2713361 .604388
.9999999 .2681942 .6035821
0 .425511 .6055412
.1135722 .4248981 .6056519
.301762 .4236689 .6055318
.4606918 .4219633 .6059455
.6044058 .4228891 .6059164
.7321292 .4227377 .6043227
.8440099 .4213845 .6036082
.9415286 .4202634 .6030234
.9999999 .4194722 .6025614
0 .5599843 .6058829
.09265164 .559824 .6058104
.296999 .5598009 .6055729
.460409 .5588441 .6055674
.6058032 .5584595 .6053709
.7312844 .5595665 .6038603
.8423801 .5587196 .6045203
.9404644 .5577326 .6037813
.9999999 .5565543 .6032293
0 .6841271 .6044859
.07447337 .684199 .6042703
.2916632 .6843071 .6037631
.4541336 .6845264 .6030956
.6015486 .6834755 .6032839
.7328141 .6823409 .6021035
.8437116 .6818569 .6036392
.9407405 .6809486 .6028425
.9999999 .6807365 .6026541
0 .7940078 .6014841
.04338749 .7939967 .6014035
.2860421 .7939912 .6013263
.4526843 .7936538 .600863
.6013137 .7932223 .6000151
.73242 .7928539 .6002718
.8445683 .7928323 .5999749
.9419525 .7924971 .5989178
.9999999 .7916394 .6025687
0 .890779 .6000411
.00550866 .8907208 .6001899
.2804575 .8905826 .5995837
.4497418 .8901368 .5986422
.5983103 .8898977 .5983359
.7308365 .8896261 .5981627
.8449634 .8892455 .5983032
.9405991 .8900235 .5975696
.9999999 .8888366 .5982646
0 .9741759 .5980645
0 .9740556 .5978508
.2761211 .9737877 .5975624
.4492373 .9736417 .5973458
.59802 .9734709 .5972967
.7270823 .973623 .598588
.8404304 .9735489 .5990446
.939813 .9730559 .5963939
.9999999 .9722802 .5945732
0 0 .7306349
.1303066 0 .7308339
.3076978 0 .7310803
.4622121 0 .7313417
.602764 0 .7315177
.7306099 0 .7319577
.8430976 0 .7316284
.940553 0 .731355
.9999999 0 .7316233
0 .1204966 .7308018
.1229888 .1170285 .7309325
.3050702 .1101813 .7311815
.4612626 .1030395 .7315308
.6026831 .1050902 .7314808
.7304972 .09526622 .7321715
.8434996 .08946725 .7318375
.9412627 .08390468 .731474
.9999999 .07086334 .7314561
0 .2796072 .7311561
.1095571 .2789541 .7312116
.3014742 .2760998 .7317037
.4596881 .2737432 .7318835
.60308 .2737925 .7318801
.7303496 .2710824 .7322741
.8445448 .2679761 .7323837
.942068 .2665608 .7312675
.9999999 .2632375 .7309371
0 .4229091 .7318267
.09948016 .4222342 .7317945
.2968734 .4212342 .7318428
.4571332 .419365 .7322858
.6028435 .4186742 .7323971
.7313473 .4180592 .73261
.8457882 .4160624 .7328748
.9420614 .4177105 .7310239
.9999999 .4163892 .7309973
0 .557839 .7328904
.06478229 .5576622 .7328055
.2914264 .5567834 .7323954
.4567816 .5560017 .7316898
.6006138 .555891 .7321846
.7316667 .5557179 .7325564
.8451664 .5561267 .7311437
.942598 .5551212 .731133
.9999999 .555526 .7313599
0 .6817648 .732069
.06269137 .681532 .7320963
.2914696 .6819935 .7320962
.4546641 .6825641 .73198
.6012368 .6816596 .7320054
.7317959 .6808231 .7320313
.843197 .6815956 .7312277
.9394706 .6812764 .731559
.9999999 .6808512 .7313284
0 .7942833 .7316542
.04525153 .7942155 .7315822
.285768 .7941359 .7315869
.4511585 .7938282 .7316796
.5992885 .7929142 .7310532
.7302621 .7919337 .7318765
.8437389 .7925364 .7303336
.9394853 .7917008 .7307709
.9999999 .7910238 .7305742
0 .890745 .7306274
0 .8906853 .7305179
.2785449 .8905073 .7300437
.449261 .8901583 .7294319
.5992473 .8894538 .7298377
.7308012 .8887989 .7295781
.8425608 .889114 .7289878
.9403292 .8890477 .7278236
.9999999 .8879232 .7266814
0 .974076 .7279763
0 .974008 .7278906
.2764072 .9738752 .727572
.4462588 .9736921 .7273853
.5976233 .9729041 .7271407
.7275442 .9729772 .7269271
.8392312 .9734879 .7270518
.9377086 .9726165 .7276466
.9999999 .972282 .7268754
0 0 .8435996
.1199167 0 .8436938
.3021154 0 .8439452
.4602132 0 .8443059
.6012538 0 .8438455
.7312859 0 .8437561
.843186 0 .8440583
.9404965 0 .8438498
.9999999 0 .8438247
0 .1095192 .8436942
.1116507 .1056689 .8438297
.3000754 .0983072 .8439888
.4592187 .09295084 .8443033
.6007214 .09826655 .8438659
.7309559 .08864612 .8439241
.8431766 .07665037 .8442654
.9407199 .07042313 .8440078
.9999999 .05375471 .8440363
0 .2747037 .8437461
.09376866 .2740463 .843761
.296244 .2729581 .8438654
.4563591 .271439 .844085
.5995842 .271881 .8439718
.7296734 .2687842 .8445864
.8437529 .2639615 .8446743
.9415695 .2620595 .8445013
.9999999 .257914 .8443021
0 .4208165 .8436543
.07994632 .4203948 .8436999
.2912408 .4197373 .8439052
.4534352 .4180704 .8445113
.5987712 .4157942 .8447977
.7289121 .4143014 .8453764
.8438927 .4135781 .8450817
.9429985 .4123894 .8449808
.9999999 .4116327 .84435
0 .5563236 .8442727
.02659493 .555913 .8442856
.2847013 .5549434 .8445689
.4516294 .5540625 .8448724
.5980768 .5534119 .8449068
.7287713 .5531225 .8450097
.8444049 .5522351 .844929
.9430314 .5510476 .8447286
.9999999 .5517457 .8437673
0 .68003 .8447688
.03962451 .6800891 .8446836
.2825355 .6805743 .844399
.4492297 .6803126 .8443649
.5984618 .6790037 .8446851
.7286716 .6784563 .8449383
.8435341 .6788011 .8446662
.9416046 .678786 .8437883
.9999999 .6798158 .8428022
0 .7921181 .8443363
.03513545 .7920223 .8443418
.2847995 .7919737 .8443648
.4512828 .7919719 .8443629
.5985393 .7914939 .8441753
.7290934 .7904547 .8443615
.8430759 .7907201 .8436526
.9387953 .7907531 .8430044
.9999999 .7908871 .8427038
0 .8903806 .8437819
.01403416 .890377 .8436118
.2807486 .8901702 .8435684
.449567 .8898916 .8435566
.597384 .8894519 .8436177
.7299463 .8883193 .843213
.8407795 .8890445 .8436536
.9383062 .8891521 .8443111
.9999999 .8881403 .8436076
0 .9741194 .8427442
0 .9739751 .842732
.2764159 .9735771 .8428701
.4493539 .973195 .8427541
.5994172 .9730482 .842034
.7276254 .9730365 .841127
.8404271 .9724234 .843051
.9381488 .971956 .8431067
.9999999 .9713339 .8415787
0 0 .9397865
.118627 0 .9398645
.3014098 0 .9401228
.4584392 0 .94052
.5990017 0 .9406387
.7296352 0 .9407297
.8435296 0 .9410444
.9397517 0 .9408367
.9999999 0 .9402592
0 .1045206 .9398771
.1116801 .1011737 .9399703
.2991349 .09615939 .9401887
.4574165 .09073526 .9405318
.5984963 .08332969 .9405787
.7288592 .07740294 .9407302
.8431151 .06595588 .9410316
.9399024 .05682179 .9409609
.9999999 .04590679 .9404283
0 .2730433 .9400873
.09439761 .2727147 .9401399
.2944442 .2718524 .9402735
.4546132 .2702133 .9405302
.5982642 .2686573 .9406086
.72732 .2659279 .940824
.8423883 .2626867 .9412722
.9403819 .2590796 .9414784
.9999999 .2582045 .9409609
0 .4180647 .9402763
.04620215 .4179839 .940393
.2844333 .4169577 .9406245
.4489852 .4159289 .9408033
.5963038 .4144593 .9408884
.7258387 .4136917 .9411497
.8423226 .4136032 .9413289
.9408516 .412052 .941341
.9999999 .4117877 .9415004
0 .5533323 .9405051
.01934798 .5530584 .9404873
.282335 .5526974 .940505
.4482859 .5521722 .9403967
.5972959 .5519609 .9405667
.7259892 .5519987 .9405277
.8422287 .552209 .9408916
.9406816 .5508816 .9409185
.9999999 .549822 .9410303
0 .6780508 .9407066
.00386779 .6780768 .940667
.2757574 .678071 .940588
.4479338 .6773085 .9403817
.597061 .6772294 .940044
.7278009 .677438 .9400804
.8414896 .6768249 .9409612
.9404024 .6761382 .9410914
.9999999 .6757191 .9412467
0 .7902908 .9408743
0 .7904419 .9407892
.2733279 .7905592 .9405276
.4445841 .7905566 .9402224
.5952988 .7894805 .9404477
.7277498 .789095 .9406551
.8409839 .7893321 .9405999
.939142 .7893766 .9408497
.9999999 .7890198 .9409218
0 .8883843 .940716
.00221941 .8882721 .9407091
.2810035 .8879265 .9407921
.4502127 .8879882 .9407111
.5965211 .888469 .940811
.7257195 .8881662 .9408286
.839981 .8873655 .9406328
.9390265 .8878489 .9398677
.9999999 .8881698 .9391634
0 .9738457 .9398959
0 .9738005 .9397562
.2776466 .9736416 .9394677
.4487837 .9733902 .9393633
.5978665 .9730065 .9396533
.7255259 .9732563 .9395563
.8410341 .9724049 .9391668
.9376025 .9725199 .9395913
.9999999 .9720634 .9411779
0 0 .9999999
.1201597 0 .9999999
.3018011 0 .9999999
.4580398 0 .9999999
.5994738 0 .9999999
.7271128 0 .9999999
.8415521 0 .9999999
.9392659 0 .9999999
.9999999 0 .9999999
0 .1027885 .9999999
.1119052 .100724 .9999999
.2990848 .0955495 .9999999
.4570669 .08984119 .9999999
.5993136 .0824329 .9999999
.726733 .07127678 .9999999
.8414402 .06468853 .9999999
.9393417 .05208821 .9999999
.9999999 .04912805 .9999999
0 .2723662 .9999999
.09445138 .2722376 .9999999
.2944492 .2721137 .9999999
.4552377 .2707023 .9999999
.5989992 .2686091 .9999999
.726016 .2652559 .9999999
.8406853 .26296 .9999999
.9393761 .2602305 .9999999
.9999999 .2586504 .9999999
0 .4168696 .9999999
.04016068 .4168805 .9999999
.2838761 .416537 .9999999
.4500656 .4161521 .9999999
.5970618 .4157611 .9999999
.7251326 .4155897 .9999999
.8401272 .4140432 .9999999
.9395365 .4133288 .9999999
.9999999 .412101 .9999999
0 .5520517 .9999999
.01700864 .5515159 .9999999
.276497 .5497212 .9999999
.4456527 .5500887 .9999999
.5959237 .551648 .9999999
.7254575 .551912 .9999999
.8402207 .5526991 .9999999
.9392093 .5523061 .9999999
.9999999 .5509961 .9999999
0 .6764547 .9999999
.02602757 .676553 .9999999
.2790108 .6766882 .9999999
.4455676 .6764827 .9999999
.5922118 .6746982 .9999999
.7262729 .6762122 .9999999
.8390334 .6768908 .9999999
.9385452 .6762431 .9999999
.9999999 .6757123 .9999999
0 .7883409 .9999999
.00540143 .7883571 .9999999
.2752689 .7884083 .9999999
.4460229 .7882434 .9999999
.5959516 .7879036 .9999999
.7256725 .7882195 .9999999
.8385187 .7891392 .9999999
.9359952 .7885772 .9999999
.9999999 .787352 .9999999
0 .8857449 .9999999
.02625898 .8857809 .9999999
.2846541 .8857924 .9999999
.4511313 .8859024 .9999999
.5972551 .8859888 .9999999
.7266119 .8858392 .9999999
.839883 .8862203 .9999999
.936461 .8870857 .9999999
.9999999 .8874499 .9999999
0 .9710386 .9999999
.00737132 .970931 .9999999
.284195 .970791 .9999999
.4540651 .9704635 .9999999
.5988202 .9701644 .9999999
.7267932 .9702165 .9999999
.8419845 .9699772 .9999999
.9406673 .9700927 .9999999
.9999999 .9722064 .9999999
