luts/Timeless_45.cube
# 3D LUT of size 33x33x33 converted by Filestar.
#   Input:
#     color space: sRGB
#     white point: default (D65)
#     transfer function: default (sRGB)
#   Output:
#     color space: sRGB
#     white point: default (D65)
#     transfer function: default (sRGB)
#   Exposure: +0.32
#   Contrast: -38
#   Whites: -8
#   Blacks: -40
#   Vibrance: +18
#   Saturation: +6
LUT_3D_SIZE 5
.02136229 .02735993 .00183079
.2128017 0 .01172002
.5266055 0 0
.7839378 0 0
.9973329 0 0
0 .2303514 0
.2360491 .232619 0
.5262934 .2369321 0
.78401 .2379502 0
.9993303 .2171821 0
0 .5228463 0
.2280475 .5210264 0
.5317767 .5171944 0
.7858444 .5199605 0
.9999613 .515644 0
0 .7755652 0
.1089444 .7753496 0
.5152869 .7740494 0
.7889726 .7694148 0
.9978932 .7674717 0
0 .9874349 0
0 .9872074 0
.4584242 .9863085 0
.7677727 .9835485 0
.9938689 .9826229 0
0 0 .253569
.2419468 0 .2570554
.5389833 0 .2527919
.7962002 0 .2339758
.9999999 0 .2086772
0 .2354574 .2543281
.237455 .2272674 .2501642
.5373349 .2176813 .237764
.794059 .1942369 .2166817
.9999999 .1459575 .1884867
0 .5272994 .2006796
.178303 .5255016 .1936277
.5339538 .5203242 .1855479
.7909839 .515892 .1854058
.9999999 .5036237 .1072872
0 .7780414 .02874609
0 .7775897 0
.5036255 .7767558 0
.7878065 .7720396 0
.9999999 .7638171 0
0 .9878561 0
0 .9880081 0
.4403791 .9876329 0
.7577006 .9864019 0
.9953938 .9834576 0
0 0 .5611214
.2663927 0 .5611645
.5437996 0 .5613136
.7977006 0 .5595676
.9999999 0 .54706
0 .2134429 .5635761
.216245 .1977333 .5630744
.5462024 .1793572 .5615839
.8000457 .1488601 .5527542
.9999999 .05651039 .5402586
0 .5232172 .5560186
.1374155 .5209814 .5558193
.5284976 .5138611 .5496485
.7917925 .5092857 .5369681
.9999999 .4921471 .5241904
0 .7802559 .5196587
0 .7799415 .5144336
.4762393 .7782404 .5090868
.7859357 .7734064 .4991137
.9999999 .7581064 .4790822
0 .9908059 .4426839
0 .9900472 .4358886
.395359 .9891495 .4254299
.7492258 .9876708 .41104
.9985647 .9847888 .3820613
0 0 .8211361
.2474506 0 .8216937
.5363593 0 .8223915
.795001 0 .8202546
.9999999 0 .8164617
0 .1804654 .8223878
.2003919 .1664093 .8225939
.5292815 .1275489 .8232528
.795768 .08405579 .8216407
.9999999 0 .8154568
0 .4988378 .8197035
0 .4940458 .8203002
.5025729 .4864038 .8203164
.7913209 .4816208 .8192328
.9999999 .4716628 .8101389
0 .7737097 .8159896
0 .7722446 .8157196
.4734484 .7674028 .8140996
.7808192 .7639758 .8090643
.9999999 .7608325 .7991972
0 .9915088 .7870586
0 .9912371 .784668
.3968947 .9892076 .7810637
.7465693 .9846806 .7751417
.9977775 .982588 .7669482
0 0 .9999999
.2129534 0 .9999999
.5269075 0 .9999999
.7866794 0 .9999999
.9999999 0 .9999999
0 .1494738 .9999999
.1548411 .1289504 .9999999
.5148249 .07004846 .9999999
.7831134 0 .9999999
.9999999 0 .9999999
0 .4822981 .9999999
0 .4766192 .9999999
.4807967 .4665679 .9999999
.7748002 .4577287 .9999999
.9999999 .4414256 .9999999
0 .7513907 .9999999
0 .7501061 .9999999
.4470959 .748787 .9999999
.7610776 .7459803 .9999999
.9999999 .7425879 .9999999
0 .9850835 .9999999
0 .9845466 .9999999
.3876155 .9828609 .9999999
.7431014 .9826836 .9997353
.9956744 .9821795 .9993798
