luts/Timeless_49.cube
# 3D LUT of size 33x33x33 converted by Filestar.
#   Input:
#     color space: sRGB
#     white point: default (D65)
#     transfer function: default (sRGB)
#   Output:
#     color space: sRGB
#     white point: default (D65)
#     transfer function: default (sRGB)
#   Exposure: +0.42
#   Contrast: -100
#   Whites: -44
#   Blacks: -12
#   Vibrance: +51
LUT_3D_SIZE 5
0 .03472406 .02851331
.2826714 .00712412 0
.5684662 0 0
.799115 0 0
.9805166 0 0
0 .2981406 0
.2900676 .2968775 0
.5666292 .2880346 0
.7974556 .270106 0
.980857 .2433988 0
0 .5678635 0
.2496203 .565783 0
.5559255 .5587069 0
.792675 .5495046 0
.9736928 .537737 0
0 .7912529 0
.1376036 .7896724 0
.5296841 .7859371 0
.7796742 .7797273 0
.9687203 .7732443 0
0 .9732639 0
0 .9731866 0
.4817637 .9720866 0
.7697278 .969857 0
.9726714 .9724639 0
0 0 .2944511
.2908416 0 .2947602
.5799473 0 .2780063
.8047251 0 .2554229
.9866647 0 .2212922
0 .2965499 .2959093
.2757245 .2893384 .2883803
.5686503 .2683472 .2725553
.8040426 .2371975 .2408985
.9866119 .1971593 .1948667
0 .5701967 .2015533
.1691642 .5678757 .1938626
.5604835 .5614508 .1953608
.7986321 .54132 .1833237
.9797732 .5285393 .1496381
0 .7942302 0
0 .7925744 0
.5162807 .7903001 0
.7802175 .7830135 0
.9748346 .7727493 0
0 .9767086 0
0 .9768718 0
.450624 .9757859 0
.7633543 .9736934 0
.9758173 .9747518 0
0 0 .5684612
.2679142 0 .5702889
.5703482 0 .5707093
.8063611 0 .5564086
.9920992 0 .5355123
0 .2349662 .5715207
.2118111 .2086687 .5709128
.568142 .1946148 .5712549
.8101577 .1659324 .5471834
.9958916 .02467372 .5226341
0 .5623176 .5616198
0 .5590433 .558446
.536871 .5422593 .5435157
.792528 .5269285 .5278718
.9890648 .4963605 .4985679
0 .797383 .4826058
0 .7963279 .4668646
.438689 .793818 .4358326
.7802753 .7867609 .433396
.9930939 .7604217 .4104316
0 .9827775 .3606194
0 .9829438 .3467596
.309934 .9827959 .3197814
.7385167 .9811237 .31822
.9819592 .9819584 .3336628
0 0 .7977082
.2506378 0 .7981352
.5455584 0 .7992601
.7939853 0 .7955191
.983563 0 .7865816
0 .1718404 .7992041
.146705 .1400556 .7995527
.5267648 .02737596 .8009659
.7949087 0 .797761
.9923657 0 .7859999
0 .500289 .7968826
0 .4865084 .7972628
.4543178 .4555216 .7954865
.7925844 .4425009 .7962458
.9999999 .4430021 .773186
0 .7839362 .7886755
0 .7837596 .7876918
.3853609 .7813345 .7841662
.7659911 .7689852 .7681564
.9775456 .7555589 .7583588
0 .9871873 .7373995
0 .9869373 .730849
.1424644 .9859946 .7149009
.7054541 .9849786 .7041061
.9911367 .9897183 .7111788
0 0 .9786506
.2325344 0 .9786924
.528762 0 .9786304
.7770849 0 .9779209
.9749781 0 .9751495
0 .02793634 .9802131
.01606065 0 .9809347
.488952 0 .9817196
.7709351 0 .9810475
.9792631 0 .9791198
0 .439676 .9841262
0 .4194688 .9852152
.3837176 .3779065 .9857146
.7452785 .344455 .9858256
.9852962 .3389054 .9851279
0 .7348616 .9831722
0 .7309837 .9833269
.1940093 .7138038 .9838942
.6975989 .7009333 .9841945
.9838182 .7011245 .9867409
0 .9827256 .9852855
0 .9835256 .9860509
.06022546 .9863136 .9877294
.7019624 .9878617 .9900764
.9996601 .9947707 .9955176
