luts/Timeless 22.cube
# 3D LUT of size 33x33x33 converted by Filestar.
#   Input:
#     color space: sRGB
#     white point: default (D65)
#     transfer function: default (sRGB)
#   Output:
#     color space: sRGB
#     white point: default (D65)
#     transfer function: default (sRGB)
#   Exposure: +0.53999996
#   Contrast: +23
#   Whites: +8
#   Blacks: -20
#   Vibrance: +5
LUT_3D_SIZE 9
0 .00158175 .00933342
.1382786 0 .00373588
.3084068 0 0
.4628786 0 0
.6050285 0 0
.7336606 0 0
.846024 0 0
.9415083 0 0
.9999999 0 0
0 .1448857 0
.142054 .1417576 0
.3117714 .1442685 0
.4650521 .1432453 0
.6063864 .1387755 0
.7341132 .1337814 0
.8462898 .1302759 0
.9417791 .121732 0
.9999999 .1199316 0
0 .2884084 0
.1600595 .287715 0
.3159558 .2902361 0
.4672369 .2910652 0
.6067197 .2919214 0
.7355292 .2909375 0
.8472244 .2897593 0
.9426863 .2882491 0
.9999999 .2880172 0
0 .4326694 0
.157198 .4326522 0
.3198351 .4330359 0
.4704232 .433477 0
.6090974 .435132 0
.736918 .4346402 0
.8482389 .4357979 0
.9438668 .4341959 0
.9999999 .4337363 0
0 .569048 0
.1369099 .5691372 0
.3157409 .5695007 0
.4707571 .5692991 0
.6114083 .5692039 0
.7370413 .5706051 0
.8488772 .5695664 0
.9442325 .5686231 0
.9999999 .5678173 0
0 .691137 0
.1396096 .6912721 0
.3181645 .6917304 0
.4712229 .6920639 0
.6123801 .6915308 0
.7381053 .6911152 0
.8480815 .6918832 0
.9445029 .691271 0
.9999999 .6910427 0
0 .8005719 0
.1262589 .8004784 0
.314467 .8001799 0
.4724816 .7999187 0
.6119747 .8000602 0
.739817 .7997293 0
.850349 .7996064 0
.943993 .8003219 0
.9999999 .7992556 0
0 .8954607 0
.1101873 .8954706 0
.3092695 .8953777 0
.4702246 .8950734 0
.6127483 .8952571 0
.7383879 .8956152 0
.8501967 .8945572 0
.9442018 .8938821 0
.9999999 .8937863 0
0 .9768942 0
.1026399 .9768501 0
.3050649 .9768162 0
.4668258 .976865 0
.6117578 .9768307 0
.7388755 .9762595 0
.8491763 .9754822 0
.9433014 .9750659 0
.9999999 .9747857 0
0 .00502902 .1548572
.141729 0 .1556157
.3118169 0 .1565924
.4659696 0 .1546596
.6068799 0 .1534723
.7346314 0 .1536276
.8467433 0 .1503564
.9419854 0 .1472275
.9999999 0 .1438962
0 .1380656 .1584017
.1470286 .1413072 .1566526
.3136263 .1367064 .1545387
.4666694 .1345878 .1533127
.6073399 .131787 .1514063
.7351639 .1276624 .151988
.8468846 .1243672 .1482404
.9421127 .1151536 .1471536
.9999999 .1137841 .1421675
0 .2898465 .1550719
.1507244 .2895208 .1522222
.3156801 .2906061 .151377
.4676405 .2895594 .1527371
.6077843 .2905785 .1506384
.7362344 .289568 .1476447
.8478052 .2876806 .1458438
.9429209 .2863296 .1436824
.9999999 .2861706 .1381674
0 .4332271 .1479456
.1428544 .433462 .1463946
.3195795 .4334974 .1454192
.4700747 .4339726 .1492392
.6100749 .4344844 .1473777
.7372978 .433963 .1454273
.8487388 .4337702 .1431827
.94403 .4333544 .1369201
.9999999 .4327177 .1350161
0 .5691799 .1382388
.127412 .5694215 .1371976
.3132671 .5696203 .1369385
.4697267 .5699694 .1398648
.6117176 .5694407 .1405284
.737663 .5703322 .1384731
.8491299 .5691615 .1361052
.9445421 .5680362 .1336056
.9999999 .5672858 .1305533
0 .6913871 .1276637
.1277776 .6915851 .1262547
.3148078 .6918703 .1254322
.4707783 .6924398 .1227979
.612676 .6919362 .1295734
.7386247 .6911228 .1291313
.8487552 .6918027 .1217707
.9449281 .6909283 .1204267
.9999999 .6908847 .1183731
0 .8008126 .115754
.1156758 .8006516 .1136832
.3108007 .8003775 .1142967
.4683407 .8005034 .1096867
.610724 .8002989 .114304
.7401412 .7995763 .1155372
.8506318 .7994791 .1145542
.9445018 .8001783 .1121949
.9999999 .7988633 .1119496
0 .8956487 .1084859
.09940856 .8956138 .1073806
.3058806 .8955795 .1076043
.467997 .8953669 .1069301
.6118826 .8955756 .1024966
.7382784 .8956956 .1015357
.8504148 .8945029 .1083586
.9447177 .8937126 .1109396
.9999999 .8935617 .1080418
0 .9771714 .09599667
.09096914 .9770765 .09719153
.301588 .9769947 .1026121
.4649423 .9769754 .103253
.609937 .9771098 .09753615
.7380113 .9764736 .09557874
.8487818 .9755462 .09657321
.9433227 .9750109 .0972401
.9999999 .9746346 .09732433
0 0 .31549
.1495472 0 .3171522
.3127973 0 .3183275
.4664714 0 .3199358
.6084827 0 .319812
.7356504 0 .3194794
.8474329 0 .3194027
.9428189 0 .317712
.9999999 0 .3169029
0 .1389005 .3185928
.1480814 .1367245 .3190817
.3158757 .1336371 .3205191
.4678898 .1314242 .3200303
.6084993 .1259338 .3188193
.7358515 .1207503 .319647
.8475392 .1151695 .3188837
.9430069 .1072351 .3171899
.9999999 .100409 .3160921
0 .2898046 .3209184
.145143 .2901736 .3210315
.3167202 .289376 .3201737
.4678555 .2887444 .3192571
.6082558 .2885917 .3190108
.7370616 .2874939 .3188535
.8483731 .2849236 .3176128
.9434823 .2820276 .3165223
.9999999 .2813303 .314344
0 .4345155 .319048
.1301503 .434422 .3178695
.3156245 .4336679 .316625
.469799 .4347855 .3161056
.6106249 .4348234 .3178745
.7381368 .4337177 .3172314
.849555 .4321336 .3160514
.9445929 .4311538 .3139535
.9999999 .430236 .3125635
0 .5689901 .3143564
.1229034 .5690365 .3140007
.3092738 .5697674 .3137844
.4695442 .5701505 .3138586
.6114843 .5697102 .3141814
.7390301 .5692247 .3125458
.8497088 .5685171 .3132265
.9453539 .5668995 .3114657
.9999999 .5656873 .3109873
0 .6916414 .3082913
.1056051 .6918641 .3079728
.3054316 .6926523 .3075408
.4684132 .692748 .307527
.6125149 .6921802 .3081858
.739732 .6914342 .3057922
.850386 .6915389 .303287
.9463843 .6908329 .3041016
.9999999 .6904624 .3071755
0 .8008103 .3033949
.0895113 .8007489 .3034241
.3019429 .800725 .302926
.4659238 .8005184 .3030182
.6102358 .8005156 .3023766
.7406741 .800048 .3016509
.8522754 .7995969 .3007942
.9464371 .8000362 .2999075
.9999999 .7986225 .3007839
0 .8956335 .3011874
.06878371 .8956555 .3009628
.2973754 .8958346 .3001733
.4622638 .8959847 .2993072
.6096067 .8956832 .2999285
.7373672 .8960793 .2978299
.8515072 .8946711 .2995392
.9458262 .8938079 .2990816
.9999999 .8933563 .2989915
0 .9772407 .2979033
.06089335 .9772255 .2978172
.2937208 .9771822 .2974647
.4602368 .9772078 .2980683
.6079206 .97714 .2987188
.7371618 .9770102 .2958039
.8476396 .976252 .2946331
.9437476 .9751465 .2952777
.9999999 .9746048 .2950147
0 0 .4706682
.1473675 0 .4707934
.3164119 0 .4710218
.4696712 0 .4715066
.6090556 0 .472609
.737169 0 .4728293
.8483527 0 .472068
.9433692 0 .4708059
.9999999 0 .4703611
0 .133387 .4711849
.1438551 .1312355 .4714657
.3166988 .1284327 .4720838
.4713507 .122097 .4725914
.6103136 .1174347 .4730175
.7375371 .1111402 .4721635
.8484889 .1050786 .4714268
.9438823 .09438332 .4702841
.9999999 .08329315 .469565
0 .2874171 .4720151
.1364556 .2873934 .4721771
.314605 .2857193 .4724253
.4716012 .2858354 .4723497
.6110818 .2863277 .4718017
.7381041 .2839691 .4711608
.848991 .2814089 .4707022
.9444297 .2775219 .4697907
.9999999 .2759624 .4693087
0 .4340817 .4721223
.1321622 .4338321 .4720811
.3114963 .4331194 .4721134
.4717209 .4320218 .4720607
.6126487 .4329809 .4706838
.7387589 .4331572 .4713982
.8491171 .4310892 .4704801
.9448148 .4287805 .469387
.9999999 .4278129 .4689609
0 .5692264 .4712845
.1012845 .5693579 .4708567
.3027818 .5696972 .4695762
.4679397 .5696819 .4693151
.6128163 .569787 .469586
.7390735 .5683036 .4709687
.8498917 .5673333 .4689749
.9453217 .5658973 .4686992
.9999999 .5648103 .468748
0 .6919813 .4673727
.08916929 .6920537 .4666984
.3009973 .6919855 .4656447
.4634712 .6927679 .4652953
.612393 .6920042 .4654366
.7393544 .6917961 .4644965
.8514097 .6902656 .4645212
.9454775 .689878 .4685647
.9999999 .6896189 .468788
0 .8005585 .4639443
.07815772 .8004267 .4637042
.2990615 .8001842 .4630194
.462329 .8004931 .4630535
.6092125 .8005817 .4627364
.7404419 .8003396 .4628429
.8514554 .800358 .4626959
.9457666 .7999707 .4633757
.9999999 .798892 .4636951
0 .8957396 .4629757
.04875077 .8956603 .4626462
.2920143 .8956413 .4624516
.4598128 .8957643 .4622985
.6087393 .895399 .4624631
.7381974 .8955571 .4623839
.8503235 .8950673 .4623607
.94535 .8944515 .4618717
.9999999 .8937038 .4619215
0 .9768464 .4617715
.04154496 .9768196 .4617622
.2910744 .9767749 .4614407
.4593899 .9768143 .4607596
.6069468 .9766591 .4625215
.7364087 .9764102 .4630595
.847527 .9764981 .4611666
.9431458 .9752861 .4598804
.9999999 .9744695 .4580717
0 0 .6120324
.1441495 0 .6124197
.3183143 0 .6129661
.4710786 0 .6130636
.6102694 0 .6132564
.7372459 0 .6136518
.849555 0 .6142503
.9442109 0 .6139767
.9999999 0 .6137137
0 .1277066 .6130167
.1345714 .1255261 .6132175
.3163721 .1178431 .6134639
.471079 .1151481 .6135243
.6107967 .11035 .6139448
.738293 .105159 .61409
.8495105 .09486651 .6140995
.9446614 .08452279 .6137797
.9999999 .07512557 .6134065
0 .2853716 .6135532
.1306423 .2849854 .613696
.3130017 .28322 .6138243
.4697325 .282056 .6137178
.6106377 .2813785 .6140986
.7395329 .2797403 .6137825
.8500528 .2781042 .613521
.9454101 .275296 .6128958
.9999999 .2721293 .6124611
0 .4326863 .6139229
.1136941 .4321279 .6140434
.306244 .4308474 .6139583
.4683766 .4290514 .6142566
.6128582 .4297093 .6144661
.7403696 .4294228 .6126381
.8504928 .4277261 .6120796
.9456545 .4270037 .6119422
.9999999 .4269726 .6112021
0 .5680211 .6141179
.09235816 .5678411 .6140878
.3020492 .567826 .6138796
.4672868 .5670864 .6138819
.6142657 .5663638 .6137176
.7389359 .5673878 .6122214
.8485041 .5670358 .6131128
.9445692 .5658792 .6121283
.9999999 .5647004 .6116111
0 .6920469 .6128814
.06756134 .6921462 .6126494
.2970725 .6921391 .6120458
.4618725 .6921984 .6112838
.6096833 .6914461 .6118978
.7408921 .690441 .610261
.8499013 .6899257 .6117959
.9448252 .6889133 .6113127
.9999999 .6890306 .6110036
0 .801315 .610151
.04174698 .8012601 .610051
.2917115 .8010738 .6097563
.4603943 .8007154 .6092023
.6100389 .8001435 .6084157
.7402239 .7996705 .6085553
.8507754 .7999932 .6081123
.9461386 .7993929 .6074167
.9999999 .7986599 .6105872
0 .8961129 .6081272
.0000797 .8960552 .6084681
.2843967 .8959073 .6079656
.456763 .8952884 .606949
.6073595 .8950085 .6066546
.7384654 .8948489 .6065891
.8508629 .8943951 .6069213
.9443877 .8950512 .6059321
.9999999 .8937055 .6067306
0 .9768662 .6067344
0 .9767483 .6064651
.2829284 .9764747 .6060415
.4575181 .9763404 .6057813
.6062306 .9762152 .6057577
.734987 .9760813 .6070206
.8466235 .9759496 .607502
.9436378 .9750633 .6047864
.9999999 .974693 .6032119
0 0 .7384944
.1327852 0 .7387251
.3140936 0 .7389888
.4698466 0 .7390962
.611522 0 .7390536
.7387202 0 .7396417
.8494893 0 .7393283
.9445612 0 .7394996
.9999999 0 .7397952
0 .1216098 .7387406
.1273312 .1180525 .7388768
.3119182 .1103164 .739031
.4691068 .1033329 .7392421
.6112132 .1040565 .7391418
.7387 .09391382 .7399051
.8497887 .08912127 .7397609
.9453259 .08366882 .7396294
.9999999 .07077204 .7396678
0 .2848325 .7390071
.1134088 .28449 .7391315
.3078284 .2807601 .739406
.4674305 .2781539 .7395083
.6109861 .2784234 .7396508
.7385184 .2755232 .7401136
.8509975 .2723161 .7405552
.9461793 .2707283 .7395621
.9999999 .2685248 .7389362
0 .43045 .7396141
.09495843 .4297423 .7395841
.3022033 .4281577 .7396959
.4644197 .4265366 .7400844
.6113772 .4256041 .7401556
.7397216 .4244911 .7408289
.8523577 .4226188 .740881
.9463446 .4241519 .7391098
.9999999 .424141 .7387629
0 .5659137 .740697
.06309754 .5657536 .740584
.2958158 .5649714 .7401765
.4635884 .5643626 .7397289
.6093678 .5640492 .740351
.739822 .5634869 .7406548
.8515896 .5639114 .7392426
.9466788 .5635556 .7389125
.9999999 .5639282 .7392431
0 .6898782 .7401602
.06399813 .6897169 .7402167
.2982279 .6901453 .7402451
.4622175 .6906841 .7401021
.6098952 .6897715 .7400611
.7396771 .6888168 .7401251
.8492618 .6898547 .7390892
.9433629 .6893982 .7394292
.9999999 .6889955 .7391274
0 .801518 .7396531
.04629034 .8013938 .7395635
.2914681 .8011982 .7395549
.4589182 .8008604 .7396938
.6075345 .7998068 .7391404
.7380822 .7989801 .7396176
.8498577 .7995085 .7382047
.9433682 .7989309 .7386053
.9999999 .7983158 .738447
0 .8959409 .7385705
0 .8958335 .7384879
.2841632 .8956345 .7379858
.4573419 .895201 .7372792
.6082401 .8943396 .7376065
.7387679 .8938292 .7373513
.8487123 .8942337 .7368581
.9443165 .8936732 .7358166
.9999999 .8927417 .7348211
0 .9766687 .7357461
0 .976631 .7356355
.2843134 .9765753 .7352943
.4543306 .9764443 .7350391
.6059812 .975604 .7348392
.7355867 .9754379 .734805
.8455856 .9758722 .7350646
.9413747 .975001 .7356772
.9999999 .9745447 .7350255
0 0 .8498597
.1269642 0 .8500094
.3091958 0 .8502138
.4678921 0 .8505788
.6099115 0 .850296
.7394987 0 .8503337
.8494613 0 .8503593
.9446025 0 .8501914
.9999999 0 .8501634
0 .1123059 .8499997
.1185526 .1082574 .8501095
.3071084 .1010795 .8502439
.4668392 .09530775 .8506088
.6093488 .09915996 .8503786
.7391048 .08996219 .8504964
.8494881 .07865528 .8505844
.9448364 .0699761 .8503553
.9999999 .05413997 .8503804
0 .2799745 .8500501
.09785218 .2792447 .8500668
.3019341 .2784548 .8502123
.4637093 .2776307 .8505175
.607757 .2772991 .8505633
.737649 .273394 .8509557
.8501098 .2688587 .8510407
.9457123 .2662452 .8508621
.9999999 .2624385 .8506778
0 .4285912 .8501049
.08158671 .4277759 .8502041
.2975758 .426882 .8504845
.4611621 .4255739 .850945
.6075127 .4235675 .851075
.7367181 .4220371 .851684
.8500667 .4207202 .8513917
.9469616 .4189028 .8514082
.9999999 .4183238 .8506373
0 .5647943 .8506694
.02649829 .564333 .8507611
.2901708 .5633773 .8510047
.45981 .5623738 .8511412
.6072423 .5618327 .8510947
.7367749 .5614628 .8513287
.8502185 .5604866 .8512371
.9470558 .5593708 .850724
.9999999 .5600688 .8499268
0 .688159 .85105
.03628905 .6882122 .8509735
.2883288 .688648 .850678
.457319 .6881862 .850663
.6071303 .6866944 .8510542
.7367424 .6865554 .851173
.8495254 .6870851 .850663
.9453525 .686967 .8497924
.9999999 .6880693 .8489636
0 .7991558 .8505765
.03843318 .7990821 .8505482
.2904961 .7989759 .8505758
.4592416 .7989158 .8505042
.6067206 .7984672 .850323
.7370215 .7973774 .850291
.849378 .7977525 .8498189
.9426757 .7980787 .8493715
.9999999 .7982247 .8490779
0 .895542 .8498469
.00804977 .8954624 .8497066
.2865276 .8951991 .8496376
.4574031 .8948165 .8496712
.6063117 .8944433 .8497238
.7378651 .8935366 .849638
.8475787 .8941972 .8500876
.9421012 .8943487 .8507146
.9999999 .8933029 .8499194
0 .9769157 .8490229
0 .9767509 .8490487
.2834842 .9763363 .8493212
.4578006 .9759873 .8492215
.6082552 .9758449 .8485306
.7358173 .9756644 .8474488
.846939 .9746531 .849369
.9420924 .974089 .84938
.9999999 .9737423 .8477125
0 0 .9436108
.1248685 0 .9437159
.3077983 0 .9439797
.4658278 0 .9443882
.6069677 0 .9444243
.7373988 0 .9445878
.8496021 0 .9448972
.9437773 0 .9446943
.9999999 0 .9440165
0 .1091361 .9437361
.1162547 .1057923 .9438324
.3051441 .1007347 .9440426
.4648585 .09538839 .9444013
.6067897 .08799859 .9444334
.736632 .08219988 .944591
.8490958 .0705209 .9448754
.9439125 .05573767 .9448402
.9999999 .04927353 .9441192
0 .2789101 .943949
.0990443 .2785337 .9440008
.3005013 .2776565 .944143
.4622108 .2759787 .9443893
.6066454 .2741718 .9444653
.7350909 .2716298 .9446935
.8483552 .2685021 .9451436
.9442019 .2645571 .9452187
.9999999 .263093 .9446574
0 .4248406 .9441262
.05132178 .4248337 .944251
.2906188 .4241287 .9444854
.4563973 .4229793 .9446741
.6053697 .4219994 .9446009
.7336469 .4209878 .9447657
.8482104 .4214027 .9449956
.9445481 .4193218 .9450623
.9999999 .4187573 .9452012
0 .5616044 .944243
.0237739 .5613488 .9442225
.2893183 .5608488 .944186
.4565075 .5600324 .9440261
.6061993 .5603424 .9441603
.7340117 .5605208 .9441358
.8480819 .5605515 .9446191
.9443849 .5593356 .9448766
.9999999 .558925 .9448574
0 .6861291 .9443102
.00757771 .6862368 .9442793
.2825733 .6861414 .9441509
.4565371 .6852992 .9439124
.6060639 .6851006 .9436361
.7356941 .6856857 .9439812
.8478357 .6854305 .9448143
.9441169 .6844622 .9450992
.9999999 .6842978 .9451614
0 .7972666 .9445392
0 .7973961 .9444742
.2814108 .7977505 .9443099
.4533211 .7978742 .9441861
.6039951 .7968157 .9444103
.7357816 .7962587 .9445133
.8475183 .7966072 .9443905
.9429218 .7965231 .944666
.9999999 .7962569 .944548
0 .8937309 .9446603
.00337377 .8936177 .9446447
.2868218 .8932856 .9447205
.4582868 .8931645 .9446324
.6048355 .8935713 .9447485
.7335129 .893252 .9446096
.8463702 .8923749 .9440285
.9427636 .8929067 .9432208
.9999999 .8932251 .9425496
0 .9763609 .9436104
0 .9762886 .943466
.284207 .9761062 .9431603
.4562951 .9758607 .9430507
.6065086 .9754626 .9431011
.7337137 .9755523 .9429188
.8476403 .9746605 .9425971
.941665 .9746645 .9430058
.9999999 .9743463 .9444947
0 0 .9999999
.1275643 0 .9999999
.3085802 0 .9999999
.4660861 0 .9999999
.6080546 0 .9999999
.7349384 0 .9999999
.8473246 0 .9999999
.9428138 0 .9999999
.9999999 0 .9999999
0 .1063706 .9999999
.1190233 .1042422 .9999999
.3059744 .1002413 .9999999
.4650302 .0967572 .9999999
.6078995 .08929697 .9999999
.7346766 .07948213 .9999999
.8472878 .0715734 .9999999
.9429275 .06014892 .9999999
.9999999 .05641886 .9999999
0 .2784415 .9999999
.1007279 .2785892 .9999999
.3008999 .2785861 .9999999
.4631742 .2771996 .9999999
.6076298 .274921 .9999999
.7338954 .2718669 .9999999
.8466111 .2694669 .9999999
.9430339 .2669688 .9999999
.9999999 .2653686 .9999999
0 .4240327 .9999999
.04411396 .423989 .9999999
.2900243 .42353 .9999999
.4578989 .4237669 .9999999
.606151 .4235441 .9999999
.7332321 .4235305 .9999999
.8462279 .4222116 .9999999
.9431599 .421164 .9999999
.9999999 .4201934 .9999999
0 .5606228 .9999999
.02660206 .5597896 .9999999
.2839243 .5579199 .9999999
.4549984 .5583972 .9999999
.6051762 .560266 .9999999
.7336771 .5607919 .9999999
.8464487 .5616111 .9999999
.9428422 .5608852 .9999999
.9999999 .5596737 .9999999
0 .6847869 .9999999
.04683334 .6848715 .9999999
.2876951 .6851111 .9999999
.4548776 .6848595 .9999999
.6012116 .6827129 .9999999
.734218 .6845126 .9999999
.8453728 .6850574 .9999999
.9418859 .6842799 .9999999
.9999999 .6840335 .9999999
0 .7955263 .9999999
.02162457 .7955186 .9999999
.2860429 .7955355 .9999999
.4559878 .7954786 .9999999
.6054311 .7951309 .9999999
.7335541 .7954176 .9999999
.844748 .7962359 .9999999
.939485 .7957436 .9999999
.9999999 .7946506 .9999999
0 .8906857 .9999999
.04687482 .8908355 .9999999
.29299 .8908558 .9999999
.4604928 .8907449 .9999999
.6064048 .8908374 .9999999
.7345276 .890686 .9999999
.8462505 .8910629 .9999999
.9398106 .8922097 .9999999
.9999999 .8924701 .9999999
0 .9734704 .9999999
.02544422 .9733579 .9999999
.2923872 .9732065 .9999999
.4624387 .9728959 .9999999
.6075153 .9725037 .9999999
.7351662 .9724509 .9999999
.8488188 .972145 .9999999
.945211 .9723276 .9999999
.9999999 .9748482 .9999999
