luts/Timeless_48.cube
# 3D LUT of size 33x33x33 converted by Filestar.
#   Input:
#     color space: sRGB
#     white point: default (D65)
#     transfer function: default (sRGB)
#   Output:
#     color space: sRGB
#     white point: default (D65)
#     transfer function: default (sRGB)
#   Exposure: +0.25
#   Contrast: -75
#   Whites: -26
#   Blacks: -7
#   Vibrance: +30
LUT_3D_SIZE 5
.04933187 .00927692 .02482021
.2688046 0 .01057658
.5419523 0 0
.7789531 0 0
.9860745 0 0
0 .2752661 0
.276718 .2754317 0
.5399445 .2639152 0
.7766554 .2570719 0
.9849893 .2405502 0
0 .5374242 0
.2505181 .5367278 0
.5363249 .5335122 0
.7747933 .5273691 0
.9811382 .5191348 0
0 .7735332 0
.1929012 .7734608 0
.5181828 .7723661 0
.7686114 .7687517 0
.9794734 .7641229 0
0 .9833712 0
0 .9833609 0
.4818664 .9842646 0
.7609906 .983112 0
.9844733 .9857855 0
.0043766 0 .2767047
.2767984 0 .2787739
.5452099 0 .2650424
.7808095 0 .2555682
.9877678 0 .2344925
0 .2730068 .2751665
.2702031 .2675069 .2717213
.5376334 .2595926 .2665896
.778222 .2448801 .2480262
.9880939 .2194368 .2247241
0 .5381059 .2277847
.2220937 .5375792 .2228418
.5341496 .5354583 .2252575
.7785196 .5222912 .2240437
.9837536 .515433 .2074606
0 .7755309 .1453592
.129474 .7754334 .1314159
.5087926 .7729315 .1344798
.7698067 .7709169 .1439585
.984958 .7631201 .1147294
0 .986306 0
0 .9862406 0
.4655573 .9859156 0
.7550827 .9862742 0
.9861936 .9868135 0
0 0 .5408461
.259812 0 .5411658
.5405464 0 .5413195
.7818791 0 .5325868
.9902766 0 .5170752
0 .2402536 .5410392
.2385234 .2312897 .5412071
.5383292 .2226615 .5406204
.783038 .214386 .5273032
.990907 .173185 .5127049
0 .5353435 .5354393
.1764088 .5343038 .5346521
.5247591 .5213826 .5262892
.7712713 .5164777 .5173191
.987568 .5011526 .5041679
0 .7778673 .4892128
0 .7771881 .4824424
.4683908 .7748385 .4736005
.7703056 .7711288 .469025
.9914555 .757795 .4604534
0 .9890833 .4254642
0 .9894605 .4213011
.4108012 .9904864 .4109199
.7436491 .988723 .4144315
.9896962 .9897047 .4194595
0 0 .7786745
.2402616 0 .7786915
.5240808 0 .7781972
.7748192 0 .7771484
.989022 0 .771328
0 .2092339 .7787999
.1994282 .1954702 .7792175
.5143058 .1690201 .7794659
.7768207 .1506854 .7778918
.9932953 .08565094 .7709232
0 .4985998 .7784018
0 .4928028 .7785522
.4802731 .4781151 .7787926
.7747504 .4764379 .7766379
.9963768 .4705675 .7635443
0 .77181 .7718813
0 .7714968 .7716731
.4481041 .7695938 .7692934
.7633587 .7591256 .7625148
.9847065 .7547384 .7576812
0 .9914189 .7411964
0 .9915848 .7389097
.3546028 .9910802 .7328186
.7237386 .9919832 .7253228
.9926448 .9933494 .7294516
0 0 .9859161
.2032722 0 .9857802
.5090609 0 .9857768
.7652181 0 .9851888
.9839625 0 .9844323
0 .1414484 .986337
.1532656 .1123569 .9865823
.4920915 .04336828 .986369
.7588035 0 .9871035
.9852733 0 .9868149
0 .4610332 .9880647
0 .452786 .9886855
.4397536 .4345211 .9894385
.7455121 .4220116 .9906604
.9882761 .4178561 .9907156
0 .7402168 .9891561
0 .7381639 .9894019
.371571 .7310371 .9893889
.7252354 .7244633 .9905247
.9906066 .7251998 .991309
0 .9908554 .9913335
0 .9914024 .9916279
.3449464 .9929298 .9924758
.725327 .9935494 .9935008
.9999999 .9982277 .9996623
