luts/Timeless 41.cube
# 3D LUT of size 33x33x33 converted by Filestar.
#   Input:
#     color space: sRGB
#     white point: default (D65)
#     transfer function: default (sRGB)
#   Output:
#     color space: sRGB
#     white point: default (D65)
#     transfer function: default (sRGB)
#   Exposure: +0.71
#   Contrast: +30
#   Whites: +10
#   Blacks: -26
#   Vibrance: +7
LUT_3D_SIZE 9
.03294239 .00200158 .01874008
.1753677 0 0
.3634503 0 0
.5287941 0 0
.673799 0 0
.8013121 0 0
.9057274 0 0
.9890177 0 0
.9999999 0 0
0 .1347742 0
.1818433 .1377607 0
.3659055 .1334869 0
.5302583 .131179 0
.6749479 .1336848 0
.8020512 .1281179 0
.9057706 .1162001 0
.9891773 .1114554 0
.9999999 .1102641 0
0 .2912462 0
.1893508 .2908558 0
.3669096 .2920088 0
.5318194 .2930188 0
.6766837 .2941602 0
.8031471 .2943395 0
.9061871 .2923842 0
.9893578 .2906669 0
.9999999 .2903874 0
0 .4366592 0
.1932826 .4375853 0
.3697217 .438364 0
.5333 .4388958 0
.6791512 .4401143 0
.8044897 .4407846 0
.9074832 .4399478 0
.9899303 .4384595 0
.9999999 .4383297 0
0 .5720497 0
.1777766 .5722147 0
.3670019 .5727566 0
.5339834 .5731248 0
.6810439 .5740966 0
.8054506 .5747063 0
.9074735 .5748252 0
.9913793 .5733076 0
.9999999 .5720318 0
0 .6923453 0
.1691503 .6923673 0
.3680418 .6924592 0
.5359384 .6926274 0
.6829909 .6923004 0
.8052587 .693399 0
.9078538 .6924885 0
.9911322 .6922354 0
.9999999 .6919452 0
0 .7962279 0
.1579662 .7961102 0
.3655023 .795714 0
.5367673 .7953102 0
.6845459 .7949049 0
.8064724 .7949846 0
.9082525 .7950525 0
.9906762 .7944608 0
.9999999 .7938708 0
0 .8836024 0
.154979 .8835793 0
.3638469 .8835026 0
.5361356 .8834726 0
.6821827 .8836749 0
.8069644 .8825374 0
.9079707 .8819057 0
.9902138 .8815195 0
.9999999 .8817295 0
0 .957146 0
.142182 .9569964 0
.3592946 .9566467 0
.5331121 .9565092 0
.6816799 .9564763 0
.804446 .9562441 0
.9082293 .9548447 0
.9891805 .9544984 0
.9999999 .954189 0
0 .01205129 .1584989
.1779255 0 .1591255
.3663073 0 .1591828
.5310324 0 .1570793
.6753418 0 .1552152
.8024228 0 .150732
.9064667 0 .1462845
.9894343 0 .1415267
.9999999 0 .1395547
0 .1338825 .1628312
.1840652 .1366337 .1608962
.3679355 .1306998 .1566808
.5315226 .1253278 .1537402
.6757404 .1253266 .1521791
.8031145 .1184225 .1479876
.9066481 .1078641 .144546
.9897198 .1020418 .1389191
.9999999 .1009656 .1369092
0 .2921063 .1575965
.1912783 .291778 .1548788
.3687312 .292542 .1564532
.5332909 .2899928 .1545862
.6780434 .2914958 .1461913
.8042194 .2912115 .1430716
.906845 .2890344 .139566
.9900078 .2874217 .1326103
.9999999 .2870793 .1310805
0 .4372742 .1483212
.1864179 .4377231 .1450609
.3701646 .4385949 .1454467
.5343062 .4389023 .1446196
.6801723 .4381903 .1459903
.8052425 .4385864 .139993
.9081619 .4378279 .1337851
.9905706 .436878 .1270933
.9999999 .4368097 .1258199
0 .5726584 .1298749
.1686438 .5729223 .1283201
.3658158 .57346 .1282229
.5345662 .5737678 .1320591
.6822634 .5740167 .1330361
.806466 .5736455 .1302209
.9082019 .5731968 .1253134
.9918603 .5713816 .1220144
.9999999 .5706218 .1221437
0 .6928946 .115578
.1611688 .6928398 .1132703
.3625296 .6931897 .1097925
.535138 .693221 .1141531
.6837832 .6923956 .1188343
.8062161 .6932232 .1106318
.9088402 .6920539 .1014019
.9914299 .6917482 .1014772
.9999999 .6915809 .09941415
0 .7965691 .1008966
.1482074 .7963435 .09816695
.3621494 .7960187 .09804177
.5345283 .7959628 .09191967
.6844345 .795338 .09828112
.8072972 .794918 .09830687
.9084958 .7951601 .09325289
.9914723 .7942502 .09040796
.9999999 .7935534 .08801436
0 .8836771 .07050715
.1415606 .8836198 .07177285
.3595735 .8837999 .08035675
.533154 .8841044 .07330953
.6809532 .8841264 .07690392
.8071035 .8826881 .08581343
.9087375 .8817806 .08770006
.990634 .8815547 .08533343
.9999999 .8815875 .08538114
0 .957428 .05600754
.1300725 .9572458 .05342924
.3553525 .9569381 .06324901
.5315127 .9566479 .06615677
.6803269 .9569047 .06282087
.8037141 .9563871 .06749763
.9090643 .9547651 .07574303
.9900442 .9543212 .07141521
.9999999 .9539617 .07169845
0 0 .3288283
.1818053 0 .3306431
.3649884 0 .3315509
.5337986 0 .3319815
.6765646 0 .3319928
.8038782 0 .3311221
.9075006 0 .3291166
.9903061 0 .3271606
.9999999 0 .3265416
0 .131884 .3313922
.1794126 .1295376 .33304
.3681955 .1238065 .3325044
.5336059 .117252 .3312293
.677259 .110713 .3319519
.8043235 .1009422 .3304518
.9076764 .08829165 .3285388
.990667 .08083358 .3261929
.9999999 .07943795 .3252389
0 .2903538 .3338926
.1808551 .2905905 .3342383
.3711978 .2892071 .3324875
.5330756 .2889433 .3311324
.6782241 .2889987 .3316815
.8054054 .2850519 .3299783
.9083225 .2815082 .3269825
.991423 .2798065 .32372
.9999999 .2793029 .3227296
0 .4389741 .3303342
.1678244 .4386542 .3294485
.3685125 .438102 .32917
.5342771 .4388516 .3278925
.6810682 .437288 .329748
.8065411 .4358229 .327985
.9095989 .4343211 .3250743
.9918295 .4335872 .3223223
.9999999 .4334274 .3217573
0 .5729618 .3247716
.1547375 .5731848 .324645
.3616261 .5740514 .3242883
.5334544 .57441 .3246488
.6824806 .5736912 .3243186
.8067933 .5726419 .3241464
.9099408 .5703835 .3220611
.9930779 .5690185 .3201372
.9999999 .5689188 .3200516
0 .6929191 .3188659
.1333771 .6934259 .3185978
.3545082 .6940376 .3164543
.5340239 .6937397 .3166536
.6835673 .6931667 .3150406
.8081219 .6927688 .3128934
.9104742 .6919269 .3095973
.99288 .6907058 .3154246
.9999999 .6900021 .3163152
0 .7967631 .3108065
.1122803 .7967676 .3108934
.3524234 .796627 .3092841
.5301856 .7964303 .3084905
.6823846 .7964954 .3067198
.8073159 .795703 .3075551
.9104047 .795306 .306601
.9928471 .7943299 .3060592
.9999999 .7939309 .3065164
0 .8842804 .3050405
.1018265 .8844564 .3050993
.3476465 .8845686 .3038618
.5284846 .884805 .3044354
.6797055 .8849941 .3010066
.8068998 .8838766 .3024211
.9101857 .8822466 .3038637
.9923756 .8813577 .3043373
.9999999 .8811012 .3051037
0 .9577419 .302669
.09381134 .9578152 .3019211
.3436072 .9577193 .300668
.5256562 .9572404 .3008671
.6775138 .9573708 .2989912
.8020984 .9573924 .2971486
.9089113 .955398 .2997987
.990624 .95441 .2989372
.9999999 .9539159 .2985362
0 0 .4878629
.1809488 0 .4883885
.368047 0 .4894708
.5319706 0 .4898679
.6774082 0 .4911472
.804988 0 .4903969
.9081053 0 .4881678
.9912594 0 .4869143
.9999999 0 .4864727
0 .1247932 .4893054
.1746646 .1207482 .4898589
.3689196 .1102446 .4911851
.5319533 .1130429 .490967
.6786106 .1046933 .4906038
.8059122 .08465935 .4893768
.908741 .0703002 .4873224
.9917639 .04929275 .4860618
.9999999 .04441357 .4856827
0 .2887998 .490009
.1664897 .2876718 .4904644
.3628917 .2838133 .4914287
.5352092 .2837643 .4906321
.6802312 .2844619 .4895332
.8065985 .2794918 .4880063
.9098658 .2738948 .4863662
.9922099 .2732634 .4859841
.9999999 .273139 .4855289
0 .4383861 .4905663
.1562535 .437595 .4903116
.3598491 .4364289 .4903097
.5363402 .4341513 .4892207
.6810498 .4366039 .4886305
.8061565 .4345113 .4882089
.909453 .4323058 .486093
.992047 .4311072 .4849789
.9999999 .4304713 .4847441
0 .5732128 .4881104
.1280569 .5734829 .4874202
.3539669 .573893 .485754
.5338562 .5735846 .4849364
.683135 .571627 .4863476
.8072367 .571019 .4852775
.9097128 .5693938 .4843276
.9933475 .5680801 .4838191
.9999999 .5680113 .4838448
0 .6926106 .4833947
.1093483 .6926047 .4823002
.3492301 .6926757 .4811265
.5331338 .6930467 .4795213
.6849356 .6926861 .4789689
.808953 .6913866 .4793611
.910378 .6902385 .4819634
.9921073 .68954 .4838074
.9999999 .6892243 .4837785
0 .7964316 .477515
.09365969 .7961949 .4772699
.3481568 .7959707 .4761238
.5293264 .7961479 .4750865
.681582 .7959759 .4748753
.8077664 .795957 .4750186
.910022 .7957138 .4759948
.9933748 .7938218 .4760107
.9999999 .7934529 .4759457
0 .884014 .4756658
.08391657 .8839055 .4749668
.3431151 .8840614 .4747549
.5257698 .8843479 .4734288
.6793467 .8841056 .4740831
.8073395 .8838536 .4735251
.9100738 .8829439 .473577
.9921882 .881605 .4742414
.9999999 .8811994 .4746357
0 .9569824 .4735508
.06576317 .9569007 .4733069
.3409614 .9570531 .4733128
.5230361 .9571297 .4729459
.6757379 .9567137 .4752417
.8020903 .9568774 .4730725
.9075472 .9561086 .4715307
.9903436 .9546116 .4692469
.9999999 .9538346 .4685941
0 0 .6299796
.1790344 0 .6303573
.3685832 0 .6306672
.5347257 0 .6308464
.6795964 0 .6311404
.8058779 0 .6318552
.9095275 0 .6323087
.9918265 0 .6318567
.9999999 0 .6315893
0 .1160393 .6305116
.1680615 .1096748 .6308309
.3665017 .1008229 .6315035
.5343205 .09839357 .6315172
.6799499 .09806173 .6316383
.8067938 .07994746 .6322834
.9099874 .04661478 .6322572
.992384 .02933009 .6315349
.9999999 .0285928 .6312513
0 .2857226 .6312122
.1536072 .2842079 .6315805
.363613 .2797211 .6318153
.533418 .2777309 .6322951
.6810938 .2792356 .6327659
.8081648 .2762801 .6323908
.9110199 .2705044 .6315961
.9933098 .268216 .630675
.9999999 .267979 .6300654
0 .4344135 .6321264
.1378633 .4337237 .6321484
.3537519 .4320279 .6321765
.5316269 .4305115 .6321061
.6867232 .4284244 .6323182
.8101878 .4283796 .6307703
.910925 .4291199 .6305359
.9922631 .4301956 .6291232
.9999999 .4299317 .6286338
0 .5716972 .6320553
.1146463 .5715785 .6319113
.3478631 .5706155 .6319155
.5307855 .5703163 .63158
.6857086 .5684869 .6305723
.8070321 .569976 .6304695
.9080047 .5703846 .6304746
.9907694 .568997 .6289263
.9999999 .5683962 .6289396
0 .6933249 .6309868
.07488676 .6934496 .6308756
.3416738 .6934941 .6300821
.5272465 .6927245 .6293144
.6837083 .6923443 .6277251
.8066666 .6909862 .6295643
.9082769 .6901234 .6293598
.991006 .689436 .6287135
.9999999 .6894253 .6285483
0 .7975194 .6279432
.0611379 .7975453 .6273701
.3384701 .797101 .6271436
.5260105 .7961075 .6258246
.6832617 .7954699 .6247604
.8083291 .7953058 .6241155
.9115053 .793954 .6229345
.9914355 .793457 .6267988
.9999999 .7933838 .6276491
0 .8847886 .6248053
.0372353 .8846429 .6243856
.3327956 .8843367 .6238301
.5216712 .8837387 .6228685
.6782507 .8835828 .6221571
.8059768 .8829411 .6220612
.9082913 .8831019 .6215212
.9922464 .8809261 .6214721
.9999999 .8801534 .6211894
0 .9576942 .6226053
.0075958 .9574962 .6221645
.33121 .9570047 .6213839
.5190457 .9565666 .6204526
.6742635 .9564402 .6207746
.8010276 .9559863 .6220424
.9066895 .955784 .620797
.9891574 .9553514 .6179214
.9999999 .9545335 .6178865
0 0 .7535395
.1687393 0 .7538152
.3669158 0 .7542847
.5335705 0 .7543571
.6835282 0 .7547225
.8069143 0 .7548243
.9096159 0 .7547404
.9920428 0 .7546059
.9999999 0 .7543959
0 .102219 .7539583
.1592288 .09961801 .7540805
.3634306 .08567215 .7545748
.5327604 .07446989 .7544926
.6838964 .06602782 .7549865
.8070534 .05951716 .7552235
.9105921 .04367955 .7551293
.9925615 .02607782 .7547882
.9999999 .02390279 .7544103
0 .2837641 .7543733
.144628 .2822157 .7544319
.3602081 .2754334 .754913
.5318676 .2728261 .7549674
.6828641 .2709012 .7558348
.8081596 .26838 .7563708
.9126828 .2637549 .7556916
.9930094 .2655438 .7537691
.9999999 .2655458 .7533064
0 .4339796 .7551019
.1171944 .4327207 .7550399
.3484416 .429543 .7553267
.5285633 .4271435 .755768
.6828105 .4242944 .7564973
.8102835 .4222901 .7564654
.9127692 .4222663 .7550502
.9934236 .4257705 .7526723
.9999999 .4259769 .7523037
0 .5693961 .7560129
.07356545 .5689992 .7559256
.3408448 .5680268 .7555405
.5265849 .5659741 .7557566
.6813359 .564669 .7562028
.8096912 .5645403 .7552405
.9109972 .5667995 .7528384
.9924601 .5664958 .7525584
.9999999 .5664157 .7523233
0 .691225 .7552471
.05076457 .6910864 .7553481
.3403577 .691004 .7552425
.5267372 .6905559 .7549287
.6809359 .6887113 .7545722
.8068916 .6895826 .7535957
.9079213 .6897408 .7526497
.9895211 .6895285 .7524744
.9999999 .6895438 .7522113
0 .7971689 .7546317
.05774786 .7969723 .7546561
.3380359 .7968991 .7542301
.5236804 .7963389 .7538009
.6792405 .7947366 .7528101
.8059703 .794524 .7523808
.9072853 .7943109 .7526166
.9891176 .7937584 .7524102
.9999999 .793622 .7524367
0 .8849566 .7524765
.02481063 .8847101 .7522808
.3362177 .8841498 .7515308
.5222539 .8832871 .7508116
.6794343 .8821354 .7506971
.8042 .8827106 .7508628
.9087965 .8817413 .7498454
.9917468 .8809692 .7481364
.9999999 .8805637 .7493621
0 .9573365 .7497051
.01377348 .9572926 .7493281
.3323946 .9574847 .7484548
.5177003 .9574572 .7477977
.675178 .9563183 .7484187
.8023667 .9558278 .7486947
.9045828 .9555455 .7486433
.9881721 .9542578 .747224
.9999999 .9535601 .7467845
0 0 .8572258
.1644635 0 .857416
.3637687 0 .8579494
.5312277 0 .8582625
.6818594 0 .8585299
.807477 0 .8589998
.9085103 0 .8585128
.9922894 0 .857785
.9999999 0 .8578085
0 .09381939 .8574955
.1555069 .08773407 .8577016
.3608491 .07410253 .8581598
.5304662 .06111113 .8584856
.6809912 .04923561 .8586311
.8074407 .0326631 .859189
.908769 .02507922 .8586817
.9926304 0 .8580307
.9999999 0 .8580731
0 .2771365 .8579563
.1427948 .2760864 .8580647
.3557756 .2732363 .8584709
.5284436 .2718977 .8587514
.6786959 .2694655 .8591117
.8065186 .2651427 .8596158
.9098979 .2618625 .8591539
.9934402 .2552481 .8584726
.9999999 .254256 .8581932
0 .4287135 .8582057
.1059064 .427263 .8583958
.3472359 .4262342 .8586048
.5255598 .4240758 .8588052
.677657 .422606 .8592068
.8058326 .4215293 .859762
.9102735 .419546 .858929
.9947156 .4168741 .858291
.9999999 .4175251 .8579197
0 .5671799 .8584775
.03891852 .5663607 .8585059
.3368944 .5642688 .8585976
.5241644 .5630757 .8583558
.6769962 .5632103 .8584212
.8055027 .5616646 .8594194
.9105957 .5604815 .8587112
.9941608 .5601609 .8578619
.9999999 .5611234 .8572123
0 .6879026 .8585097
.0203208 .6878502 .8584226
.3333245 .687752 .8581822
.5217138 .6865797 .8580522
.6777978 .6853183 .8580641
.805388 .6864412 .8580236
.9098722 .6861016 .8577194
.9910279 .6875173 .8565131
.9999999 .6875773 .8561594
0 .7937976 .8579092
.05381882 .7937056 .8579224
.337381 .7937431 .8578888
.522492 .7935852 .857576
.676266 .7927721 .8573776
.80459 .7923819 .857199
.9076701 .792801 .8568093
.9887306 .7931164 .8563628
.9999999 .7932605 .8560096
0 .8844183 .8575384
.01979714 .8842562 .857445
.3344761 .883863 .8570791
.5222315 .8833773 .8567241
.6764485 .8828856 .8566757
.8033748 .8824679 .8566348
.9060428 .8823496 .8568623
.9869977 .8813292 .8567194
.9999999 .8809099 .8564653
0 .9580987 .8557689
0 .9578479 .8556305
.3329393 .9572803 .8556582
.5215978 .9568171 .8558334
.6766866 .9562684 .8555012
.8034664 .9551694 .8545547
.9053561 .9544045 .8550465
.9872003 .9538025 .8540326
.9999999 .953445 .853237
0 0 .9421777
.163945 0 .9419915
.3621326 0 .9420245
.5299402 0 .9423828
.6787215 0 .9426621
.804948 0 .9430485
.9077143 0 .9434095
.9892623 0 .9429228
.9999999 0 .9426414
0 .08752688 .9419473
.1553598 .08391062 .9419722
.3582977 .07310198 .9421879
.5287316 .05582012 .9424832
.6776459 .04244485 .9426827
.8039935 .0202888 .9431201
.907836 .00656239 .9437491
.9897566 0 .943114
.9999999 0 .9428351
0 .2754838 .9422498
.1369479 .2742675 .942361
.3502187 .2724152 .9425331
.5253155 .2692582 .9426026
.6759327 .2669624 .9428676
.8024036 .2616487 .9434997
.908079 .2587014 .9441938
.9906122 .2573463 .9435403
.9999999 .2575331 .9432954
0 .4234502 .9425148
.0781827 .4232049 .9426411
.3380759 .4225197 .9427692
.5214076 .4212924 .9426454
.6750542 .42093 .94289
.8017869 .4201235 .9440655
.9078841 .4196452 .9442161
.9911733 .4193396 .9436042
.9999999 .4190929 .9439399
0 .5627841 .9423087
.05063756 .5623332 .9423027
.3346954 .5612147 .9422981
.5215089 .560767 .9422398
.6752632 .561049 .9425005
.8030581 .5603961 .9435167
.9079652 .5605769 .9437028
.9911264 .5598943 .9431574
.9999999 .5598176 .9433503
0 .6857607 .9425077
.01366779 .6858745 .9424621
.3337934 .6850839 .9422252
.5217538 .6840312 .9417533
.6754494 .6838191 .9416472
.8029781 .6843148 .9423798
.9081646 .6838931 .9434675
.9907243 .682606 .9435891
.9999999 .6823528 .943481
0 .7913745 .94291
.01219595 .7916643 .9427071
.3304227 .7922783 .9424643
.5188016 .791374 .9421846
.6746088 .7905364 .9421235
.8032287 .7905386 .9419865
.9065892 .7905604 .9421452
.9898869 .7902188 .9425188
.9999999 .7903665 .9423268
0 .8819129 .9428051
.01188329 .8817275 .9427843
.3308593 .8816899 .9425789
.5185208 .8812022 .9423785
.6726155 .8808643 .9420824
.8014631 .8797478 .9412612
.9057273 .8797384 .9410284
.9880239 .8802664 .9404351
.9999999 .8804826 .9400647
0 .956603 .9420495
0 .9565962 .9418612
.329332 .956464 .9413636
.518286 .956548 .9406801
.6730291 .956093 .9404368
.801781 .9553366 .9406146
.9050698 .9547704 .9401363
.9858385 .9546557 .9408853
.9999999 .9538459 .9414325
0 0 .9999999
.1644467 0 .9999999
.3595506 0 .9999999
.5313386 0 .9999999
.6766287 0 .9999999
.8017923 0 .9999999
.9056064 0 .9999999
.9884949 0 .9999999
.9999999 0 .9999999
0 .08041943 .9999999
.1537724 .07638576 .9999999
.3562908 .06753573 .9999999
.5302051 .05812296 .9999999
.6762343 .0476809 .9999999
.8015608 .02310778 .9999999
.9058222 .00915582 .9999999
.9887057 0 .9999999
.9999999 0 .9999999
0 .2730401 .9999999
.1358535 .272121 .9999999
.3515114 .2711308 .9999999
.5279248 .2694293 .9999999
.6756259 .2680789 .9999999
.8008626 .2642533 .9999999
.9054559 .2585025 .9999999
.9890007 .2557986 .9999999
.9999999 .2553641 .9999999
0 .4221646 .9999999
.07569756 .4224421 .9999999
.3369499 .4222822 .9999999
.5220486 .4227455 .9999999
.6746609 .4219328 .9999999
.8000444 .4213202 .9999999
.905188 .4190252 .9999999
.9887663 .4191979 .9999999
.9999999 .4191565 .9999999
0 .5610746 .9999999
.0284703 .5599453 .9999999
.3287223 .5583631 .9999999
.5189018 .5600045 .9999999
.6741127 .5605722 .9999999
.8010703 .5607232 .9999999
.9057374 .5598965 .9999999
.9880117 .5592564 .9999999
.9999999 .5590128 .9999999
0 .6833646 .9999999
.07180458 .6830838 .9999999
.3385418 .683242 .9999999
.5181176 .6818105 .9999999
.6718689 .6823861 .9999999
.7992464 .6842904 .9999999
.9049463 .6825165 .9999999
.9872314 .6816501 .9999999
.9999999 .6816067 .9999999
0 .7890019 .9999999
.05926969 .7890202 .9999999
.3355161 .7891928 .9999999
.5210078 .7888546 .9999999
.6734189 .7889221 .9999999
.7998505 .7887421 .9999999
.9019903 .7886709 .9999999
.9867772 .7883283 .9999999
.9999999 .7879751 .9999999
0 .8780039 .9999999
.05699942 .8780977 .9999999
.3371296 .8779111 .9999999
.5208031 .8774986 .9999999
.6738117 .8769441 .9999999
.8016767 .8769518 .9999999
.9021173 .8793001 .9999999
.9855393 .8799183 .9999999
.9999999 .880456 .9999999
0 .9530143 .9999999
.03320714 .9528738 .9999999
.3382716 .952594 .9999999
.5244032 .9517298 .9999999
.6741334 .9516403 .9999999
.8028756 .9508979 .9999999
.9072602 .9508814 .9999999
.9841006 .954444 .9999999
.9999999 .954958 .9999999
