luts/Timeless_29.cube
# 3D LUT of size 33x33x33 converted by Filestar.
#   Input:
#     color space: sRGB
#     white point: default (D65)
#     transfer function: default (sRGB)
#   Output:
#     color space: sRGB
#     white point: default (D65)
#     transfer function: default (sRGB)
#   Exposure: +0.53999996
#   Contrast: +23
#   Whites: +8
#   Blacks: -20
#   Vibrance: +5
LUT_3D_SIZE 33
0 .00158175 .00933342
0 .00564577 .00379735
0 .00787305 0
.07592984 0 .00417099
.1267272 0 .00392474
.1700627 0 .00407821
.2107102 0 .00232889
.2515485 0 0
.2915064 0 0
.3301305 0 0
.3678833 0 0
.4053451 0 0
.4414453 0 0
.4765117 0 0
.5112106 0 0
.5454376 0 0
.5791765 0 0
.6119965 0 0
.6439323 0 0
.6750091 0 0
.7053576 0 0
.7347593 0 0
.7634077 0 0
.7907718 0 0
.8171429 0 0
.8425466 0 0
.8671231 0 0
.8907043 0 0
.9132478 0 0
.9348584 0 0
.9556939 0 0
.9758144 0 0
.9953485 0 0
0 .02621239 .01057329
0 .03520882 .00354982
0 .04039363 .00138568
.07125605 .02997087 .00566135
.1226121 .02336006 .00435911
.1685507 .01617873 .00417691
.2116691 .01659038 0
.2527951 .01784957 0
.2921014 .02195652 0
.330441 .0273327 0
.3686283 .03040664 0
.4057451 .03082386 0
.4417527 .030471 0
.4767909 .03055217 0
.5116842 .0270953 0
.5458745 .02376412 0
.5795805 .01783292 0
.6123748 .008889 0
.6443052 .0000772 0
.675173 0 0
.7054963 0 0
.7348853 0 0
.7635225 0 0
.7908525 0 0
.817195 0 0
.8425879 0 0
.8671443 0 0
.8907244 0 0
.9132748 0 0
.9349005 0 0
.9557466 0 0
.9758781 0 0
.9954107 0 0
0 .07208266 0
0 .07458449 0
0 .07438033 0
.06868884 .06999429 0
.1250089 .06598922 .00105064
.1705647 .06452707 0
.213656 .06507338 0
.2537548 .06838043 0
.2928221 .07226352 0
.3317038 .07422475 0
.3693891 .07518127 0
.4061656 .07562573 0
.442099 .07548032 0
.4773042 .07461216 0
.5122178 .07225464 0
.5463672 .07026496 0
.5800359 .06656259 0
.6128232 .06013761 0
.6445519 .05427692 0
.6753269 .04808487 0
.7056496 .04480276 0
.7349836 .04216737 0
.7636597 .04057687 0
.7909437 .03766976 0
.8172536 .03605867 0
.8426443 .03394291 0
.8671681 .03075933 0
.8907535 .02687654 0
.9133348 .01876736 0
.9349316 .01011143 0
.9558087 .00897239 0
.9759499 .00833707 0
.9954819 .0063823 0
0 .115924 0
0 .1154118 0
0 .1153925 0
.06852122 .1134492 0
.1281466 .1101082 0
.1732817 .1102095 0
.2149896 .1117359 0
.2549175 .1135615 0
.2941395 .1153714 0
.3327459 .115217 0
.370309 .1157011 0
.4067929 .1161385 0
.4425926 .1162135 0
.4781121 .1144708 0
.512978 .1130019 0
.5470691 .1118774 0
.5806849 .1097753 0
.613159 .1067712 0
.6446642 .1039537 0
.6755592 .1010157 0
.7057679 .1001626 0
.7351011 .09905574 0
.7637865 .09802967 0
.7910544 .09664161 0
.8173374 .0958999 0
.8427249 .09479829 0
.8672224 .09337854 0
.8908416 .09117603 0
.9133739 .08640432 0
.9349979 .08185323 0
.9559024 .08170301 0
.9760527 .08128136 0
.9955842 .08005071 0
0 .1555732 0
0 .1551702 0
.00599315 .1550372 0
.07160326 .1549192 0
.1323307 .153031 0
.1759163 .1533292 0
.2171208 .1536854 0
.2563567 .1542065 0
.2955821 .1546057 0
.3339676 .1547465 0
.3713988 .1546367 0
.4077179 .1550073 0
.4436703 .1544451 0
.4791717 .1529223 0
.51399 .1519386 0
.5476599 .1523436 0
.580752 .1518406 0
.6133209 .1496736 0
.6447738 .1482133 0
.6757424 .1470708 0
.7059465 .146438 0
.7352628 .1460079 0
.7639134 .1452083 0
.7911847 .1442216 0
.8174558 .143775 0
.8428862 .1428428 0
.867372 .141974 0
.8908755 .1406138 0
.9134108 .1376095 0
.9351269 .1352931 0
.9560278 .135198 0
.9761897 .1348968 0
.9957209 .1340793 0
0 .1938176 0
0 .1941269 0
.01755273 .1944134 0
.07699586 .1948361 0
.1366305 .192921 0
.1785716 .1928155 0
.219026 .1927691 0
.2581203 .1929703 0
.2968285 .1932134 0
.3356245 .1929354 0
.3727938 .1927678 0
.4092888 .1924394 0
.4450033 .1920753 0
.4798943 .1918297 0
.5143042 .1919685 0
.5479078 .1925463 0
.5809451 .1925041 0
.6134194 .1914789 0
.6448864 .1903228 0
.6759017 .1896065 0
.7061774 .1892598 0
.7355492 .1889909 0
.7640712 .1885915 0
.791419 .1876796 0
.8176512 .1877065 0
.8431132 .186588 0
.8675768 .1859772 0
.890949 .184984 0
.9134737 .1829295 0
.935283 .1819009 0
.9561861 .1818142 0
.9763661 .1815248 0
.995861 .1810498 0
0 .2308705 0
0 .2307558 0
.04102817 .23074 0
.09261594 .2309513 0
.1440294 .2297513 0
.1841659 .2296551 0
.2235687 .2293726 0
.2617612 .2296701 0
.2993096 .2304517 0
.3366671 .2309467 0
.3739428 .2308539 0
.4101219 .2308376 0
.4454806 .2310291 0
.4803024 .231315 0
.5145437 .231841 0
.5480589 .2324249 0
.5811202 .2324163 0
.6135305 .2318031 0
.6450384 .2309888 0
.6761798 .2305468 0
.7065166 .2301139 0
.7360164 .2298862 0
.7643421 .2295854 0
.7916151 .229564 0
.8179796 .2287955 0
.8433732 .2281912 0
.8677823 .2276361 0
.8911601 .226571 0
.9136834 .2261135 0
.9354731 .2253374 0
.9563792 .2252481 0
.9765467 .2250617 0
.9960403 .2244025 0
0 .2679657 0
0 .2677238 0
.04939917 .2674491 0
.1022683 .2672885 0
.1486046 .2669021 0
.1877334 .2671097 0
.2252023 .2674393 0
.2621075 .268516 0
.2990337 .2695726 0
.3371603 .2695169 0
.3742425 .2696371 0
.410294 .2701174 0
.445906 .2700846 0
.4807442 .2703647 0
.5148914 .2708265 0
.5482659 .2713976 0
.5813309 .2712801 0
.6135809 .271015 0
.6453873 .270478 0
.6766777 .2701648 0
.7070331 .269927 0
.7364331 .2697293 0
.7647045 .2694177 0
.7920182 .2691033 0
.8183794 .2687604 0
.8436418 .2686436 0
.8679754 .2677286 0
.8914121 .2668864 0
.9140402 .2673952 0
.9358222 .2665388 0
.9566311 .2665389 0
.9767504 .2666804 0
.9961627 .2665301 0
0 .305663 0
0 .3055612 0
.05555551 .3054439 0
.106428 .3053203 0
.1534287 .304965 0
.1893959 .3056329 0
.2262518 .3059182 0
.2631638 .306691 0
.3003028 .3073995 0
.3379044 .3074611 0
.3745303 .3076391 0
.410496 .308109 0
.4458773 .3084762 0
.4810621 .3088483 0
.5154219 .3089627 0
.5486345 .3092837 0
.5814847 .3093385 0
.6137673 .3096059 0
.6459358 .3093798 0
.6772329 .3092135 0
.7075511 .309018 0
.7367723 .3087518 0
.7650397 .3084929 0
.7923519 .3082411 0
.8187076 .3080281 0
.8439835 .3075767 0
.8682294 .3068729 0
.8918023 .3071751 0
.9144552 .307252 0
.9362035 .3065296 0
.9569669 .3068501 0
.9770847 .3068084 0
.9964144 .3064044 0
0 .3441585 0
0 .3442031 0
.05657366 .3441416 0
.1067187 .3439838 0
.1502233 .3439337 0
.1885154 .3442436 0
.2270309 .3443752 0
.2642604 .3447762 0
.3021428 .344761 0
.3398631 .3445171 0
.3767042 .3443201 0
.4125457 .3444865 0
.4465456 .3463783 0
.4813882 .3470226 0
.5155075 .3471888 0
.5492043 .3473912 0
.5821562 .3475685 0
.614465 .347706 0
.6465639 .3477062 0
.6778087 .3475364 0
.7079893 .347352 0
.7371302 .3471324 0
.7653813 .3469166 0
.7926781 .346698 0
.8189871 .3463343 0
.844272 .3457843 0
.8686722 .3459664 0
.8921253 .3464229 0
.9147685 .3466204 0
.9365349 .3461021 0
.9572729 .3461411 0
.9773917 .3457426 0
.9966965 .3452992 0
0 .3819336 0
.00728789 .3818772 0
.06263398 .3818139 0
.1101872 .3817499 0
.1527771 .3817444 0
.1901498 .3822033 0
.2272031 .3825133 0
.2656732 .3824671 0
.3032507 .3824586 0
.3406666 .3823123 0
.3773977 .3823184 0
.413466 .3824802 0
.4489748 .3828994 0
.4821965 .3843258 0
.5160019 .3846497 0
.5495889 .3849522 0
.5825764 .3853081 0
.6153908 .3853379 0
.64722 .3853631 0
.6784105 .3850848 0
.7083398 .3848881 0
.7375308 .384701 0
.7657627 .3845107 0
.7930174 .3841722 0
.819198 .3840123 0
.8445276 .3845158 0
.8689759 .3848554 0
.8924559 .3851403 0
.9151683 .384634 0
.9368837 .3839995 0
.9575472 .3840324 0
.9776394 .3838479 0
.9969072 .3835688 0
0 .4194726 0
0 .4194809 0
.05475649 .4194986 0
.1045152 .4195204 0
.1485277 .4195278 0
.1902181 .4194933 0
.2275074 .4198526 0
.2649623 .4199583 0
.3034298 .4199215 0
.3410115 .4199494 0
.3777195 .4200078 0
.4138888 .4201952 0
.4493113 .4204567 0
.4836918 .4205237 0
.5170556 .4213367 0
.5502825 .4217902 0
.5833148 .422003 0
.6159297 .4222746 0
.6479763 .4222446 0
.6789312 .422082 0
.7087579 .4218206 0
.7379292 .4216036 0
.7660792 .4214805 0
.7932227 .4217009 0
.8194555 .4221304 0
.8447412 .422581 0
.8691532 .4228102 0
.8927652 .4227997 0
.9154745 .4218754 0
.9371668 .4212343 0
.9578349 .4211749 0
.977881 .4210267 0
.9971253 .4208796 0
0 .4565709 0
0 .4565703 0
.0348247 .4565896 0
.09441818 .4566141 0
.1420438 .4566466 0
.1855371 .4566879 0
.2268875 .4567383 0
.2631611 .4573152 0
.3022281 .4572359 0
.3406807 .4570285 0
.3779891 .4569314 0
.4142816 .4570099 0
.4495206 .4570447 0
.4841561 .4572275 0
.5180882 .4574859 0
.5514312 .457643 0
.5841985 .4581317 0
.6166153 .4585366 0
.648325 .4586791 0
.6789478 .4587345 0
.7090953 .4585564 0
.7381558 .4585507 0
.7662219 .4588251 0
.7934406 .4590401 0
.8196741 .4593738 0
.8449236 .4595467 0
.8693413 .4595718 0
.8928563 .4594266 0
.9157562 .4582263 0
.9374573 .4578888 0
.9581198 .4576648 0
.9781422 .457388 0
.9973894 .4573296 0
0 .4930519 0
0 .4930674 0
.0162934 .4930849 0
.08418363 .49311 0
.1353621 .493135 0
.1806758 .4931617 0
.2231526 .4931943 0
.2620338 .4935034 0
.3003437 .4937209 0
.3386621 .4936317 0
.3772998 .4934111 0
.4139483 .493214 0
.4494532 .4933607 0
.4842792 .4935442 0
.518314 .4937362 0
.552159 .493646 0
.5851963 .4938636 0
.6172052 .4944142 0
.6483278 .4948428 0
.6788074 .494854 0
.7089607 .4951543 0
.7382193 .4953703 0
.7664783 .4956152 0
.7936003 .4956886 0
.8197829 .4956568 0
.8450768 .4954092 0
.8695299 .495095 0
.8930506 .4948932 0
.9158853 .4937715 0
.9376889 .4934171 0
.9584764 .493184 0
.9784613 .4929682 0
.9975752 .492761 0
0 .5288939 0
0 .5289066 0
0 .5289208 0
.07385135 .5289412 0
.1289596 .5289683 0
.1759475 .5290031 0
.2192098 .5290493 0
.2604701 .5291049 0
.2993494 .5293586 0
.3372486 .5295956 0
.3751853 .5295227 0
.4134183 .5292391 0
.4493955 .5292253 0
.4840602 .5293759 0
.5180979 .5295678 0
.552143 .5295868 0
.5857296 .5293248 0
.6177671 .5292695 0
.6486658 .5297326 0
.678928 .5304446 0
.7090347 .530647 0
.7381866 .5305609 0
.7665407 .5304648 0
.7938795 .5302172 0
.8201169 .5299913 0
.8453835 .5297344 0
.8698004 .5294521 0
.893342 .5291575 0
.9159502 .5288785 0
.9376306 .5286613 0
.9587588 .5281307 0
.9787062 .5278736 0
.9977744 .5276882 0
0 .5635805 0
0 .5635507 0
0 .5635661 0
.06525766 .5635886 0
.1239386 .5636183 0
.1724207 .563656 0
.2170403 .5637004 0
.259285 .563743 0
.2999794 .5638092 0
.3371069 .5641945 0
.3747406 .5641572 0
.4118396 .5639612 0
.4490227 .5637553 0
.4842841 .5637845 0
.518517 .5638974 0
.5523216 .5639359 0
.585798 .5636883 0
.6182717 .563514 0
.6492923 .56382 0
.6794648 .5644777 0
.7090949 .5650423 0
.7381796 .5650054 0
.766297 .5647691 0
.7935716 .5645289 0
.8199409 .5642919 0
.8454375 .5640593 0
.8699228 .5638477 0
.893347 .5636621 0
.9158419 .5634084 0
.9374923 .5631498 0
.9586377 .5628318 0
.9788476 .562508 0
.9980698 .562272 0
0 .5967977 0
0 .596813 0
0 .5968303 0
.06462663 .596855 0
.1237883 .5968915 0
.1725395 .5969383 0
.2171134 .5969969 0
.2593549 .5970682 0
.2997985 .5971457 0
.3375173 .5974312 0
.3749025 .5975605 0
.4113401 .5975214 0
.4475443 .5974734 0
.4841079 .5973402 0
.5193131 .5974396 0
.5530143 .5976153 0
.5858087 .5977224 0
.6183293 .597468 0
.6497825 .5973135 0
.6799943 .5975349 0
.709463 .5979667 0
.7381411 .5983194 0
.766216 .5982675 0
.7935309 .5977652 0
.8197314 .5976817 0
.8452243 .5974885 0
.8697347 .5972323 0
.8932847 .5969981 0
.9158773 .5968206 0
.9375718 .5966999 0
.9587451 .5965908 0
.9789481 .5965415 0
.9981202 .5964037 0
0 .6293507 0
0 .6293669 0
0 .6293849 0
.06289286 .6294109 0
.1229637 .6294465 0
.1721038 .6294826 0
.2168373 .6295262 0
.258986 .629581 0
.2993451 .6296492 0
.3385074 .6297412 0
.3757562 .6300945 0
.412107 .6302074 0
.448503 .6301828 0
.4842466 .6302955 0
.5198978 .630227 0
.5534936 .6303391 0
.5862257 .630409 0
.618439 .630205 0
.6500521 .629822 0
.6805362 .6298062 0
.7099385 .6299374 0
.7384132 .630375 0
.7661403 .6307732 0
.7931699 .6307109 0
.8196903 .6300933 0
.8447627 .6299503 0
.8692853 .6296901 0
.8928844 .6295604 0
.9156446 .6295038 0
.9376407 .6294634 0
.95888 .629378 0
.9790317 .6292835 0
.9980471 .6291971 0
0 .6609633 0
0 .6609758 0
0 .6609938 0
.06285604 .6610233 0
.1235785 .6610547 0
.1730602 .6610943 0
.2179062 .661147 0
.2601631 .6612266 0
.3006384 .6613531 0
.3399056 .661499 0
.378191 .6616467 0
.4135987 .6620192 0
.4496049 .6620541 0
.4846788 .6620619 0
.5191146 .6620439 0
.5540579 .661779 0
.58688 .6617253 0
.6188412 .6616427 0
.6505345 .6612938 0
.68111 .6611813 0
.7106209 .6612582 0
.7387609 .6613123 0
.7661831 .6617717 0
.7929766 .6621736 0
.8192145 .6620287 0
.8447311 .6615758 0
.8692693 .6612976 0
.8926789 .6613644 0
.9154493 .6612884 0
.9375804 .6611621 0
.9588587 .661052 0
.9790313 .6610172 0
.9982615 .6609774 0
0 .6918756 0
0 .6918929 0
0 .6919159 0
.06842815 .691949 0
.1267363 .6919931 0
.1748566 .6920662 0
.2189596 .6921578 0
.2608302 .692266 0
.3011794 .6924023 0
.3403019 .6925275 0
.3786238 .6925722 0
.4145612 .6928617 0
.4498329 .692858 0
.4848976 .6927463 0
.5191635 .6926793 0
.5530857 .6926286 0
.5872879 .6922833 0
.6191814 .6922867 0
.6508324 .6920229 0
.6813353 .6919896 0
.7106693 .6920265 0
.7391815 .6918278 0
.7668232 .6917005 0
.7932396 .6922702 0
.8192472 .6925968 0
.8446313 .6926091 0
.8691608 .6925325 0
.8929836 .692131 0
.9153798 .6922257 0
.9376724 .6920656 0
.958819 .6918376 0
.9789996 .6916369 0
.9981789 .6916106 0
0 .7221217 0
0 .722132 0
0 .7221496 0
.06801612 .7221598 0
.126264 .7221735 0
.1739841 .7222548 0
.2184763 .7222695 0
.2606648 .7222763 0
.3012044 .7222679 0
.3405459 .7222877 0
.3785982 .7223163 0
.4157667 .722347 0
.4502727 .7226173 0
.4849789 .7226476 0
.5193587 .7225555 0
.5526567 .7225446 0
.5860475 .7223802 0
.6193953 .7220118 0
.6509558 .7218117 0
.6814861 .7216496 0
.7108334 .7215888 0
.7395227 .7213748 0
.767424 .7212536 0
.7942032 .7213551 0
.8196372 .7221249 0
.8447798 .7224141 0
.869243 .7224235 0
.8928965 .7224228 0
.9159129 .7220331 0
.9379693 .721648 0
.9585902 .7216627 0
.9787 .7215651 0
.9979884 .7214819 0
0 .7512266 0
0 .7513042 0
0 .751379 0
.05921397 .7513592 0
.121676 .7513326 0
.1718079 .7512991 0
.2173242 .7512289 0
.2600206 .7511548 0
.3007483 .7511136 0
.3399375 .7511263 0
.378133 .7511247 0
.4152814 .7511576 0
.4500585 .7513896 0
.4852498 .7513002 0
.519514 .751158 0
.5530283 .751092 0
.5857117 .7510921 0
.6187178 .7508795 0
.6510578 .7505634 0
.6815824 .7504587 0
.7112552 .7502812 0
.7401504 .7501704 0
.7679424 .7501918 0
.7948309 .7502016 0
.8207675 .750333 0
.8454416 .7508695 0
.8696207 .751163 0
.8932626 .7511286 0
.9159595 .7510782 0
.9376306 .7509338 0
.9585885 .7506053 0
.978671 .7503865 0
.9977866 .7503848 0
0 .7792717 0
0 .7792599 0
0 .7792466 0
.05368561 .7792275 0
.1180235 .7792273 0
.1687113 .7791778 0
.2144751 .7791147 0
.2575448 .779041 0
.2987769 .7789559 0
.3386412 .7788591 0
.3772127 .778795 0
.4146516 .7787588 0
.450881 .7788258 0
.4852719 .7790056 0
.5197231 .7788563 0
.5534724 .7787442 0
.5862809 .7787406 0
.6183879 .7787304 0
.6507089 .7786024 0
.6819304 .7784038 0
.7117079 .7782951 0
.7405344 .778241 0
.7684993 .7782245 0
.7954212 .7782068 0
.8213893 .7782114 0
.84644 .7782997 0
.8703485 .7785894 0
.8933277 .7789858 0
.9157544 .7790067 0
.9374325 .7790028 0
.9583306 .7789646 0
.978481 .7785828 0
.9976955 .7782013 0
0 .8061945 0
0 .8061805 0
0 .8061648 0
.03730555 .8061414 0
.1105844 .8061084 0
.1639155 .8060665 0
.2109462 .8060098 0
.2547591 .805935 0
.2965105 .8058482 0
.3366562 .8057583 0
.3755755 .8056611 0
.4135826 .8055561 0
.4504733 .8055175 0
.4863283 .8055137 0
.5198348 .8056372 0
.5535604 .8055657 0
.5866275 .8056354 0
.6189454 .8057431 0
.6502604 .8058109 0
.681745 .8056183 0
.7121536 .8054629 0
.7409798 .8054008 0
.768882 .8053374 0
.795894 .8053029 0
.821968 .8052623 0
.8470153 .8052843 0
.8709731 .8053772 0
.8937757 .8054659 0
.9156416 .8060381 0
.9372927 .8059841 0
.9581546 .8057796 0
.9782117 .8055359 0
.9974925 .805193 0
0 .8321214 0
0 .8321066 0
0 .8320902 0
.02683335 .8320665 0
.1057666 .832035 0
.1607182 .8319951 0
.2085131 .8319464 0
.2526876 .8318933 0
.2946377 .8318224 0
.3350269 .8317393 0
.3742173 .8316473 0
.4125243 .831549 0
.4498272 .8314303 0
.486101 .8314236 0
.5202409 .8316193 0
.5540348 .8316315 0
.5872258 .8316997 0
.619503 .8318843 0
.6505501 .8319814 0
.6809899 .8321045 0
.711856 .8318499 0
.741228 .8316575 0
.7691804 .8316574 0
.7961925 .8315973 0
.8221244 .8315608 0
.8472471 .8315294 0
.8711693 .8315127 0
.893994 .8315474 0
.9161459 .8314571 0
.9372557 .831656 0
.957953 .8315074 0
.9780152 .8312734 0
.9972755 .8310425 0
0 .8571234 0
0 .8571095 0
0 .8570936 0
.01704786 .8570708 0
.1010345 .8570404 0
.1574701 .8570074 0
.2058941 .8569693 0
.2504892 .856924 0
.2927341 .8568738 0
.3334854 .8568321 0
.3731382 .8568203 0
.4117275 .8567906 0
.4493293 .8567374 0
.4854757 .8566878 0
.5206732 .8567054 0
.5542879 .8568291 0
.5876054 .8568708 0
.6196114 .8569747 0
.6507278 .8571336 0
.6810879 .8573483 0
.7108074 .8574901 0
.7409596 .8571272 0
.7690848 .8568807 0
.7961583 .8567683 0
.8222299 .8567096 0
.8471896 .8566074 0
.8710665 .8564618 0
.89407 .8562998 0
.9162248 .8562271 0
.9376207 .8560678 0
.9580795 .8560816 0
.9778185 .8561009 0
.9970832 .8558788 0
0 .8812641 0
0 .881254 0
0 .8812547 0
.00568937 .8812572 0
.09537161 .8812605 0
.1540719 .8812646 0
.2036021 .88127 0
.2488892 .881276 0
.2916342 .881283 0
.3325964 .8812611 0
.3724418 .8812131 0
.4110381 .8811167 0
.4482892 .8810287 0
.4845834 .8809726 0
.5199448 .8809453 0
.5546106 .8809398 0
.5873598 .8809993 0
.6195965 .8811935 0
.6509351 .8813656 0
.6812119 .8815229 0
.710703 .88163 0
.7397056 .8815402 0
.7690055 .8810894 0
.7962269 .8808874 0
.8221496 .8808019 0
.846973 .8806264 0
.87085 .8804616 0
.8939844 .8802865 0
.9162678 .8801023 0
.9376181 .8800161 0
.9582664 .8797956 0
.9780913 .8796305 0
.996891 .8798131 0
0 .9047555 0
0 .9047489 0
0 .9047414 0
0 .9047757 0
.09234927 .9047605 0
.1523214 .9047341 0
.2024719 .9046977 0
.2481448 .9046544 0
.2911653 .9046046 0
