luts/Timeless 39.cube
# 3D LUT of size 33x33x33 converted by Filestar.
#   Input:
#     color space: sRGB
#     white point: default (D65)
#     transfer function: default (sRGB)
#   Output:
#     color space: sRGB
#     white point: default (D65)
#     transfer function: default (sRGB)
#   Exposure: +0.48
#   Contrast: +20
#   Whites: +7
#   Blacks: -18
#   Vibrance: +4
LUT_3D_SIZE 9
0 .00020838 .01245082
.1347889 0 .00671111
.2987514 0 0
.4503723 0 0
.5919785 0 0
.7207484 0 0
.8350097 0 0
.9343255 0 0
.9999999 0 0
0 .1425111 0
.1402867 .1390232 0
.3022832 .142153 0
.4530583 .1401184 0
.592949 .1384071 0
.7211034 .133619 0
.835305 .1308251 0
.9343883 .1220348 0
.9999999 .1215706 0
0 .2843227 0
.1535867 .2834397 0
.3066309 .285429 0
.4551008 .2864664 0
.5931541 .2879733 0
.721831 .2872219 0
.8363454 .2859381 0
.935242 .2840199 0
.9999999 .2836225 0
0 .4261732 0
.1524691 .4259273 0
.3103638 .4261167 0
.4587161 .4266728 0
.5952004 .4288507 0
.723139 .4286782 0
.8372341 .4287621 0
.9363872 .4278255 0
.9999999 .4276392 0
0 .5614251 0
.1354549 .5614552 0
.3074909 .5617719 0
.4589814 .5616434 0
.5973658 .5616141 0
.7230667 .5632629 0
.8377111 .5623531 0
.937041 .5614294 0
.9999999 .5607767 0
0 .6842993 0
.1355012 .6844315 0
.3101399 .6846399 0
.4589049 .6849744 0
.5990396 .6845078 0
.7248421 .6843556 0
.8371499 .6848225 0
.9370499 .6843577 0
.9999999 .6843078 0
0 .7952693 0
.1313939 .7951971 0
.3073871 .7950938 0
.4603671 .795136 0
.5979447 .795224 0
.7263801 .7949441 0
.839452 .7948222 0
.9364127 .795675 0
.9999999 .794517 0
0 .8934445 0
.1110034 .8932645 0
.3014217 .8931656 0
.4586551 .892959 0
.5988646 .8932554 0
.7255189 .893517 0
.8393519 .8927331 0
.9369451 .8921294 0
.9999999 .8920534 0
0 .9785519 0
.1040771 .9784519 0
.2979601 .9783546 0
.4559028 .9783021 0
.5987667 .9783314 0
.7264124 .9778697 0
.8379772 .977322 0
.9361768 .9768621 0
.9999999 .9765591 0
0 .00377071 .1515036
.1386006 0 .1516986
.3026778 0 .1517002
.4531558 0 .1500047
.593062 0 .1494022
.721729 0 .1489571
.8356009 0 .1468181
.9347816 0 .1420255
.9999999 0 .1399443
0 .1354578 .1537708
.1427959 .1393737 .1517682
.3042366 .1363552 .1499476
.4540161 .1336929 .1489975
.5934957 .1320691 .1472746
.7220837 .1284503 .1472374
.8358495 .1255636 .1444189
.9347211 .1194686 .143212
.9999999 .1162127 .138353
0 .2856629 .1509158
.1443782 .2851686 .14809
.3059745 .2858652 .1469647
.4552006 .2851048 .1488945
.5938081 .2868333 .1467531
.7224987 .2858748 .1439382
.8367199 .2843383 .1416562
.9354393 .2823278 .1416591
.9999999 .2819739 .1345366
0 .4266032 .1450969
.1388165 .426588 .1449486
.3104997 .4263147 .1433717
.4579824 .4270903 .1463694
.5959457 .4283783 .1445427
.72337 .4282862 .1402839
.8376265 .4274308 .1399444
.9365492 .4270528 .134575
.9999999 .4266044 .1307245
0 .5615059 .1350718
.1274478 .5617055 .1343664
.3061005 .5618088 .1349843
.4580359 .5622137 .1383133
.5973717 .5618595 .1387609
.7235707 .5629869 .1368707
.8379604 .5619698 .1334569
.9371433 .5610153 .1294653
.9999999 .560318 .1286774
0 .6845113 .1258405
.1275313 .6846801 .1249062
.3066566 .6848748 .1237957
.4585333 .6852298 .1221192
.5991324 .6847246 .1264996
.7253197 .6843359 .1277532
.8376154 .6847564 .1224422
.9372988 .6841245 .1197366
.9999999 .6842178 .1169768
0 .7955252 .117313
.1221098 .7953618 .1156715
.3040808 .7952644 .1160047
.4569066 .7955061 .1120727
.5968743 .7954755 .1144801
.7266798 .7947928 .1147731
.8397248 .7946372 .1148456
.9367788 .7955471 .112749
.9999999 .7941342 .1131454
0 .8936697 .110406
.1008863 .8935407 .1096869
.2983692 .8933054 .1103335
.4571527 .8931019 .1108811
.5979371 .8934346 .1040274
.7254003 .8935935 .1037117
.8395751 .8926863 .1092536
.9373547 .8920067 .1127213
.9999999 .8919405 .1092951
0 .9788126 .1006696
.09121206 .9787461 .1025444
.2947068 .9785022 .1088326
.4542456 .9784786 .1109266
.5965436 .9786156 .1006354
.725606 .9780657 .0978371
.8376473 .9774299 .09713309
.9362835 .9767868 .1002034
.9999999 .976363 .09903152
0 0 .3056468
.1453223 0 .3069502
.3036769 0 .3081973
.4533534 0 .3097166
.5946989 0 .3098108
.7224153 0 .3095357
.8360928 0 .3102431
.9354712 0 .3084489
.9999999 0 .307925
0 .1376099 .3085095
.1454758 .1364797 .3087583
.305644 .1346198 .3100163
.4546859 .1332253 .3096597
.5947306 .1269163 .3091814
.7226162 .1230058 .309672
.8364059 .1180098 .3095778
.9354984 .1125381 .3080835
.9999999 .1045853 .3071279
0 .2856263 .3107529
.1403185 .2857375 .3108982
.3064129 .2852749 .3098306
.4549897 .2847283 .3098046
.594371 .2848679 .3094263
.7232416 .2840488 .3093134
.8371511 .2820348 .3083726
.9360539 .2796967 .3072704
.9999999 .277844 .3055605
0 .4275275 .3093187
.1322314 .4275544 .3080965
.3075438 .4269746 .3075503
.4578639 .4278845 .3070599
.5965207 .4289133 .3079662
.7241256 .4281327 .307817
.8383728 .4267165 .3068329
.9370431 .4249805 .3055618
.9999999 .4247757 .3039396
0 .5612579 .3057182
.1250698 .5613111 .3053935
.30266 .561958 .3049563
.458374 .5625141 .304875
.5974765 .5624238 .3052439
.7250317 .5619217 .3043484
.8384696 .5614867 .3047247
.9376382 .5602974 .3032527
.9999999 .5590548 .3027208
0 .6848315 .3001333
.1129711 .684949 .3002051
.2992715 .6854184 .2996591
.4568377 .6854936 .3002029
.5985891 .6851726 .3003932
.7260638 .6844459 .2988986
.8388323 .6849412 .2970207
.9381998 .6840097 .2973028
.9999999 .6837742 .2998891
0 .7955672 .2965289
.09708693 .7956105 .2962537
.2951393 .7956689 .2959358
.454473 .7956122 .2959216
.5968132 .7956125 .2955256
.7268059 .7950897 .295151
.8409508 .7946711 .2943269
.9384863 .7953136 .2931871
.9999999 .7940401 .2943552
0 .8936966 .2944013
.08044454 .8936941 .2942186
.2908542 .8935966 .293686
.4516068 .8935108 .2929914
.5961902 .8935754 .2936547
.724732 .8938044 .2924716
.8403919 .8927737 .2930668
.9384143 .8920619 .2931902
.9999999 .891772 .2924053
0 .9788802 .2920459
.07264385 .9789047 .2921747
.2873802 .9789053 .2922033
.4511788 .9785312 .2939458
.5950812 .9787039 .2931882
.7251109 .9784201 .2901254
.836663 .9779997 .2886569
.9365045 .9768395 .2891017
.9999999 .9764078 .2890115
0 0 .4581534
.1437184 0 .4581338
.3062445 0 .4582962
.4570698 0 .4589762
.5953158 0 .4600529
.723528 0 .4602091
.8369925 0 .4597725
.9360193 0 .4586678
.9999999 0 .457992
0 .1340387 .4585527
.1394114 .1323623 .4588656
.3058701 .1299278 .4592471
.4581717 .125124 .4597873
.5962765 .121114 .4602613
.7236215 .1143949 .4598875
.8371606 .110381 .4592764
.9362874 .1013477 .4583314
.9999999 .09290122 .4574558
0 .283628 .4594536
.1341291 .2833496 .459666
.3051316 .2827013 .4600129
.458452 .2830501 .4598053
.5969684 .282709 .4596011
.7237638 .2812428 .4589572
.8376756 .2787246 .4589099
.9367149 .2757638 .4580024
.9999999 .2740352 .457819
0 .4273057 .45949
.1344797 .4271668 .4597004
.305344 .4266865 .4596437
.4589388 .4260125 .4595346
.5987035 .4269929 .4585
.724722 .427297 .4588599
.838136 .4251675 .4584439
.9370271 .4231641 .4579692
.9999999 .4226413 .4575256
0 .5613663 .4594207
.1093201 .5616133 .4590102
.297747 .5620837 .4575319
.4565886 .5622787 .4570771
.5986828 .5626796 .4570915
.7256039 .5614596 .4588276
.8383705 .5607623 .4577188
.937208 .5594967 .4568145
.9999999 .5584014 .4568206
0 .6853984 .4552193
.09916528 .6854193 .4547142
.2953718 .6853275 .4540289
.4518031 .6856745 .4542152
.5982496 .6850678 .4544566
.7258304 .6848107 .4532802
.8397178 .6839812 .4533266
.9375167 .6834798 .4568569
.9999999 .6832549 .45702
0 .7954398 .4527829
.08578915 .7954087 .4526468
.2918753 .7953842 .4519923
.4510578 .7956353 .4519701
.5960951 .7956194 .4519335
.726841 .7952614 .4518347
.8401943 .7953647 .4518932
.9377552 .7953126 .4525124
.9999999 .7942101 .4530075
0 .8935444 .4515911
.06973293 .8934801 .4514847
.2876095 .8934683 .4515495
.4491649 .8934925 .4515383
.5948378 .8934247 .4519074
.7253824 .8934456 .4518226
.8392737 .893135 .4517523
.9378868 .892552 .4511748
.9999999 .8921787 .4506003
0 .9784314 .4509491
.05234153 .978469 .4509405
.2840876 .9785646 .4509204
.448072 .9785967 .4503377
.5944197 .9782104 .4521032
.7242021 .9781782 .452464
.8368368 .978209 .4507036
.9360257 .9770489 .4491981
.9999999 .9765038 .4472774
0 0 .5983084
.1400158 0 .5983685
.3076208 0 .5987041
.4582518 0 .5985686
.5965096 0 .5987324
.7234514 0 .5994843
.8381678 0 .6002672
.9366814 0 .600123
.9999999 0 .5996773
0 .1288778 .5990055
.1348984 .1269749 .5993316
.306841 .1217892 .5993543
.4579301 .1173465 .5990429
.5968066 .1137274 .5992912
.7241247 .1119554 .5999089
.8381658 .1023923 .6001762
.9368863 .09660881 .5998135
.9999999 .09045222 .5992017
0 .2817713 .599336
.1280869 .2823174 .5994428
.303769 .2810127 .5996286
.4573328 .2798787 .5996566
.5967745 .2792391 .5997425
.7252764 .2780607 .5999194
.8385471 .276708 .5995665
.9374667 .2745226 .5988963
.9999999 .2720759 .598183
0 .4270674 .5996034
.1188389 .4263913 .5997289
.3001059 .425467 .5995725
.4565974 .4237641 .6001262
.5984525 .4248014 .6001341
.7262482 .4245568 .5988715
.8388274 .4233534 .5981413
.9376177 .4220627 .5976207
.9999999 .4209679 .5976147
0 .5610062 .5999908
.1020436 .5608294 .5999567
.2952413 .5610179 .599811
.4565267 .560059 .5997969
.6003238 .5597376 .5997708
.7256247 .5609129 .5984692
.8374008 .5600508 .5990735
.9366963 .5590777 .5984442
.9999999 .557933 .5979052
0 .6852152 .5988614
.08705927 .6852194 .5988265
.2914527 .6854368 .5986412
.4508607 .6857565 .5979236
.5964556 .6846802 .5983049
.7269606 .6839501 .5971755
.8391036 .6834426 .598425
.9371455 .6827657 .597682
.9999999 .6825901 .5977987
0 .7960095 .5964308
.06186102 .7959887 .5963506
.2862523 .7959983 .5962779
.4496567 .795655 .5959888
.5961114 .7954242 .5950047
.7270453 .7948801 .5955908
.8396333 .7950528 .5952829
.9379471 .7951431 .5945347
.9999999 .794154 .5973624
0 .8938739 .5959664
.0453092 .8938187 .5959293
.2835938 .8936861 .5953174
.4477376 .8932309 .5945188
.5940259 .8930749 .5942397
.7257448 .8927992 .5939457
.8405501 .8923591 .5942394
.9367823 .8933001 .5931551
.9999999 .892338 .5940469
0 .9783359 .5940086
.01999515 .9782313 .5938877
.2799036 .9780025 .5936998
.447514 .9779043 .59348
.5935698 .9779095 .5934238
.7225435 .9778703 .5949146
.8361011 .9778565 .5948293
.9364194 .9773017 .592494
.9999999 .9765431 .5908249
0 0 .7251206
.132575 0 .7252926
.3055138 0 .7255167
.4580445 0 .7257171
.5969051 0 .7257853
.7249832 0 .7262547
.838039 0 .7261096
.9367233 0 .7258923
.9999999 0 .7261909
0 .123889 .7252539
.1251892 .121245 .725364
.3028638 .1167413 .7255626
.4569731 .1111162 .7258943
.5967875 .1113756 .7257493
.7248327 .1048396 .726441
.838444 .09940673 .7262772
.9371933 .09520932 .7259368
.9999999 .08517211 .726062
0 .2814155 .7255828
.1152879 .280363 .7257172
.2992976 .278499 .7259164
.4554701 .27661 .7263987
.5970544 .2765568 .7261505
.7245085 .2753475 .7263857
.8392227 .2721739 .7267308
.93788 .2710233 .7255682
.9999999 .267042 .7256185
0 .4245788 .7261585
.1060157 .4239751 .7261346
.2958378 .4230516 .7261822
.4537134 .421479 .7265667
.5975823 .4212743 .7264301
.7253178 .4205759 .7267612
.8403391 .4188954 .7270387
.9379347 .4203024 .7256142
.9999999 .4186673 .7257619
0 .5592581 .7271283
.07717834 .5590752 .7270634
.2913418 .5583347 .7265924
.4531959 .5577719 .725925
.5959154 .5580897 .7265087
.72619 .5576046 .7268631
.8397388 .5583413 .7254335
.9388018 .5568984 .725718
.9999999 .5572935 .7258673
0 .6833 .7262005
.0791708 .683048 .7261882
.2919039 .6834813 .7261925
.4516615 .684244 .7263008
.5967 .6835572 .7263234
.7263731 .6827471 .7261143
.8380811 .6834919 .7258647
.9358941 .6830646 .7261066
.9999999 .6824611 .7260695
0 .7962128 .7259442
.06892731 .7961588 .7259711
.2877522 .7960374 .7261078
.4491354 .7958646 .7260764
.5944589 .7952632 .7254755
.7253228 .7940522 .7266333
.8395044 .7949545 .7242256
.9360109 .7941713 .725283
.9999999 .7935778 .7253942
0 .8939175 .7252151
.02033929 .8938567 .7250714
.2798216 .8937087 .7245804
.4472466 .8932722 .7242457
.59459 .8926268 .7248768
.7254025 .8921825 .7244776
.8380312 .8923264 .7239298
.9367281 .8924121 .7232573
.9999999 .8915356 .7221362
0 .9783376 .7230533
.02569239 .9782719 .7229692
.2798029 .9781778 .7226617
.4446652 .9779053 .723124
.5939857 .9771852 .72264
.7231184 .9773117 .7222805
.8353528 .977643 .7227666
.9348258 .9767737 .7230257
.9999999 .9767668 .7225851
0 0 .8387657
.1215204 0 .8388609
.2995852 0 .8390784
.4558313 0 .8393936
.5958846 0 .8389463
.7255012 0 .8387609
.8384104 0 .8391786
.9366022 0 .839008
.9999999 0 .8389608
0 .1145004 .8388405
.1140678 .1112884 .8389165
.298226 .1074805 .8390633
.4548635 .1030704 .8394312
.5953307 .1085693 .838968
.7251828 .09908799 .8389484
.8383453 .0878647 .8392915
.9366764 .0849397 .8391148
.9999999 .07064133 .8391182
0 .2778933 .838807
.09850817 .2773753 .8388274
.2943486 .2766893 .8389765
.4524126 .274728 .8392802
.5947609 .2753923 .839108
.7243023 .2731675 .8395685
.8388798 .2681795 .839518
.9374933 .2664534 .8395976
.9999999 .2627402 .8393817
0 .4231247 .8387871
.08994114 .4227895 .8388155
.2903413 .422354 .8389952
.4500014 .4207902 .8395628
.5943828 .4187828 .8398834
.7236431 .4174834 .8402917
.8388947 .4166691 .8398442
.9389234 .4156907 .8400909
.9999999 .4150219 .8393795
0 .5580385 .8392897
.04598137 .557925 .8393389
.2843826 .5568948 .8395534
.4488835 .556388 .8398336
.5938827 .5557183 .8398616
.7235824 .5555351 .8400332
.8391548 .5549353 .8398664
.9389872 .553844 .8397013
.9999999 .5544132 .8389952
0 .6820486 .8397463
.06893479 .6821903 .8396694
.2853847 .6826195 .8393301
.4466094 .6826483 .8394396
.593926 .6812925 .8398193
.7235033 .6809815 .8400841
.8383093 .6811491 .8397621
.9375529 .6812266 .8389016
.9999999 .6820475 .8378869
0 .7945741 .8394011
.06500982 .7945188 .8394052
.2861638 .7944586 .8394264
.4492233 .7944425 .839422
.5946111 .7941076 .83921
.7245364 .7932228 .839388
.838249 .7934183 .8388295
.9349989 .7934587 .8383961
.9999999 .7935887 .8380287
0 .8935429 .8389015
.04447344 .8935071 .8388613
.2821971 .8932946 .838833
.4475374 .8930162 .8388279
.5937651 .8924628 .8388602
.7253401 .8914423 .8383714
.8365245 .892203 .8390877
.9352626 .8925186 .8394272
.9999999 .8915632 .8389839
0 .9781812 .838388
.01658509 .9780399 .8383825
.280371 .9778053 .8383507
.4473531 .9775426 .8381336
.5949398 .9775307 .8371659
.7229171 .9774547 .8366416
.8360435 .9766307 .8383718
.9348257 .9763243 .8386958
.9999999 .9758336 .8372505
0 0 .9362805
.120775 0 .9363409
.2992036 0 .9365717
.4544002 0 .9369008
.5942049 0 .9370066
.7246148 0 .9371281
.8386787 0 .9373652
.9360235 0 .9371271
.9999999 0 .9365535
0 .1111547 .9363558
.1140646 .1078798 .9364496
.2971407 .1056468 .9365834
.45342 .1008377 .936912
.5936311 .0960597 .9369686
.7238533 .09108881 .937139
.8383082 .07947395 .9373682
.9361657 .0729729 .9371765
.9999999 .06660266 .9366711
0 .2763122 .9364844
.09812736 .2759848 .9365311
.2923589 .2751631 .9366624
.4509708 .273855 .9370172
.5932646 .2727608 .9369898
.7222849 .2706352 .9371458
.8374128 .2672674 .9374924
.9366453 .2643675 .9376347
.9999999 .2632213 .9372019
0 .4204413 .9366854
.06091307 .4203416 .9368035
.2839228 .4195452 .9370182
.4460339 .4188757 .9371802
.5920752 .4176981 .9372667
.7209733 .4172083 .9374806
.8372627 .4167283 .9374883
.9371104 .4152603 .9374934
.9999999 .4147165 .937813
0 .5560732 .9368917
.05199538 .5559021 .9369093
.2838249 .5555876 .9369006
.4467565 .5552219 .9368027
.5934787 .5547726 .9369396
.7215492 .5549144 .936801
.837182 .554917 .9371098
.9369855 .5535609 .937237
.9999999 .5523715 .9374025
0 .6803281 .937088
.04181141 .6803759 .937053
.2781292 .6807021 .9369336
.4457865 .6800628 .936758
.5931895 .6799134 .9364925
.7233145 .6801651 .936566
.8368933 .6798045 .9372017
.9365168 .6790214 .9373646
.9999999 .6785416 .9375634
0 .7929789 .9373338
.02305386 .793263 .9371197
.2763465 .7934272 .9368659
.4423968 .7934186 .9367463
.5908906 .7924537 .9367589
.7228693 .7920712 .9370483
.836926 .7922964 .937061
.9352595 .7925042 .9371377
.9999999 .792188 .9372289
0 .8919129 .9371426
.03967553 .891771 .9371774
.2836263 .8915316 .9372159
.448724 .8915607 .937117
.592548 .8920422 .9370829
.7212772 .8920711 .9372295
.8358238 .8913401 .9369614
.9354963 .8917031 .9363626
.9999999 .8917002 .9356307
0 .9781392 .9361323
.02419514 .9781 .9360992
.2809098 .977966 .9360235
.4476403 .977691 .9359187
.5940954 .9772918 .9360129
.7210485 .9775309 .9359595
.8369817 .9766194 .9357411
.9343078 .9765897 .9367629
.9999999 .976445 .9377788
0 0 .9999999
.1223515 0 .9999999
.2996608 0 .9999999
.4542537 0 .9999999
.5945759 0 .9999999
.7219809 0 .9999999
.8370329 0 .9999999
.9355599 0 .9999999
.9999999 0 .9999999
0 .1095377 .9999999
.1145314 .1076451 .9999999
.2971476 .1051106 .9999999
.4531826 .1013319 .9999999
.5944091 .09527443 .9999999
.7215678 .08573107 .9999999
.8369497 .08235561 .9999999
.9356285 .07149554 .9999999
.9999999 .06916495 .9999999
0 .276472 .9999999
.09977389 .276213 .9999999
.2930679 .2756962 .9999999
.4511638 .2745604 .9999999
.5940783 .2726832 .9999999
.7216361 .2707563 .9999999
.8362058 .2688476 .9999999
.9355845 .2655315 .9999999
.9999999 .2650889 .9999999
0 .4197879 .9999999
.06100821 .4199006 .9999999
.2842214 .4201105 .9999999
.4473189 .420076 .9999999
.5929397 .4194735 .9999999
.7208042 .4190831 .9999999
.8354878 .4175103 .9999999
.935764 .4172316 .9999999
.9999999 .415941 .9999999
0 .554933 .9999999
.04401442 .554603 .9999999
.2772223 .5529293 .9999999
.4430591 .5532637 .9999999
.5919451 .5548961 .9999999
.7214791 .5553194 .9999999
.8356112 .555904 .9999999
.935503 .5551689 .9999999
.9999999 .5541116 .9999999
0 .6792027 .9999999
.05611044 .6793143 .9999999
.2808646 .6795403 .9999999
.4436796 .6793623 .9999999
.5888224 .6777701 .9999999
.7216941 .6789238 .9999999
.8349539 .6801129 .9999999
.9347935 .6793325 .9999999
.9999999 .6787415 .9999999
0 .7913427 .9999999
.04792472 .7913546 .9999999
.2790503 .791357 .9999999
.4446139 .7911414 .9999999
.5920206 .7908976 .9999999
.7212226 .7913991 .9999999
.8343765 .7922962 .9999999
.9325497 .7919881 .9999999
.9999999 .7906073 .9999999
0 .8894248 .9999999
.06470954 .88957 .9999999
.2874098 .8895975 .9999999
.4494716 .8896774 .9999999
.593395 .8899968 .9999999
.7220668 .8897503 .9999999
.8360417 .889979 .9999999
.9337668 .8906291 .9999999
.9999999 .8910903 .9999999
0 .9756021 .9999999
.05053928 .9754991 .9999999
.286584 .975356 .9999999
.4522813 .9750579 .9999999
.5954573 .9749159 .9999999
.7225519 .9750827 .9999999
.8384004 .9748586 .9999999
.9380395 .9746956 .9999999
.9999999 .9762277 .9999999
