luts/Timeless 23.cube
# 3D LUT of size 33x33x33 converted by Filestar.
#   Input:
#     color space: sRGB
#     white point: default (D65)
#     transfer function: default (sRGB)
#   Output:
#     color space: sRGB
#     white point: default (D65)
#     transfer function: default (sRGB)
#   Exposure: +0.55
#   Contrast: +30
#   Whites: +10
#   Blacks: -26
#   Vibrance: +7
LUT_3D_SIZE 5
.03294239 .00200158 .01874008
.3138205 0 0
.6094311 0 0
.8507545 0 0
.9999999 0 0
0 .2861932 0
.3180499 .2868893 0
.6113999 .2885302 0
.8517786 .2876767 0
.9999999 .2850483 0
0 .5693307 0
.3179732 .5698374 0
.6147369 .570967 0
.8538333 .5719373 0
.9999999 .5693533 0
0 .8040548 0
.3122456 .8036583 0
.617913 .8030725 0
.8540058 .802843 0
.9999999 .8017237 0
0 .9798662 0
.3032672 .9796032 0
.6145458 .9796713 0
.8528768 .978672 0
.9999999 .9774471 0
0 0 .3136525
.3152662 0 .3159085
.6122948 0 .3160657
.8528707 0 .314763
.9999999 0 .3106888
0 .2848949 .3184232
.3204349 .2849278 .3175745
.6124315 .2834989 .3159648
.853655 .2784258 .3126812
.9999999 .2745627 .306697
0 .5701081 .3086895
.3070302 .5712749 .3088161
.6155555 .5714118 .3087812
.8552572 .569281 .3073503
.9999999 .5661405 .3042683
0 .8045697 .2938896
.2962111 .8044854 .292472
.6141422 .8045617 .2892433
.8557434 .8033073 .2893063
.9999999 .8016021 .2893756
0 .9803203 .2848307
.2861737 .9803074 .2834259
.6092028 .9801258 .2803218
.8511997 .9798121 .2787725
.9999999 .9769546 .2785907
0 0 .6134138
.319393 0 .6140625
.6128097 0 .6142945
.855172 0 .6156985
.9999999 0 .6151388
0 .2802571 .6149923
.3112605 .2756622 .6154581
.6144903 .2741683 .6160154
.8563313 .2693771 .6154514
.9999999 .2624128 .6134298
0 .5688944 .6157428
.2934294 .5686398 .6154678
.6184329 .5671763 .6145883
.8542454 .5679671 .6143664
.9999999 .5655829 .6124663
0 .805329 .6108469
.2792459 .8049293 .6106306
.6149183 .8035936 .6075035
.8562592 .8035392 .6069655
.9999999 .8012649 .609634
0 .9801993 .6047246
.2719862 .9795311 .6031695
.6063055 .9794108 .603727
.8493974 .9787064 .6046661
.9999999 .9774719 .600436
0 0 .8533347
.3108038 0 .8538254
.6146907 0 .8544691
.8546165 0 .8548748
.9999999 0 .8539494
0 .2719627 .8540081
.3032688 .268804 .8543776
.6113339 .2663254 .8547617
.8548971 .2584012 .8556663
.9999999 .2486635 .854301
0 .5645831 .8546067
.2759889 .5623638 .8547408
.6092429 .5604849 .8544234
.855507 .558518 .8551545
.9999999 .5586709 .8531102
0 .8018017 .8541546
.2785237 .8016334 .854102
.6073419 .8015924 .8535707
.8546867 .8005617 .8532369
.9999999 .8014756 .8522168
0 .9809125 .8512258
.2689089 .9805227 .8510588
.6074618 .9797319 .8506928
.8507322 .9775968 .8503837
.9999999 .9760594 .849271
0 0 .9999999
.308449 0 .9999999
.6114464 0 .9999999
.850714 0 .9999999
.9999999 0 .9999999
0 .2676355 .9999999
.2968831 .2661173 .9999999
.6091599 .2638245 .9999999
.8501259 .2557774 .9999999
.9999999 .2491641 .9999999
0 .5582008 .9999999
.2665206 .5557234 .9999999
.6054066 .5581697 .9999999
.8504418 .5573625 .9999999
.9999999 .5561963 .9999999
0 .7969825 .9999999
.275951 .7971286 .9999999
.6055591 .7966899 .9999999
.8479933 .7969622 .9999999
.9999999 .7962108 .9999999
0 .9759805 .9999999
.2762992 .9760906 .9999999
.6072939 .9755761 .9999999
.8533487 .9744911 .9999999
.9999999 .97725 .9999999
