luts/Timeless 40.cube
# 3D LUT of size 33x33x33 converted by Filestar.
#   Input:
#     color space: sRGB
#     white point: default (D65)
#     transfer function: default (sRGB)
#   Output:
#     color space: sRGB
#     white point: default (D65)
#     transfer function: default (sRGB)
#   Exposure: -0.01
#   Contrast: +6
#   Whites: +25
#   Blacks: -14
#   Vibrance: +22
LUT_3D_SIZE 5
0 .04420969 .02558548
.2193454 0 .02254739
.4854835 0 0
.7495005 0 0
.9999999 0 0
0 .2672136 0
.2362734 .267296 0
.488329 .2706368 0
.7509199 .2661852 0
.9999999 .2545347 0
0 .5615063 0
.2119271 .5612252 0
.4924772 .5608798 0
.7556112 .5603715 0
.9999999 .5573719 0
0 .851546 0
.150246 .851764 0
.4788473 .8518281 0
.7522971 .8507925 0
.9999999 .8447696 0
0 .9999999 0
.1453951 .9999999 0
.466572 .9999999 0
.7364804 .9999999 0
.9758548 .9999999 0
0 .00348638 .2290219
.2354811 0 .2332288
.4923024 0 .2312052
.7521075 0 .222645
.9999999 0 .2123841
0 .2684009 .2324696
.2271157 .2658556 .2274612
.4909728 .264307 .2252202
.7534248 .2552107 .2157707
.9999999 .2393434 .2072017
0 .5639589 .1876962
.1840564 .5636531 .1873406
.4898072 .5635065 .1868464
.7596402 .558822 .17983
.9999999 .5536196 .1935284
0 .8520826 .112973
.1070206 .8522606 .1109541
.4713192 .852397 .1135438
.7501737 .8515021 .1251707
.9999999 .8443823 .1108041
0 .9999999 .114574
.1160128 .9999999 .1153333
.459518 .9999999 .1094187
.7336818 .9999999 .1198601
.9752029 .9999999 .1296953
0 0 .4922603
.2223303 0 .4949204
.4960295 0 .4965224
.7584407 0 .4933912
.9999999 0 .4854813
0 .2512501 .4970016
.1942557 .2454109 .4977498
.4988129 .2362692 .4973114
.7596041 .2336905 .4898669
.9999999 .2167788 .4805205
0 .5661184 .4920703
.1183738 .5661464 .4904535
.4781913 .5634651 .4814833
.7541847 .5572398 .4869042
.9999999 .548727 .4798312
0 .8538963 .4538162
0 .8535725 .4524971
.4502048 .8533773 .4523566
.7465256 .8521936 .4492797
.9999999 .8425716 .4449266
0 .9999999 .4460909
.0395525 .9999999 .4480325
.4504812 .9999999 .4503509
.7306209 .9999999 .4512864
.9736119 .9999999 .4501731
0 0 .7532492
.2088723 0 .7539771
.4884347 0 .7559452
.7542078 0 .7578735
.9999999 0 .7533504
0 .2295688 .7553803
.1720219 .2216311 .7561733
.478531 .2070698 .758287
.7584139 .19954 .7592719
.9999999 .18544 .7514886
0 .5458927 .7586524
0 .5431582 .7587011
.4592615 .5372158 .7592598
.757882 .5353166 .7575567
.9999999 .539912 .7487492
0 .8554689 .7491271
0 .8554077 .7483429
.4366091 .8535326 .7467095
.7389687 .849694 .7424882
.9999999 .8424084 .7437915
0 .9999999 .7274533
.0335891 .9999999 .727194
.4480777 .9999999 .7268385
.734844 .9999999 .7294078
.9760012 .9999999 .7306625
0 0 .9999999
.1965913 0 .9999999
.4801777 0 .9999999
.7435063 0 .9999999
.9999999 0 .9999999
0 .222295 .9999999
.1495673 .2183965 .9999999
.4685361 .2112761 .9999999
.7389319 .1879149 .9999999
.9999999 .1490008 .9999999
0 .523269 .9999999
0 .5199235 .9999999
.4365359 .5170935 .9999999
.7313278 .5216443 .9999999
.9999999 .5136706 .9999999
0 .8317077 .9999999
0 .8313479 .9999999
.4356924 .8297748 .9999999
.7303875 .8284707 .996982
.9978352 .8304427 .9967008
0 .9999999 .9911993
0 .9999999 .9910445
.4578549 .9999999 .9901794
.754186 .9999999 .9854974
.9868008 .9999999 .9875639
