luts/Timeless 11.cube
# 3D LUT of size 33x33x33 converted by Filestar.
#   Input:
#     color space: sRGB
#     white point: default (D65)
#     transfer function: default (sRGB)
#   Output:
#     color space: sRGB
#     white point: default (D65)
#     transfer function: default (sRGB)
#   Exposure: +0.53999996
#   Contrast: +23
#   Whites: +8
#   Blacks: -20
#   Vibrance: +5
LUT_3D_SIZE 33
0 .00158175 .00933342
0 .00620983 .00232526
.0139079 .00602471 0
.09557676 0 .00397293
.1463757 0 .00368828
.1909489 0 .00450321
.2349155 0 .00019644
.2783077 0 0
.320433 0 0
.360962 0 0
.4015132 0 0
.4404428 0 0
.4781708 0 0
.5155028 0 0
.5521674 0 0
.5883444 0 0
.6233534 0 0
.6573373 0 0
.6904514 0 0
.7225531 0 0
.7537305 0 0
.7835793 0 0
.8121993 0 0
.8396809 0 0
.8662044 0 0
.8915818 0 0
.9157588 0 0
.9388756 0 0
.9611216 0 0
.9825979 0 0
.9999999 0 0
.9999999 0 0
.9999999 0 0
0 .02315838 .01069601
0 .03311586 .00332884
.0073081 .03484677 .00137496
.09199525 .02330417 .00592501
.143312 .01640925 .00383473
.1902006 .01131116 .00269961
.2358856 .01236649 0
.2790895 .01446127 0
.3206855 .02028463 0
.36175 .02487623 0
.4018876 .02555747 0
.4407177 .02512858 0
.4784188 .02521745 0
.5159205 .02156895 0
.5525625 .0185905 0
.5886973 .01012874 0
.6236997 .00054199 0
.6576414 0 0
.6905662 0 0
.7226712 0 0
.7538287 0 0
.7836539 0 0
.8122461 0 0
.8397257 0 0
.8662235 0 0
.8915998 0 0
.9157841 0 0
.9389071 0 0
.9611685 0 0
.9826543 0 0
.9999999 0 0
.9999999 0 0
.9999999 0 0
0 .06344339 0
0 .06742072 0
.00277479 .06696983 0
.09211089 .05981182 .00270579
.1453679 .05587522 .00119747
.192736 .05642055 0
.2372986 .05773897 0
.2798703 .06216979 0
.3213796 .06637814 0
.3624659 .06756757 0
.402269 .06818491 0
.4410272 .06798286 0
.4788763 .0671408 0
.516391 .06446316 0
.5530047 .06263251 0
.5890952 .05643108 0
.6240901 .04853155 0
.6577291 .0404756 0
.6906955 .03490759 0
.7227927 .03080098 0
.7539123 .02867709 0
.7837379 .02587772 0
.8122987 .02417103 0
.8397763 .02189407 0
.8662447 .01848629 0
.8916199 .01434788 0
.9158375 .00551969 0
.938938 0 0
.9612253 0 0
.9827179 0 0
.9999999 0 0
.9999999 0 0
.9999999 0 0
0 .1064614 0
0 .1062026 0
.0078979 .1065328 0
.095453 .1017905 0
.1475691 .09961761 0
.1948057 .1007815 0
.2383729 .1030007 0
.2808075 .1055457 0
.3226797 .1063125 0
.3633563 .1067055 0
.4028324 .1072304 0
.4414688 .1072675 0
.4795941 .1055928 0
.5170622 .1039155 0
.5536212 .1029043 0
.5896627 .09921832 0
.6243422 .09559789 0
.6578046 .09113853 0
.6908908 .08954693 0
.722895 .08810995 0
.7540402 .08692776 0
.7838576 .08531337 0
.8123741 .08434572 0
.8398482 .08301912 0
.8662788 .08135604 0
.8916984 .07863233 0
.9158733 .07275196 0
.939016 .06783094 0
.9613082 .06764396 0
.9828084 .06675252 0
.9999999 .06514475 0
.9999999 .06475724 0
.9999999 .06475724 0
0 .1448857 0
0 .1443557 0
.01419838 .1448826 0
.09757829 .1422183 0
.150609 .1417959 0
.1965932 .1423755 0
.2400213 .143246 0
.282314 .1438235 0
.3237973 .1442279 0
.3644177 .1441236 0
.4037008 .1445066 0
.4423024 .1442827 0
.4805369 .1425172 0
.5179563 .1413794 0
.5542502 .1414647 0
.5899033 .139832 0
.6244835 .1375622 0
.6580232 .1354371 0
.6910414 .1346046 0
.7230259 .134095 0
.7542241 .1332479 0
.7839954 .132149 0
.8124747 .1315193 0
.8399692 .1305357 0
.8664044 .1294816 0
.8917392 .1277826 0
.9159051 .124179 0
.9391304 .1217457 0
.9614192 .1216322 0
.9829304 .1210501 0
.9999999 .1200935 0
.9999999 .1199316 0
.9999999 .1199316 0
0 .181604 0
0 .1818666 0
.03407298 .1823532 0
.1038382 .1812021 0
.1543767 .1805031 0
.1988084 .1804404 0
.241614 .1805845 0
.2831961 .1810709 0
.3253727 .1808486 0
.365676 .1806274 0
.4048431 .1808133 0
.4437046 .1798831 0
.481448 .1792257 0
.5184106 .1793868 0
.5544817 .179842 0
.5900559 .1791862 0
.6245784 .1779561 0
.6582367 .1767882 0
.6912435 .1760434 0
.7232314 .1757014 0
.7543927 .1753678 0
.7841616 .1744538 0
.8126833 .1737774 0
.8401797 .173038 0
.8665913 .1723069 0
.8917723 .1712249 0
.9159598 .1686207 0
.9392751 .1674884 0
.9615595 .1674064 0
.9830875 .1669102 0
.9999999 .1663687 0
.9999999 .1662524 0
.9999999 .1662524 0
0 .2174872 0
0 .2177958 0
.04875957 .2178826 0
.108302 .2174452 0
.1588515 .2165707 0
.2026869 .216006 0
.2447666 .2161393 0
.2859405 .2164892 0
.326565 .2171297 0
.3670883 .2168813 0
.4061289 .2168015 0
.444334 .2167068 0
.4818184 .2168563 0
.5186646 .217391 0
.5546392 .2180561 0
.5900472 .2179355 0
.6246746 .2168883 0
.6583759 .2160168 0
.6914839 .2155936 0
.723542 .2152258 0
.7546653 .2148335 0
.784298 .214888 0
.8128965 .2141845 0
.8404182 .2132496 0
.8668076 .2126893 0
.8919554 .2115356 0
.9160873 .2106832 0
.9394445 .2097188 0
.9617314 .2096329 0
.9832464 .2092912 0
.9999999 .2088969 0
.9999999 .2084507 0
.9999999 .2084507 0
0 .2527988 0
0 .2524502 0
.06366653 .2521546 0
.1207277 .2514525 0
.1650938 .2514147 0
.2063101 .2515559 0
.2467637 .2520794 0
.2872158 .2528351 0
.3272733 .2536041 0
.3676201 .253566 0
.406373 .2542239 0
.4447766 .2540261 0
.4822088 .2543879 0
.5188926 .2548684 0
.5548361 .2554858 0
.5902281 .2553851 0
.6246825 .2547605 0
.6587046 .2541242 0
.6918945 .2537583 0
.7240282 .2534701 0
.7549735 .2531828 0
.7846879 .2528192 0
.813264 .2525504 0
.8406813 .252089 0
.8669763 .2513919 0
.8921612 .2502664 0
.9164148 .2504375 0
.9396894 .2497715 0
.9619055 .249896 0
.9834321 .2494584 0
.9999999 .2492788 0
.9999999 .2491739 0
.9999999 .2491739 0
0 .2884084 0
.00439628 .2881956 0
.0686651 .2880555 0
.1249609 .2874271 0
.1673841 .2877449 0
.2077466 .2881916 0
.2474532 .2888275 0
.2870874 .2899836 0
.3276753 .2902493 0
.3675217 .2903857 0
.4066578 .290711 0
.444713 .2911572 0
.482574 .291159 0
.5193283 .2915685 0
.5551122 .2919322 0
.5903205 .2918355 0
.6249724 .2917418 0
.6592196 .2914485 0
.6924236 .2912551 0
.724491 .2910475 0
.7553056 .290735 0
.7850096 .2904173 0
.8136061 .2901317 0
.8409968 .2899075 0
.8671813 .28916 0
.8924987 .2887844 0
.9168158 .2889076 0
.9400545 .2882058 0
.9622008 .2885778 0
.9836463 .2885894 0
.9999999 .2881252 0
.9999999 .2880172 0
.9999999 .2880172 0
0 .3245668 0
.00922767 .3245524 0
.07200139 .3244376 0
.123589 .3242927 0
.1694473 .3242543 0
.2089153 .3245603 0
.2488104 .3249338 0
.2888989 .3255961 0
.3292916 .3257327 0
.3690151 .3257529 0
.4068465 .3268369 0
.4450953 .3271112 0
.4827782 .3278246 0
.5196652 .3279401 0
.555505 .328193 0
.5908143 .3283109 0
.6253886 .3285795 0
.659762 .32832 0
.6929238 .3281232 0
.724817 .3278953 0
.755623 .3276481 0
.7853198 .3273966 0
.8139113 .3271687 0
.8413427 .3265613 0
.8675339 .3261766 0
.8928654 .3265387 0
.9171516 .3267354 0
.9403844 .3262464 0
.9625441 .326419 0
.9839703 .3259509 0
.9999999 .3254653 0
.9999999 .3253717 0
.9999999 .3253717 0
0 .3611781 0
.01334522 .3611462 0
.07385627 .3611023 0
.123902 .3610331 0
.1676956 .3612228 0
.2083288 .361588 0
.2496319 .3616204 0
.2901375 .3616698 0
.3308469 .3614299 0
.3706642 .3611611 0
.4095729 .3612438 0
.4460965 .3631687 0
.4832678 .3638226 0
.5198982 .36403 0
.5560513 .3643276 0
.5914155 .3645517 0
.6262201 .3646016 0
.6603704 .3644961 0
.6934593 .364322 0
.7251856 .3640934 0
.7559724 .3638754 0
.785652 .363654 0
.8141816 .3631581 0
.8415425 .3629642 0
.8678874 .3634465 0
.8931472 .3638686 0
.9174984 .3635293 0
.9407064 .3632522 0
.9628051 .3631827 0
.9842059 .3627313 0
.9999999 .3622829 0
.9999999 .3621801 0
.9999999 .3621801 0
0 .3969514 0
.01646775 .3968875 0
.07661613 .3968153 0
.1262703 .3967195 0
.1699288 .3968539 0
.2096725 .3973757 0
.2495655 .3976057 0
.2907412 .3974922 0
.3312406 .3974099 0
.3709437 .3974756 0
.4098754 .3976215 0
.4481686 .3980357 0
.48428 .3990085 0
.5205354 .3994682 0
.5565721 .3997731 0
.5918248 .4001874 0
.6270775 .4001725 0
.6610001 .4001019 0
.693837 .399793 0
.7255929 .3995649 0
.7563561 .3993439 0
.7859452 .3991235 0
.8143795 .3992769 0
.8417717 .3997763 0
.8680913 .400212 0
.8934641 .4002931 0
.9178617 .3994205 0
.9409898 .3988991 0
.9631073 .3989002 0
.9844211 .3987294 0
.9999999 .3985643 0
.9999999 .3985038 0
.9999999 .3985038 0
0 .4326694 0
.00105609 .4326828 0
.06467411 .4326947 0
.1177018 .4326933 0
.1650573 .4326414 0
.2097023 .4325819 0
.248595 .4332258 0
.2902234 .4331774 0
.3315931 .4330176 0
.3712677 .4330647 0
.4102908 .4332387 0
.4484001 .4334501 0
.4854855 .4335559 0
.5216591 .4341225 0
.5572304 .434605 0
.5926732 .4349469 0
.6275067 .435115 0
.6615622 .4350858 0
.6941853 .4348952 0
.7259187 .4347128 0
.7566294 .434445 0
.7861657 .434812 0
.8146086 .435283 0
.8419628 .4357265 0
.8683034 .4359114 0
.8936239 .4359244 0
.9181286 .4345663 0
.9412563 .4342197 0
.9633449 .4340481 0
.9846498 .4338943 0
.9999999 .4337593 0
.9999999 .4337363 0
.9999999 .4337363 0
0 .4678035 0
0 .4678212 0
.04974761 .467841 0
.1099125 .4678692 0
.1597381 .467907 0
.2057096 .4679545 0
.2472761 .4683353 0
.288939 .4684851 0
.3300756 .4683791 0
.3712951 .4681184 0
.4105572 .4681445 0
.4485611 .4680979 0
.4859542 .4682869 0
.522418 .4685184 0
.5583643 .4686378 0
.5934712 .4692498 0
.6279891 .4697438 0
.6615272 .4697959 0
.6941593 .469777 0
.7262041 .4697776 0
.7567843 .4700662 0
.786296 .4703371 0
.8148127 .4704663 0
.8421429 .470614 0
.8684845 .470533 0
.8937896 .4703695 0
.9183783 .4690764 0
.9415361 .4688455 0
.9636293 .468545 0
.9849147 .4682611 0
.9999999 .4681835 0
.9999999 .4680491 0
.9999999 .4680491 0
0 .5023824 0
0 .5024006 0
.03273279 .5024161 0
.1016748 .5024382 0
.1543338 .5024676 0
.2018009 .5025046 0
.2466278 .5025498 0
.2880298 .5028633 0
.3285248 .5030429 0
.369604 .5029117 0
.4100909 .5026 0
.4484144 .5027058 0
.4858491 .5028827 0
.5224304 .5031155 0
.5589876 .5029324 0
.5943549 .5031365 0
.6283962 .5036662 0
.6615059 .5039846 0
.6940673 .5043022 0
.7260281 .5046464 0
.7568738 .504865 0
.7865306 .504914 0
.814894 .5048415 0
.8422444 .504568 0
.8687043 .5039356 0
.894161 .5031511 0
.9184454 .5028557 0
.9417523 .5024814 0
.9639638 .5022733 0
.9851738 .5019748 0
.9999999 .5017987 0
.9999999 .5017805 0
.9999999 .5017805 0
0 .5363274 0
0 .5363436 0
.01737356 .5363618 0
.09380125 .5363876 0
.1489727 .5364242 0
.197512 .5364718 0
.2430963 .5365352 0
.2857918 .5367817 0
.3273097 .5370545 0
.3680705 .5370312 0
.4090599 .536808 0
.4483836 .5366819 0
.4857153 .5368505 0
.5223525 .5370485 0
.5589719 .536935 0
.594869 .5365421 0
.6288981 .5365226 0
.6618236 .5372931 0
.6942437 .5378939 0
.7259773 .5379922 0
.7568869 .5378832 0
.7866458 .5376045 0
.8151811 .5373571 0
.842576 .5370966 0
.8688899 .5368151 0
.8942242 .5365036 0
.9184682 .5362688 0
.9416252 .535973 0
.9642071 .5353393 0
.9853683 .5350674 0
.9999999 .5350426 0
.9999999 .5350844 0
.9999999 .5350844 0
0 .569048 0
0 .5690642 0
.00768705 .5690826 0
.08866388 .569109 0
.145975 .5691431 0
.1959301 .5691785 0
.2423643 .5692208 0
.2866633 .5692964 0
.3280167 .569528 0
.3682302 .5696468 0
.4077774 .5695589 0
.4477088 .5693731 0
.4859272 .569352 0
.5227787 .5694674 0
.5591524 .5694739 0
.5948726 .5693104 0
.6295251 .5690957 0
.6622842 .5696464 0
.6945947 .5702946 0
.7260316 .5706691 0
.7568928 .5702408 0
.7863472 .5701334 0
.8149428 .5698826 0
.8425397 .5696268 0
.8690698 .5694516 0
.8942191 .5692025 0
.9183332 .5689495 0
.9415509 .5686631 0
.9642032 .5684093 0
.9856543 .5680079 0
.9999999 .5678657 0
.9999999 .5678173 0
.9999999 .5678173 0
0 .6006598 0
0 .600678 0
.00630335 .6006982 0
.08801488 .6007291 0
.1458164 .6007729 0
.1957862 .6008287 0
.2422776 .6008996 0
.2864814 .6009766 0
.3289097 .6010621 0
.3681862 .6014197 0
.4075176 .6013969 0
.4464223 .6013482 0
.4858888 .6012495 0
.5237431 .6013442 0
.5596716 .6015304 0
.5948867 .6015733 0
.6295844 .6012944 0
.6629443 .601173 0
.69502 .6015516 0
.7262366 .6020036 0
.7566013 .6022522 0
.7864024 .6017198 0
.8147399 .6015776 0
.8423235 .6013659 0
.8687406 .601074 0
.8941205 .6008295 0
.9183884 .6006553 0
.9416753 .6005766 0
.9642276 .6005138 0
.9856654 .6003918 0
.9999999 .6000744 0
.9999999 .5999863 0
.9999999 .5999863 0
0 .6315993 0
0 .6316184 0
.00378412 .6316398 0
.08682329 .6316707 0
.1452538 .6317066 0
.1954947 .631749 0
.2420144 .6318011 0
.2860239 .6318704 0
.3285281 .6319622 0
.3688964 .6323296 0
.4084512 .6324733 0
.4475627 .6324506 0
.4859785 .6325649 0
.5241979 .6324818 0
.5601464 .63262 0
.5951793 .6326261 0
.6297038 .6322981 0
.6632801 .6320254 0
.6955917 .632044 0
.7266324 .6324064 0
.75669 .6328866 0
.7859989 .6329918 0
.8146592 .632502 0
.8418699 .6322299 0
.8683339 .6319485 0
.8937461 .6318177 0
.9181685 .6317564 0
.9417518 .6316984 0
.964354 .6316122 0
.9856246 .6315187 0
.9999999 .6314411 0
.9999999 .6314647 0
.9999999 .6314647 0
0 .661681 0
0 .6616973 0
.00322481 .6617226 0
.08739119 .6617505 0
.1461806 .6617877 0
.1966967 .661835 0
.2431726 .6619096 0
.2873349 .6620331 0
.3299457 .6621845 0
.3713466 .6623516 0
.4098609 .6627402 0
.4486077 .6627791 0
.4863518 .6627738 0
.5234872 .662732 0
.5607918 .6624644 0
.5957915 .6624276 0
.6300739 .6622312 0
.6638414 .6618991 0
.6961464 .6619144 0
.7270582 .6620227 0
.7568203 .6623697 0
.7859156 .6628011 0
.8142833 .6627752 0
.8418368 .6623761 0
.8683655 .6620202 0
.8935565 .6620851 0
.9179919 .6620049 0
.9417116 .6618593 0
.9643139 .6617589 0
.9857437 .661692 0
.9999999 .6617709 0
.9999999 .6618298 0
.9999999 .6618298 0
0 .691137 0
0 .6911573 0
.01083102 .6911849 0
.09155417 .6912242 0
.1485716 .6912853 0
.1979046 .6913748 0
.2439131 .6914835 0
.2878898 .6916116 0
.330339 .6917674 0
.3717609 .6918355 0
.4107134 .6921296 0
.4488343 .6921356 0
.4865586 .6920155 0
.5233387 .6919653 0
.5600439 .6918291 0
.5962027 .6915352 0
.630445 .6914521 0
.6640886 .6912716 0
.6962261 .6912873 0
.7272825 .6912017 0
.7574472 .6910075 0
.7861684 .6914853 0
.8143073 .691868 0
.8417714 .6918798 0
.8682384 .691806 0
.893872 .6913769 0
.9179401 .691484 0
.9417975 .6912984 0
.9642891 .6910515 0
.9856929 .6908948 0
.9999999 .6909881 0
.9999999 .6910427 0
.9999999 .6910427 0
0 .7199922 0
0 .720011 0
.01056746 .7200401 0
.09135029 .7200686 0
.147502 .7201505 0
.1973531 .720165 0
.2436857 .7201824 0
.2878657 .7201867 0
.3305518 .7202021 0
.3718095 .7202323 0
.4119393 .7202661 0
.4492525 .720539 0
.4866681 .7204883 0
.5235211 .7204361 0
.5592173 .7204875 0
.595445 .7201837 0
.6305768 .7198858 0
.6642177 .7195939 0
.6964138 .7196005 0
.7275646 .7193961 0
.7579224 .7191827 0
.7871162 .7192321 0
.8147997 .7199153 0
.8419133 .720327 0
.8683153 .7203369 0
.8937525 .7203471 0
.9185171 .7198551 0
.9419872 .7195382 0
.9640461 .7195383 0
.9854206 .7194326 0
.9999999 .7193593 0
.9999999 .7193946 0
.9999999 .7193946 0
0 .747845 0
0 .7478345 0
.0015842 .7478225 0
.08654154 .7478054 0
.1451755 .747889 0
.1957908 .7479246 0
.2430154 .7478352 0
.2874608 .7477881 0
.3299826 .7478006 0
.3713386 .7477939 0
.4115457 .7478317 0
.4491199 .7480661 0
.4868312 .7479631 0
.5236935 .7478097 0
.5595638 .7477747 0
.594616 .7477581 0
.6305094 .747365 0
.6642247 .7471673 0
.6965773 .7470022 0
.7281344 .7468204 0
.7584513 .7468202 0
.78769 .746831 0
.815787 .7469116 0
.8425331 .7475363 0
.8686553 .7478228 0
.8940955 .7477841 0
.9185018 .7477145 0
.941723 .7474286 0
.9640306 .7471484 0
.9851986 .7471216 0
.9999999 .7469766 0
.9999999 .7469574 0
.9999999 .7469574 0
0 .7747338 0
0 .7747198 0
0 .7747039 0
.08105274 .7746811 0
.1420219 .7746505 0
.1934912 .7746091 0
.240777 .7745343 0
.2857029 .7744464 0
.3289301 .7743452 0
.3706278 .7742839 0
.4107631 .7742974 0
.4499432 .7743208 0
.4869485 .7744834 0
.5239453 .7743276 0
.5599802 .7742471 0
.5951924 .7742274 0
.629608 .7741834 0
.6646036 .773886 0
.6969977 .7737727 0
.7285112 .7736897 0
.7589196 .7736304 0
.7882483 .7736558 0
.8164214 .7736592 0
.8435062 .7737461 0
.8692195 .774219 0
.8942098 .7744364 0
.9182833 .7744575 0
.9415002 .7744488 0
.9638173 .7742762 0
.9851777 .7739158 0
.9999999 .7734295 0
.9999999 .7733892 0
.9999999 .7733892 0
0 .8005719 0
0 .8005565 0
0 .8005375 0
.07067692 .8005104 0
.1361933 .8004711 0
.1893989 .8004165 0
.2377245 .8003411 0
.2832803 .8002517 0
.3269357 .8001503 0
.3690162 .8000472 0
.4099293 .7999326 0
.4495569 .7999213 0
.4870344 .8000969 0
.5240232 .8000234 0
.5601804 .7999099 0
.5955409 .800005 0
.630025 .8001233 0
.6638585 .8000585 0
.6973873 .799776 0
.7289275 .7997532 0
.7593378 .799685 0
.7886882 .7996224 0
.8169945 .7995899 0
.8441086 .7995926 0
.8699496 .7997118 0
.894461 .7999969 0
.9181783 .8003793 0
.9413437 .8003299 0
.9636207 .8001359 0
.9849387 .7998722 0
.9999999 .7993426 0
.9999999 .7992556 0
.9999999 .7992556 0
0 .8254882 0
0 .8254704 0
0 .8254507 0
.06312916 .8254221 0
.1321768 .8253843 0
.1865819 .8253365 0
.2355038 .8252782 0
.2813854 .8252017 0
.3252236 .8251145 0
.3675569 .8250158 0
.4088525 .8249097 0
.4490011 .82479 0
.487824 .8247455 0
.5244117 .8249385 0
.5605369 .8249919 0
.5960454 .8250772 0
.6305016 .8252287 0
.6635947 .825344 0
.6968164 .8252403 0
.729176 .8249292 0
.7596518 .8249136 0
.7890369 .8248889 0
.8172845 .8248473 0
.8443538 .8248013 0
.8702573 .8248163 0
.8947712 .8249362 0
.9185575 .8249429 0
.941215 .8251184 0
.96343 .8248608 0
.9847538 .8246073 0
.9999999 .8243578 0
.9999999 .8243003 0
.9999999 .8243003 0
0 .8495617 0
0 .8495447 0
0 .8495257 0
.05603185 .8494982 0
.1285604 .8494616 0
.1839876 .8494191 0
.2333249 .8493733 0
.2794842 .8493192 0
.3236165 .8492375 0
.3663435 .8491507 0
.4079741 .8491255 0
.4484906 .8490666 0
.4875518 .8490685 0
.5251042 .8490707 0
.5609978 .8492771 0
.5966085 .8493483 0
.6306187 .84948 0
.6638147 .8496257 0
.6961073 .8498227 0
.7287617 .8496239 0
.7596909 .8493623 0
.7890299 .8492123 0
.8173129 .8491488 0
.8444704 .8490697 0
.8702233 .8489286 0
.8949214 .8487955 0
.9186278 .8487752 0
.9416273 .8485117 0
.9632557 .8487582 0
.9845676 .848514 0
.9999999 .8482737 0
.9999999 .8482181 0
.9999999 .8482181 0
0 .8728282 0
0 .872813 0
0 .8727982 0
.04698358 .8727785 0
.1240098 .8727525 0
.1808579 .8727363 0
.2311827 .8727423 0
.277989 .8727497 0
.3225325 .8727581 0
