luts/Timeless_33.cube
# 3D LUT of size 33x33x33 converted by Filestar.
#   Input:
#     color space: sRGB
#     white point: default (D65)
#     transfer function: default (sRGB)
#   Output:
#     color space: sRGB
#     white point: default (D65)
#     transfer function: default (sRGB)
#   Exposure: +0.41
#   Contrast: -26
#   Whites: -7
#   Blacks: -33
#   Vibrance: +15
#   Saturation: +5
LUT_3D_SIZE 9
.01974648 .02330076 .01034555
.0801399 .01191263 .01212199
.2645149 0 0
.4197053 0 0
.56121 0 0
.688852 0 0
.8096403 0 0
.9160124 0 0
.9999999 0 0
0 .1040243 0
.1164358 .100662 0
.2690527 .1042392 0
.4210832 .1053954 0
.5616803 .09647507 0
.6892003 .0984586 0
.8099858 .07199573 0
.9168112 .01034498 0
.9999999 0 0
0 .2705235 0
.09497768 .2699367 0
.2757113 .2669716 0
.4243705 .2655427 0
.5610885 .2665622 0
.6902369 .2645676 0
.8093175 .2626419 0
.9141231 .2563989 0
.9999999 .2494926 0
0 .4209931 0
.0902425 .420022 0
.2731151 .4195524 0
.4237498 .4171399 0
.5619333 .4175033 0
.6906157 .4174664 0
.8106346 .4125494 0
.9139649 .4128137 0
.9999999 .4086457 0
0 .5604746 0
.00547236 .5600573 0
.2574866 .5591508 0
.4198025 .5579134 0
.5603712 .5567988 0
.6883285 .5583853 0
.8078408 .5576993 0
.9152916 .5537171 0
.9999999 .5502052 0
0 .6904948 0
0 .6905084 0
.2110402 .6904815 0
.397436 .6902304 0
.5555714 .6888639 0
.6877313 .6878508 0
.8047608 .6862931 0
.9120185 .6842248 0
.9999999 .6820408 0
0 .8064457 0
0 .806373 0
.1764854 .8065543 0
.3824917 .8063365 0
.5457655 .8045578 0
.6846135 .8038451 0
.8072213 .8017692 0
.9088259 .8007625 0
.9999999 .7984811 0
0 .9102119 0
0 .9101081 0
.1244098 .909839 0
.3626645 .9097983 0
.5261974 .9096561 0
.6704965 .908237 0
.7975887 .9072807 0
.910017 .9053259 0
.9999999 .9047888 0
0 .9999999 0
0 .9999999 0
0 .9999999 0
.2970928 .9999999 0
.4987477 .9999999 0
.6598933 .9999999 0
.7875189 .9996806 0
.9014413 .9992513 0
.9986046 .9993483 0
0 .01478636 .1023035
.1108393 0 .1036528
.2745365 0 .1090948
.4278769 0 .1059428
.5671667 0 .09743803
.6940794 0 .06335312
.8151702 0 .02361423
.9199585 0 0
.9999999 0 0
0 .09866571 .1022063
.1129617 .09585489 .1022108
.2775536 .09087168 .09749951
.4273827 .08501237 .0972259
.5662374 .06027198 .08701704
.6938172 .04090521 .04332475
.814535 0 0
.9200429 0 0
.9999999 0 0
0 .2717976 .0649763
.08903531 .2718207 .05535562
.2749635 .2696631 .06074902
.4259746 .2656994 .07705074
.5637729 .2624905 .05789412
.6927858 .2590296 .01114773
.8120885 .2517289 0
.9167154 .2419382 0
.9999999 .2319443 0
0 .4239283 .00247837
.02727591 .4234697 0
.2674051 .4213748 0
.4242215 .4184878 0
.565596 .4173089 0
.6920946 .4158819 0
.8111734 .4109547 0
.9151259 .407677 0
.9999999 .4018625 0
0 .5620902 0
0 .5616805 0
.2456226 .5610098 0
.4169486 .5593761 0
.56145 .5576023 0
.6911694 .5584194 0
.8093969 .5565129 0
.9163332 .551634 0
.9999999 .5485073 0
0 .6911567 0
0 .6912414 0
.1998608 .6913021 0
.3935844 .6909859 0
.5551533 .6895916 0
.6886653 .6881875 0
.8065478 .6860698 0
.9137117 .683391 0
.9999999 .6806651 0
0 .8071826 0
0 .8070648 0
.1668063 .8069116 0
.3775219 .8070229 0
.5435683 .805427 0
.683376 .8045726 0
.8078641 .8020331 0
.9108288 .8002744 0
.9999999 .7978339 0
0 .910596 0
0 .910498 0
.1046604 .910255 0
.3587381 .9099405 0
.5251688 .909894 0
.669158 .9086766 0
.7969912 .9076505 0
.9107537 .905329 0
.9999999 .9042183 0
0 .9999999 0
0 .9999999 0
0 .9999999 0
.2886403 .9999999 0
.4967524 .9999999 0
.658727 .9999999 0
.7869377 .9999079 0
.9009556 .9993888 0
.9994537 .9991433 0
0 0 .2767115
.1119647 0 .2774978
.2825126 0 .2781523
.4318818 0 .2769835
.5690868 0 .2701362
.6977371 0 .2622221
.8176069 0 .2544081
.9203025 0 .2447898
.9999999 0 .2342762
0 .1015282 .2760383
.09219187 .09581564 .2760912
.2828051 .07805266 .2750994
.4332375 .05932458 .2737321
.5683054 .03673962 .2651831
.6967409 0 .25685
.8167101 0 .2490059
.920738 0 .2391346
.9999999 0 .2294474
0 .27017 .2712097
.06873776 .2686733 .270585
.2730824 .266302 .2677308
.4297818 .2608458 .2645725
.5666767 .2576745 .2589143
.6941152 .2549729 .2488089
.8143213 .2441386 .2393597
.91917 .2309927 .2320501
.9999999 .2171678 .2213248
0 .4243624 .2584886
0 .4238661 .2560151
.2524252 .4225116 .2515865
.422617 .4189484 .2470973
.5672414 .4151788 .2420764
.6950344 .4120237 .2406773
.8125357 .4087222 .228929
.9178606 .4022031 .2214807
.9999999 .3946368 .1996148
0 .5636402 .2276143
0 .5632201 .2260429
.2252024 .5630018 .2192072
.4102373 .5612678 .2132191
.5631409 .5587666 .2107507
.6961075 .5571459 .2091507
.8120524 .553535 .2120241
.9180399 .5479293 .1884471
.9999999 .5439255 .1647544
0 .6923772 .1901111
0 .6924999 .1877343
.1676407 .692844 .1807393
.3849036 .6930479 .1826564
.5528919 .6913414 .1710314
.6903936 .6893242 .1591359
.8094593 .6858484 .1489299
.9179976 .6810611 .132483
.9999999 .6771801 .1008759
0 .8089021 .1143721
0 .8088781 .1102698
.1271157 .8082034 .09636109
.3626529 .8086024 .0832312
.537319 .8067573 .0743505
.6825027 .8058861 .09619281
.8070691 .803659 .07191917
.9132653 .8004201 0
.9999999 .7959077 0
0 .9115647 0
0 .9116117 0
0 .9112816 0
.3416619 .9109797 0
.5183558 .9107738 0
.665602 .9097295 0
.7963865 .9083534 0
.9103944 .9062263 0
.9999999 .9039774 0
0 .9999999 0
0 .9999999 0
0 .9999999 0
.2667286 .9999999 0
.4917481 .9999999 0
.6555277 .9999999 0
.7844438 .9999999 0
.9005727 .9996955 0
.999271 .9992507 0
0 0 .4305423
.1202964 0 .4300195
.2879335 0 .4309179
.4325216 0 .4292626
.5710831 0 .4275146
.699263 0 .4255543
.8172379 0 .4190967
.9200935 0 .4108493
.9999999 0 .4048472
0 .08982184 .4319983
.0603741 .08330642 .4318784
.2740713 .06230038 .4318877
.432968 .03774125 .4299361
.5723953 0 .4264399
.6988999 0 .4222499
.8174245 0 .4156648
.9204952 0 .4080699
.9999999 0 .402211
0 .2621941 .4298036
.00667112 .2594875 .4293168
.260377 .2561171 .4279381
.4290432 .2519283 .426665
.5703158 .2516814 .4195813
.6975021 .2453409 .4158903
.8151528 .2335096 .408563
.9210019 .2187686 .4026642
.9999999 .2002778 .394589
0 .4216429 .4236069
0 .4215075 .4231161
.2399986 .4206977 .4213996
.4175199 .4169381 .4170405
.5637786 .4133719 .4121958
.6926611 .411748 .4077848
.8127685 .4065458 .4023993
.9195749 .3973891 .3954683
.9999999 .3861466 .3851662
0 .5628052 .4079143
0 .5623952 .4062958
.2065889 .5621138 .4034406
.398218 .5608563 .4002339
.5625246 .5590222 .3951566
.6969198 .5554772 .3895466
.8121912 .551669 .3925206
.9188212 .5445886 .3839672
.9999999 .5392853 .3723148
0 .6933241 .3861356
0 .6932843 .3850268
.1164145 .6937209 .3827339
.3721818 .6938578 .3802391
.5489635 .69204 .3741006
.6901203 .6894261 .3642616
.8137521 .6837676 .357638
.9219332 .6792116 .3514025
.9999999 .6741778 .3486169
0 .8093683 .3563472
0 .8093123 .3545466
0 .8094129 .3494503
.3424266 .8095586 .3407255
.5256515 .8087482 .3350839
.6775762 .8072863 .3369253
.805145 .8049735 .3274075
.9165618 .8001018 .3126481
.9999999 .7936679 .2934762
0 .9123341 .3089522
0 .9123647 .307025
0 .9121911 .3037175
.3099097 .9124364 .2959058
.5072633 .9116293 .284538
.6601803 .9105785 .2778246
.7950286 .9087315 .2803225
.910929 .9068693 .2650434
.9999999 .9035422 .2402747
0 .9999999 .2320274
0 .9999999 .2286477
0 .9999999 .2199949
.2009921 .9999999 .2084059
.4648185 .9999999 .2040736
.6413594 .9999999 .1912159
.7783483 .9999999 .1623245
.8983947 .9999999 .1577882
.999911 .9999999 .09482247
0 0 .5690901
.1364115 0 .5690207
.2862322 0 .5696579
.4339327 0 .5695928
.5735488 0 .5679064
.701147 0 .5656621
.8170968 0 .56482
.9204327 0 .5613514
.9999999 0 .5548585
0 .05262441 .5701876
.07062925 .03554797 .5700902
.2767898 .00492364 .5699203
.4306493 0 .5696257
.5737591 0 .5684388
.7033015 0 .5654962
.8180298 0 .5634475
.920686 0 .5591183
.9999999 0 .5528075
0 .2558465 .5691934
0 .2524172 .5692452
.2533993 .245424 .569284
.4232649 .2389236 .5691284
.5716258 .2344247 .5681474
.704244 .2218584 .5642943
.8188011 .2170484 .5586766
.9211615 .2047147 .5543299
.9999999 .1776555 .5485575
0 .4128126 .5681438
0 .4108518 .5684987
.2282253 .4075527 .5680619
.4080503 .404664 .5673707
.5647572 .4031343 .5646831
.6989532 .4009564 .5580776
.8181692 .3951664 .5526672
.9203131 .387447 .5480571
.9999999 .3797019 .5425996
0 .561333 .5624859
0 .560922 .5621087
.2019834 .5596188 .5614535
.3981836 .5570428 .5585958
.5584481 .5548682 .5539273
.6909454 .553896 .5490987
.8099689 .549381 .5460525
.918068 .5436705 .5409682
.9999999 .5378674 .5351486
0 .6932763 .5473906
0 .6935565 .5467435
.09337988 .6935689 .5442386
.3661796 .6924709 .5396087
.5407999 .689971 .5377426
.6894807 .6874959 .5338712
.8132483 .681795 .5284394
.9182649 .6770578 .5332834
.9999999 .6724578 .5256284
0 .8102432 .5282463
0 .8101683 .5272221
0 .8101074 .5246993
.3230207 .8094682 .5230049
.5171086 .808197 .5193499
.6772844 .8067043 .5162026
.8060967 .8046288 .5099261
.9198841 .7984567 .4994837
.9999999 .7923948 .4913984
0 .9130644 .5032104
0 .9130424 .5018067
0 .91246 .4985718
.2910148 .9119867 .4935353
.4968257 .9112743 .4888103
.6587031 .9103551 .4849746
.7950239 .9091232 .4830319
.9100813 .907692 .4753253
.9999999 .903475 .4607462
0 .9999999 .4666146
0 .9999999 .4649922
0 .9999999 .4612383
.191486 .9999999 .4580889
.4615349 .9999999 .4547965
.6376037 .9999999 .4513184
.7764684 .9999999 .4391166
.8977664 .9999999 .4309726
.9999999 .9999999 .4130096
0 0 .7005618
.09947958 0 .7008393
.2749159 0 .700943
.4307325 0 .6999718
.5725769 0 .6981613
.7002887 0 .6967255
.8153842 0 .6957393
.9203159 0 .6939658
.9999999 0 .690764
0 .02022612 .7007728
.05541088 .00543806 .7006254
.2664499 0 .7003418
.427065 0 .6994643
.5699416 0 .6977426
.7019285 0 .6966242
.8172778 0 .6956796
.9212964 0 .6937327
.9999999 0 .6900131
0 .2474507 .6993178
0 .2444985 .6994799
.245974 .2359937 .6991197
.4197632 .2257179 .6982911
.5655931 .2193523 .6973053
.7025991 .2105719 .6975294
.8204309 .2006709 .6955956
.9240789 .1814804 .692442
.9999999 .1561243 .688096
0 .4054334 .6982467
0 .403705 .6982855
.205553 .3999775 .6981777
.401152 .3944432 .6976313
.5609882 .3885437 .69741
.7012661 .38456 .6964619
.8222986 .3756526 .6948975
.923677 .3750572 .6896185
.9999999 .3677775 .6831099
0 .5516124 .6965907
0 .5505357 .6965463
.1599517 .5486242 .6962513
.3782821 .5461344 .6956303
.547156 .5429767 .6951327
.6935669 .5425674 .6936448
.8151948 .5415361 .6885797
.9174922 .5394709 .6822795
.9999999 .534741 .6763011
0 .6910226 .6919195
0 .6908957 .6916606
.05186879 .6905937 .6909484
.3609114 .6894751 .689658
.5403082 .6861761 .6881214
.6836496 .6832097 .6836048
.8039667 .6819527 .6785391
.9136838 .6784301 .6760464
.9999999 .6734214 .671809
0 .8111434 .6771573
0 .8111684 .6765257
0 .8106971 .6752178
.3218501 .8097005 .6727346
.5140362 .8072521 .6686547
.6748689 .8040598 .6673506
.807216 .8011529 .6660118
.9153321 .797676 .6627273
.9999999 .7931972 .6628569
0 .9140668 .6607451
0 .9137973 .6602175
0 .9137195 .6586156
.2778915 .9127774 .6551301
.4865414 .9115384 .6525854
.6505764 .9100472 .6498776
.7946005 .9081692 .6469536
.9103427 .907161 .640216
.9999999 .9033167 .632799
0 .9999999 .6388646
0 .9999999 .6379644
0 .9999999 .6360173
.200748 .9999999 .6335185
.4614346 .9999999 .6294439
.6345188 .9999999 .6255315
.7767547 .9999999 .6219168
.8975275 .9999999 .6150522
.9999999 .9999999 .5989569
0 0 .8150001
.08272121 0 .8152357
.2718516 0 .8152761
.4234393 0 .8158153
.5651848 0 .8152696
.698145 0 .8146274
.8149225 0 .8131757
.9196303 0 .8118406
.9999999 0 .8097219
0 0 .8152153
.04399553 0 .8151765
.264206 0 .8153442
.4192352 0 .8159078
.5632576 0 .8154031
.6971316 0 .8147649
.8154463 0 .8136122
.9214264 0 .8120122
.9999999 0 .8091301
0 .2328279 .8151464
0 .2297095 .8151231
.2410271 .2228923 .8154109
.4093598 .2145594 .8158394
.5587184 .2034742 .8159936
.6948116 .1974881 .8153617
.8159372 .1888451 .8149468
.9236665 .1710077 .8119705
.9999999 .1464805 .809301
0 .3959902 .8138261
0 .3939478 .813922
.200033 .3896116 .8141612
.3919244 .3833366 .8143682
.5515435 .3772167 .814989
.6908998 .3729241 .8145822
.8173047 .3700859 .8138988
.9247714 .3626475 .8111902
.9999999 .3539991 .8072041
0 .5436425 .8126656
0 .5426381 .8127043
.1201491 .5400975 .8127662
.3691976 .536531 .8129417
.5400427 .5332701 .81268
.6849923 .5321974 .8122115
.8112951 .530641 .8112592
.9224629 .5261527 .808112
.9999999 .5234568 .8034636
0 .6811803 .8120375
0 .6806531 .8122061
0 .6795487 .8121604
.3547508 .6774297 .8107935
.5329683 .6757715 .8097194
.6769975 .6741576 .8083278
.8067391 .6745766 .8067892
.9150431 .6738715 .8023976
.9999999 .6711913 .7980664
0 .8073276 .80761
0 .8071479 .8076044
0 .8068203 .8074204
.3228928 .8052431 .8068345
.5181372 .8018932 .805435
.6768388 .8000981 .8031678
.8031153 .7989997 .7993816
.9089628 .7986038 .7960197
.9999999 .7956948 .7922171
0 .9154937 .7974592
0 .9152535 .7970794
0 .9147676 .7960813
.2709442 .9137851 .7943894
.4855321 .9117002 .7912598
.6520544 .9085072 .7867384
.7941516 .9063445 .784682
.9104599 .9044212 .7827734
.9999999 .9026161 .781036
0 .9999999 .7805768
0 .9999999 .7799425
0 .9999999 .7787746
.2041488 .9999999 .7777389
.4572154 .9999999 .7765519
.6316485 .9999999 .7728006
.7758798 .9995652 .770965
.8974901 .9995957 .7680302
.9995434 .9990022 .7634547
0 0 .9158928
.05254354 0 .9159281
.2631543 0 .9158072
.4184779 0 .916026
.5614431 0 .9163195
.6922178 0 .91623
.8125203 0 .9165462
.9163928 0 .9160336
.9999999 0 .9136766
0 0 .9159021
0 0 .9158699
.2513032 0 .9157677
.4124176 0 .9161156
.5585408 0 .916447
.6903133 0 .9165066
.8120974 0 .9171251
.9161454 0 .9167158
.9999999 0 .9136029
0 .2243893 .9157625
0 .2212723 .9157503
.2246742 .2138205 .9158351
.4007817 .2053656 .9162306
.5523087 .193037 .9166542
.68725 .1785764 .9170563
.8109153 .160835 .9177173
.9165113 .1409227 .9176747
.9999999 .09077775 .9137905
0 .3872845 .9150759
0 .3854095 .9150734
.18663 .3811952 .9154006
.3865171 .374854 .9160104
.5458649 .3688662 .9165479
.6849986 .362073 .9175932
.8091938 .354814 .9181957
.9199361 .3468803 .916833
.9999999 .3384186 .9141747
0 .5344578 .9149695
0 .5334241 .9150229
.1042977 .5311568 .9154601
.3622354 .5285894 .9157768
.5315942 .5266027 .9156084
.6760587 .5247204 .916344
.804423 .521144 .9163319
.9171047 .5175477 .9148915
.9999999 .5121679 .9125121
0 .6720996 .9147982
0 .6715646 .914771
0 .6705905 .9144792
.3433903 .6692523 .913778
.5191865 .668447 .9136177
.6673838 .666956 .9133556
.8006606 .6656547 .912888
.9123754 .6636158 .9116803
.9999999 .660041 .9098119
0 .7979009 .9135821
0 .7977831 .9135782
0 .797466 .9133523
.3035563 .7961518 .9127479
.5022056 .7951981 .9116806
.6630595 .7935027 .9100431
.7953913 .7922944 .9095998
.9121388 .791769 .9089911
.9999999 .7913578 .9062457
0 .9114993 .9098476
0 .911301 .9097473
0 .9106404 .9093217
.274246 .9091728 .9090894
.4922649 .907122 .9084461
.6545471 .9053254 .9071112
.7921382 .905359 .9049726
.9069098 .9043002 .9034211
.9993789 .9031171 .9027803
0 .9999999 .9016236
0 .9999999 .9015363
0 .9999999 .901319
.2091558 .9999999 .90105
.4651478 .9999999 .9001981
.6392344 .9999999 .898689
.7803741 .9986551 .8955734
.9004614 .9978656 .8927838
.9999053 .9974194 .8932785
0 0 .9999999
.00151362 0 .9999999
.2531912 0 .9999999
.4131511 0 .9999999
.5571262 0 .9999999
.6876515 0 .9999999
.8075479 0 .9999999
.9148542 0 .9999999
.9999999 0 .9999999
0 0 .9999999
0 0 .9999999
.239904 0 .9999999
.4065892 0 .9999999
.5539386 0 .9999999
.6863261 0 .9999999
.8063371 0 .9999999
.9151962 0 .9999999
.9999999 0 .9999999
0 .2140315 .9999999
0 .2103694 .9999999
.20744 .2014542 .9999999
.3935063 .1912769 .9999999
.5474059 .1774443 .9999999
.6833453 .1597188 .9999999
.804889 .1222423 .9999999
.9155638 .06854818 .9999999
.9999999 .02576458 .9999999
0 .3817487 .9999999
0 .380123 .9999999
.1548662 .3753818 .9999999
.3734881 .3684222 .9999999
.5357685 .3602867 .9999999
.6782606 .3534707 .9999999
.8023612 .3453189 .9999999
.9129185 .3330593 .9999999
.9999999 .3262847 .9999999
0 .5291574 .9999999
0 .5281342 .9999999
.05550028 .5252232 .9999999
.3482572 .5220135 .9999999
.5197278 .5195494 .9999999
.6670868 .5168115 .9999999
.7981023 .5120717 .9999999
.9104005 .5058442 .9999999
.9999999 .5037441 .9999999
0 .6638245 .9999999
0 .6633481 .9999999
0 .6618966 .9999999
.3310148 .6605926 .9999999
.5120476 .6589553 .9999999
.6580694 .6589205 .9999999
.7927105 .6582274 .9999999
.9109316 .6551103 .9999999
.9999999 .6529619 .9999999
0 .7889513 .9999999
0 .7888554 .9999999
0 .7887486 .9999999
.2869418 .788823 .9999999
.4918682 .7883255 .9999999
.655054 .7868069 .9999999
.7879135 .7853747 .9999999
.9082971 .7831734 .9999999
.9999999 .7820336 .9997252
0 .9021775 .9999999
0 .9024013 .9999999
0 .9028666 .9999999
.2517959 .9025325 .9999999
.4776208 .9017043 .9999999
.6395761 .9018176 .9992021
.7794874 .9013277 .9983343
.9002628 .9001845 .9975341
.9999999 .8988708 .9978369
0 .9999999 .9983556
0 .9999999 .9983596
0 .9999999 .9984407
.1708833 .9994226 .9985865
.461365 .9987512 .9979356
.63556 .9982359 .9972524
.7735222 .9989753 .9967864
.8949356 .9999999 .9969369
.9999999 .998732 .9970394
