luts/Timeless 40.cube
# 3D LUT of size 33x33x33 converted by Filestar.
#   Input:
#     color space: sRGB
#     white point: default (D65)
#     transfer function: default (sRGB)
#   Output:
#     color space: sRGB
#     white point: default (D65)
#     transfer function: default (sRGB)
#   Exposure: -0.01
#   Contrast: +6
#   Whites: +25
#   Blacks: -14
#   Vibrance: +22
LUT_3D_SIZE 33
0 .04420969 .02558548
.01025955 .03755287 .02259185
.03731764 .02720531 .0247297
.06962922 .02366038 .02416464
.09364546 .01534581 .02298947
.1214989 .00903693 .02360535
.1544164 0 .02309065
.18664 0 .02331026
.2193454 0 .02254739
.2529037 0 .01576469
.2871376 0 .00629063
.3203969 0 .00055444
.3536744 0 0
.3861083 0 0
.4184978 0 0
.4514122 0 0
.4854835 0 0
.5197638 0 0
.552809 0 0
.5852747 0 0
.6175569 0 0
.6503791 0 0
.683068 0 0
.7162901 0 0
.7495005 0 0
.7825012 0 0
.8156424 0 0
.8483109 0 0
.8809097 0 0
.913352 0 0
.9454879 0 0
.9773347 0 0
.9999999 0 0
.01622268 .03999377 .03369743
.01749201 .03231213 .02600656
.03268241 .02655739 .02039017
.07074537 .02554643 .02016713
.09389471 .02182072 .02220296
.1237593 .01880419 .02200706
.1572204 .01648913 .02098815
.1890388 .01435617 .02242118
.2216036 .01128452 .01617914
.2534245 .01493252 .00836553
.2865091 .01700278 .00146916
.3209897 .0183598 0
.3541462 .01921321 0
.3864574 .01947793 0
.4190441 .01685316 0
.4520424 .0147901 0
.4855739 .00794087 0
.519825 0 0
.5529816 0 0
.5853989 0 0
.617658 0 0
.6504836 0 0
.6831512 0 0
.7163767 0 0
.749593 0 0
.7825786 0 0
.8154398 0 0
.8483923 0 0
.8809752 0 0
.9134181 0 0
.9455894 0 0
.9774627 0 0
.9999999 0 0
.01869204 .0487657 .02581557
.0341734 .04037394 .020273
.0418702 .04411034 .01904996
.06937229 .05218839 .02031909
.09626663 .05125502 .02117008
.1278887 .04535111 .02125356
.1616048 .03922655 .01839649
.1912868 .04568958 .01749147
.2204882 .05489439 .01104997
.2527164 .05738103 .00299026
.2873072 .05827835 0
.3220359 .05796284 0
.3545849 .0581477 0
.3870278 .05762496 0
.4197441 .05527916 0
.4526833 .05352708 0
.4856917 .04930229 0
.5200968 .03472993 0
.5531276 .02429276 0
.5855547 .01986529 0
.6177433 .01210858 0
.6505646 .00382942 0
.6832294 0 0
.7164747 0 0
.7496963 0 0
.7826664 0 0
.8153186 0 0
.8484846 0 0
.8810396 0 0
.9134878 0 0
.945668 0 0
.9775464 0 0
.9999999 0 0
.00801827 .07741527 .01653307
.02051445 .07692065 .01739303
.04585589 .07679122 .01763475
.07204958 .07795452 .01613967
.09768469 .08093024 .0158847
.1292033 .08154691 .01408493
.1611636 .08364794 .01281845
.191892 .08692016 .0115413
.2215058 .09213897 .00655571
.2532952 .09626598 .00051538
.2885356 .09632648 0
.3225798 .09548088 0
.3553267 .09546771 0
.3881797 .09352205 0
.4207853 .09216268 0
.4535772 .09074617 0
.486441 .08813838 0
.5203815 .08066358 0
.5533448 .07459224 0
.5857385 .07196181 0
.6178492 .06799002 0
.6506723 .06197613 0
.6833422 .05850861 0
.716605 .05395396 0
.749833 .04807408 0
.7827901 .04136269 0
.8154503 .03659421 0
.8486608 .02110518 0
.8811415 .00788543 0
.9135857 0 0
.9457809 0 0
.9776691 0 0
.9999999 0 0
0 .1165622 .01283391
.01573535 .1169508 .01178315
.04129754 .1177447 .01129423
.07069612 .1187818 .0105983
.09979301 .1196665 .01089919
.1300076 .1208558 .00981083
.1618036 .1221921 .00779637
.1927929 .1245172 .00565737
.2258944 .1259916 .0022939
.2569417 .1298901 0
.2896369 .1317071 0
.3235709 .1307942 0
.3567793 .1293738 0
.3893836 .1281799 0
.4217484 .127442 0
.4543836 .1264538 0
.4868842 .1256983 0
.5206921 .1206934 0
.5536102 .1168805 0
.585888 .1156768 0
.6179971 .1133596 0
.6507924 .1098597 0
.6835215 .1091584 0
.7167754 .1064867 0
.7500087 .1029486 0
.7829472 .09941231 0
.8156246 .09673733 0
.8488197 .08886588 0
.8812823 .08176268 0
.9137128 .07378649 0
.9459348 .06679953 0
.9778389 .06164749 0
.9999999 .05650815 0
0 .1551557 .00592605
.01357947 .1556444 .00500354
.04179893 .1560509 .00397537
.07279182 .1566665 .00292848
.1038658 .1573168 .00156305
.1343615 .158133 .00049041
.1644973 .1590323 0
.1952268 .1607886 0
.228412 .1612329 0
.2614969 .1616451 0
.2914066 .1648763 0
.3246675 .1645868 0
.3581392 .1631601 0
.3903706 .1627004 0
.4224681 .1626347 0
.4548882 .1622634 0
.4872984 .1620545 0
.520927 .1589761 0
.5531359 .1585663 0
.5860103 .1557628 0
.6181774 .1538217 0
.6510686 .1520512 0
.6837503 .1522421 0
.7169965 .1503217 0
.7502196 .1475975 0
.7831476 .1451709 0
.8158407 .1433805 0
.8490154 .1385152 0
.8814615 .1339005 0
.9138747 .129022 0
.9461381 .1249547 0
.9780334 .1220638 0
.9999999 .1196273 0
0 .1919617 0
.02274104 .1919159 0
.05205222 .1919985 0
.08069288 .1922938 0
.1101441 .1928768 0
.1401745 .193653 0
.1705151 .194331 0
.2008739 .1949502 0
.2317739 .1953444 0
.2638926 .1954163 0
.2957602 .1959156 0
.3257872 .1989034 0
.3586155 .1989435 0
.3906543 .1987132 0
.4229145 .1984856 0
.4552736 .1983968 0
.487499 .1984951 0
.5210072 .1965609 0
.5534241 .1961366 0
.5860956 .1940993 0
.6184914 .1929543 0
.6512389 .1923642 0
.684012 .1922548 0
.7172908 .1905985 0
.7504681 .1884418 0
.7833874 .1867639 0
.8161131 .185562 0
.8492128 .1821862 0
.8816546 .1785865 0
.9140524 .1751912 0
.9463101 .1724114 0
.9782512 .1706935 0
.9999999 .168947 0
0 .2290915 0
.00577088 .2290748 0
.039089 .2290569 0
.07588138 .2290304 0
.1099682 .2290323 0
.1427272 .2290471 0
.173889 .229329 0
.2055027 .2294497 0
.2343735 .2305782 0
.264916 .2314328 0
.297024 .2321153 0
.329017 .2323746 0
.3594015 .2345793 0
.391247 .234883 0
.4233654 .234822 0
.4556476 .2343873 0
.487662 .2344323 0
.5199539 .2347321 0
.5536258 .2329378 0
.5855707 .2324071 0
.6189285 .2310418 0
.651354 .2312289 0
.6842714 .230882 0
.7174621 .2295129 0
.7506965 .2278115 0
.783595 .226486 0
.8163807 .2259127 0
.8488906 .2244633 0
.8818442 .2200727 0
.9142505 .2176278 0
.9464694 .2155923 0
.9785184 .2143998 0
.9999999 .2126199 0
0 .2672136 0
0 .2670706 0
.02388015 .2671854 0
.06337827 .2674139 0
.1005986 .2675945 0
.1355296 .2677659 0
.1719272 .2672568 0
.2054442 .2669931 0
.2362734 .267296 0
.2665156 .2679181 0
.2978014 .2683769 0
.3309905 .26778 0
.3629581 .2677671 0
.3927554 .2700734 0
.4239135 .2710133 0
.456012 .270743 0
.488329 .2706368 0
.5204338 .2708957 0
.5538442 .269368 0
.5856952 .2691564 0
.6184051 .2692031 0
.65157 .2686818 0
.6845043 .2686571 0
.7176992 .2676103 0
.7509199 .2661852 0
.7837918 .2651668 0
.816584 .2642404 0
.8490925 .2631607 0
.8820785 .2598822 0
.9144803 .2578937 0
.9465731 .2569442 0
.9788399 .2552536 0
.9999999 .2545347 0
0 .3043894 0
0 .3044828 0
0 .3047731 0
.04797834 .3046956 0
.09299701 .304757 0
.1330512 .3045365 0
.1699959 .304265 0
.2042052 .3040563 0
.2361187 .3040337 0
.2679752 .3040963 0
.3004564 .3037288 0
.3317104 .3035961 0
.3644086 .3030995 0
.3968367 .30311 0
.4261431 .3055766 0
.4568083 .3067963 0
.4890106 .3066616 0
.5210565 .3066806 0
.5537004 .3061968 0
.5864488 .3059055 0
.6190479 .3061388 0
.6520541 .3058755 0
.6848389 .3053777 0
.7183201 .3041931 0
.7514223 .3032987 0
.7840368 .3032953 0
.8167242 .3023515 0
.8492897 .3012078 0
.8820551 .299344 0
.9146366 .2973809 0
.9467326 .2966167 0
.9791066 .2954436 0
.9999999 .2948346 0
0 .3404602 0
0 .3404811 0
0 .3408318 0
.04077351 .3408183 0
.08978229 .3407506 0
.1305401 .3406181 0
.1678333 .3404548 0
.2033209 .3402736 0
.2364815 .3400941 0
.2688757 .3399469 0
.3012526 .3396543 0
.3337311 .3390356 0
.3656018 .3387936 0
.3980309 .338512 0
.4301016 .3390168 0
.4591175 .3417914 0
.4903997 .3424664 0
.5220431 .3424506 0
.5536762 .3428736 0
.5876499 .3420235 0
.6200963 .3426163 0
.6524618 .3429409 0
.6857604 .3417668 0
.7190139 .3403922 0
.7520334 .3396674 0
.7844805 .339832 0
.8168752 .3396886 0
.8494604 .3388583 0
.8819111 .3382121 0
.9146279 .3367266 0
.946945 .335709 0
.9793349 .3346542 0
.9999999 .3340712 0
0 .3771362 0
0 .3771038 0
0 .3773749 0
.02559698 .3772621 0
.0814201 .3771104 0
.1256936 .3768141 0
.165263 .3764706 0
.2022505 .3761545 0
.2373097 .3758461 0
.2703412 .3755497 0
.3022888 .3754468 0
.334494 .3753162 0
.3666651 .3752642 0
.3984365 .3754451 0
.4302978 .3756144 0
.4623802 .3759061 0
.4917231 .3783836 0
.5236654 .3783112 0
.5551155 .3784396 0
.5885785 .3781374 0
.6210799 .3786111 0
.6535162 .3789138 0
.6863933 .3784325 0
.7199478 .3768724 0
.7527031 .3761596 0
.7849734 .3760399 0
.8173769 .3758129 0
.8496396 .3761076 0
.8817938 .3767722 0
.9143998 .3762513 0
.9470515 .3746525 0
.9795087 .373235 0
.9999999 .3725784 0
0 .4139647 0
0 .41397 0
0 .4142244 0
0 .4141741 0
.06180938 .4140915 0
.1123905 .4139952 0
.1563617 .413686 0
.1953174 .4134322 0
.232328 .413118 0
.2673403 .4127761 0
.3005527 .4125433 0
.3334983 .4123186 0
.365866 .412259 0
.3977606 .4126401 0
.4299273 .4128813 0
.4621263 .4131262 0
.4940072 .4130499 0
.5241983 .4143523 0
.557033 .4143654 0
.5892953 .4150065 0
.6220993 .4145292 0
.6543077 .4148983 0
.6873077 .4144522 0
.7204376 .4138555 0
.7534503 .4127097 0
.7857107 .4123818 0
.8177848 .4124652 0
.8500213 .4130122 0
.8821812 .4136382 0
.9145076 .4139423 0
.9472556 .4126635 0
.979554 .4117139 0
.9999999 .4107981 0
0 .4509776 0
0 .4510342 0
0 .4511293 0
0 .451082 0
.04522754 .451019 0
.1029482 .4509386 0
.1475941 .4508395 0
.1874552 .4507208 0
.2281145 .4501499 0
.2638533 .449885 0
.2989501 .4496922 0
.3323277 .4495772 0
.3651233 .4495723 0
.397328 .4498209 0
.4294231 .4501318 0
.4613191 .4504004 0
.4932847 .4502289 0
.5259937 .4502099 0
.557721 .4507071 0
.5900331 .4510375 0
.6228618 .4510208 0
.6557588 .4509678 0
.6879419 .4508776 0
.7208371 .4504721 0
.7534255 .4503157 0
.7861794 .4498894 0
.8182288 .4500119 0
.8503977 .4500682 0
.8829381 .4501572 0
.9151539 .4505643 0
.9474528 .4502141 0
.9797181 .4489278 0
.9999999 .4482861 0
0 .4878042 0
0 .4879144 0
0 .4878843 0
0 .4878525 0
.02455932 .4878098 0
.09267532 .4877553 0
.1407592 .4876881 0
.1823801 .4876109 0
.2210827 .4875532 0
.2613624 .4869484 0
.296914 .486743 0
.3317178 .4865023 0
.364305 .486593 0
.3966665 .48677 0
.4289454 .4869686 0
.4608003 .4871235 0
.4932526 .4871632 0
.5256448 .487394 0
.5578743 .487408 0
.5905969 .4872611 0
.6227304 .4876544 0
.6562164 .487425 0
.689014 .4873292 0
.7216914 .4872178 0
.7536162 .4874465 0
.7861828 .4875621 0
.8192478 .4869742 0
.8514938 .4868906 0
.8836771 .4869052 0
.9159172 .4868061 0
.9481109 .486219 0
.9801981 .4848156 0
.9999999 .4843894 0
0 .5247903 0
0 .5248069 0
0 .5247802 0
0 .5247419 0
.00350663 .5246906 0
.08086654 .5246283 0
.1333377 .5245692 0
.1771015 .5244951 0
.216957 .5244142 0
.2545141 .5243132 0
.294721 .523559 0
.3298498 .5233346 0
.3630815 .5234315 0
.395339 .5234798 0
.4278347 .5235955 0
.4609346 .5237652 0
.4929476 .5240502 0
.5247946 .5244554 0
.5576225 .5246344 0
.5906152 .5243391 0
.6235384 .5238307 0
.6555269 .5244706 0
.68919 .524017 0
.721994 .5240973 0
.7549831 .524018 0
.7871695 .5239455 0
.8198201 .5239427 0
.8526953 .52352 0
.8848054 .523325 0
.9168151 .5229869 0
.9483975 .5225592 0
.9799832 .5218885 0
.9999999 .5202779 0
0 .5615063 0
0 .5614935 0
0 .5614791 0
0 .5614585 0
0 .5614305 0
.06713439 .561395 0
.1249453 .5613512 0
.1708627 .5612987 0
.2119271 .5612252 0
.2505636 .5611513 0
.2873287 .561052 0
.3276897 .5602009 0
.3618231 .5602238 0
.3944848 .5603299 0
.428135 .560398 0
.4603305 .5606148 0
.4924772 .5608798 0
.5249169 .5613248 0
.5570257 .5617208 0
.5907921 .5612281 0
.6239156 .56085 0
.6568127 .5605947 0
.6902032 .5602038 0
.7227926 .5603643 0
.7556112 .5603715 0
.7885289 .56036 0
.8214191 .5602347 0
.8533815 .5600597 0
.8859469 .5596128 0
.9175458 .5594879 0
.9488288 .5588546 0
.9801686 .5581456 0
.9999999 .5573719 0
0 .5978532 0
0 .5978523 0
0 .5978519 0
0 .5978568 0
0 .5978636 0
.05722666 .5978721 0
.1191509 .5978825 0
.1664841 .5978951 0
.2083068 .5979096 0
.2472365 .5979266 0
.2843421 .5979455 0
.3198486 .5979767 0
.3607634 .5972504 0
.3940405 .5973765 0
.4265559 .5976294 0
.4591451 .5980191 0
.4917045 .5982913 0
.5241231 .598626 0
.5565425 .5988814 0
.5904681 .5983707 0
.6242437 .597801 0
.6571126 .5976109 0
.6900832 .5972877 0
.7235993 .5964175 0
.7559538 .5966249 0
.7888711 .5964506 0
.8217455 .5962659 0
.8545409 .5961177 0
.8867319 .5961347 0
.9180395 .5957478 0
.9493704 .5951005 0
.9807174 .5941613 0
.9999999 .5933039 0
0 .6341929 0
0 .6342092 0
0 .6342276 0
0 .6342541 0
0 .6342895 0
.04728298 .6343348 0
.1141119 .6343904 0
.1630096 .6344876 0
.2055684 .6345707 0
.2446614 .6346515 0
.2828478 .6347986 0
.3174899 .6351839 0
.3520985 .6356314 0
.3913626 .635076 0
.4245551 .6352696 0
.4576567 .6354681 0
.4906168 .6356537 0
.5232016 .6359068 0
.5564663 .6357285 0
.5899752 .6353689 0
.6240732 .6347293 0
.6576653 .6340038 0
.6903634 .633693 0
.7227357 .6334869 0
.7564783 .6324918 0
.7891276 .6324528 0
.8219438 .6322879 0
.8544487 .6321986 0
.8864666 .632426 0
.9186555 .631959 0
.9499469 .6311223 0
.9812922 .6304469 0
.9999999 .629589 0
0 .6707748 0
0 .6708021 0
0 .6708328 0
0 .6708768 0
0 .6709396 0
.02927522 .6710211 0
.1076711 .6712188 0
.159696 .671275 0
.2024068 .6713926 0
.2414355 .6716565 0
.2787244 .6719476 0
.3143206 .6722741 0
.3487802 .6726464 0
.3836683 .6728504 0
.4220178 .6724356 0
.4557554 .6725675 0
.4889299 .6727319 0
.5226344 .6725763 0
.5568002 .6720796 0
.5904504 .6715627 0
.6239652 .6710084 0
.6581484 .6703361 0
.69091 .6699979 0
.723328 .6697397 0
.7560637 .6692357 0
.789036 .6684657 0
.8219399 .667996 0
.8539849 .6681541 0
.8860472 .6683111 0
.9180738 .6682788 0
.9501986 .667677 0
.9822149 .6668049 0
.9999999 .6656226 0
0 .7074755 0
0 .7074999 0
0 .7075233 0
0 .7075543 0
0 .7075961 0
.0055127 .7076493 0
.09324252 .7077321 0
.1480727 .7078898 0
.1934239 .7080748 0
.2346344 .7082766 0
.2733013 .708499 0
.31009 .708706 0
.345647 .7089251 0
.3807198 .7091708 0
.418367 .7089636 0
.4537684 .7089925 0
.4878612 .7090361 0
.5224676 .7085915 0
.5568401 .708095 0
.5908721 .7076113 0
.6245472 .7070423 0
.657771 .7067548 0
.691452 .7061523 0
.7237675 .7057713 0
.7560391 .7053941 0
.7887377 .7048213 0
.8208198 .7047824 0
.8533593 .7043651 0
.8852718 .704703 0
.9174659 .7046238 0
.9498002 .7039846 0
.9819439 .7027151 0
.9999999 .7016875 0
0 .7436826 0
0 .7437012 0
0 .7437224 0
0 .7437515 0
0 .7437887 0
0 .7438361 0
.07223647 .7438947 0
.1358849 .743994 0
.1847428 .7441269 0
.2280418 .7442538 0
.2676943 .7444589 0
.3061619 .7445862 0
.3430112 .7446723 0
.3786044 .7448698 0
.413745 .7450732 0
.4519554 .7447519 0
.4879096 .7444839 0
.5224969 .7442369 0
.5568113 .7438566 0
.5907933 .7435408 0
.624452 .7432696 0
.6579214 .7430028 0
.6907894 .7425833 0
.7241791 .7419789 0
.7559969 .7418578 0
.7877635 .7417881 0
.8199247 .7414603 0
.8517914 .7417879 0
.8844945 .7413128 0
.9170197 .7404921 0
.9492545 .7399039 0
.9813473 .7387347 0
.9999999 .7376546 0
0 .7796233 0
0 .7796422 0
0 .7796634 0
0 .7796936 0
0 .7797312 0
0 .7797765 0
.04232112 .7798308 0
.1212506 .7798958 0
.1748587 .7799723 0
.2206571 .7800612 0
.2625976 .7801509 0
.3018884 .780302 0
.3398696 .7804411 0
.3764553 .7805862 0
.4117342 .7807875 0
.4488698 .7805113 0
.4863342 .7800503 0
.521578 .7798841 0
.5560284 .7797553 0
.5901656 .7796296 0
.6239031 .779415 0
.6574154 .779179 0
.6902706 .7789807 0
.7226223 .778902 0
.7554634 .77858 0
.7873076 .7786154 0
.8188575 .7785746 0
.8511312 .7782499 0
.883364 .7775582 0
.9160493 .7767845 0
.9488098 .7755229 0
.98085 .7744064 0
.9999999 .7733396 0
0 .8156652 0
0 .8156782 0
0 .8156924 0
0 .8157129 0
0 .8157405 0
0 .8157842 0
0 .8158556 0
.1012861 .8159355 0
.1619355 .8160059 0
.2113014 .8160748 0
.2552923 .816147 0
.2962628 .8162074 0
.3352527 .8162738 0
.3728013 .816381 0
.4093218 .8164673 0
.4453149 .8164655 0
.4827411 .8161735 0
.5195289 .8158891 0
.5547097 .8157076 0
.589012 .8156102 0
.6228116 .8155526 0
.6557124 .8155857 0
.6884313 .8156129 0
.7208464 .8154769 0
.7533265 .8152931 0
.786281 .8149635 0
.8183203 .81466 0
.8502907 .8140929 0
.8828527 .8129268 0
.914992 .8120733 0
.9473551 .811431 0
.9795963 .8101172 0
.9999999 .8090065 0
0 .851546 0
0 .8515543 0
0 .8515639 0
0 .8515776 0
0 .8515961 0
0 .8516181 0
0 .851652 0
.08080413 .8516999 0
.150246 .851764 0
.2027902 .8517965 0
.2484358 .8518602 0
.2903855 .8519458 0
.3301049 .8520274 0
.3682804 .852118 0
.4063036 .8520036 0
.443013 .8519003 0
.4788473 .8518281 0
.5172095 .85128 0
.5530976 .8511773 0
.5867874 .8511716 0
.6203423 .8511399 0
.6535627 .8510954 0
.686677 .8510516 0
.7195795 .8509653 0
.7522971 .8507925 0
.7850109 .850431 0
.8177809 .8498299 0
.8496923 .849304 0
.882414 .8482508 0
.9143277 .8472769 0
.9461964 .8462402 0
.9778805 .8457504 0
.9999999 .8447696 0
0 .8864292 0
0 .8864471 0
0 .8864672 0
0 .886476 0
0 .8864936 0
0 .8865346 0
0 .8865851 0
.05825354 .8866448 0
.1386853 .8867033 0
.1944627 .8867733 0
.2417416 .8868698 0
.2849263 .886955 0
.3266964 .886991 0
.3663749 .886923 0
.4051384 .8867795 0
.4425341 .8866699 0
.4779232 .8866768 0
.5123534 .8867338 0
.5492981 .886436 0
.5846018 .8862405 0
.6184192 .8861433 0
.6518824 .88605 0
.6849875 .8859337 0
.7178223 .885687 0
.75045 .8854768 0
.7830216 .8852577 0
.8157844 .8849667 0
.8486894 .8843333 0
.8809161 .8835939 0
.9134644 .882483 0
.9448627 .8816187 0
.9766183 .8807708 0
.9999999 .8801348 0
0 .9213175 0
0 .9213295 0
0 .9213429 0
0 .9213623 0
0 .9213884 0
0 .9214216 0
0 .9214624 0
.04990645 .9214501 0
.1362239 .9214105 0
.1938269 .9213648 0
.242527 .9213098 0
.2866306 .9212496 0
.3272315 .9212335 0
.3660989 .9212159 0
.4037618 .9211887 0
.4405487 .9211468 0
.4766409 .9211554 0
.5113671 .9212371 0
.5452948 .9213223 0
.5816538 .9210599 0
.6162063 .9209065 0
.6494495 .92078 0
.6825603 .9206011 0
.7154882 .9204072 0
.748314 .9202064 0
.7810011 .9199983 0
.8136967 .9197712 0
.8468258 .9193865 0
.8794546 .9186933 0
.911293 .9179115 0
.9437231 .916719 0
.9751537 .915889 0
.9999999 .9148219 0
0 .9558753 0
0 .9558745 0
0 .955874 0
0 .9558728 0
0 .9558715 0
0 .9558693 0
0 .9558648 0
.05331586 .9558596 0
.1361676 .9558533 0
