luts/Timeless_26.cube
# 3D LUT of size 33x33x33 converted by Filestar.
#   Input:
#     color space: sRGB
#     white point: default (D65)
#     transfer function: default (sRGB)
#   Output:
#     color space: sRGB
#     white point: default (D65)
#     transfer function: default (sRGB)
#   Exposure: +0.53999996
#   Contrast: +23
#   Whites: +8
#   Blacks: -20
LUT_3D_SIZE 9
0 .00032566 .01089675
.1307513 0 .00289481
.2984913 0 0
.4504401 0 0
.5901511 0 0
.7173436 0 0
.8293526 0 0
.9250403 0 0
.9999999 0 0
0 .1549939 0
.1364802 .1537158 0
.3025313 .1555805 0
.452959 .154727 0
.5918587 .1510484 0
.7179863 .1466393 0
.8297656 .1442021 0
.9251779 .1389398 0
.9999999 .1398965 0
0 .3057544 0
.155886 .3058169 0
.3082648 .307971 0
.4551568 .3091124 0
.5922922 .3101063 0
.7193272 .3100488 0
.8307068 .3094927 0
.9261621 .3090056 0
.9999999 .3098168 0
0 .4571409 0
.1481156 .4571881 0
.3109664 .4573132 0
.4584185 .4576403 0
.5948443 .459015 0
.720098 .4601578 0
.8309317 .4618241 0
.9271064 .4606596 0
.9999999 .4605378 0
0 .5972651 0
.1360715 .5973357 0
.3076949 .5975167 0
.4580315 .597776 0
.5962281 .5984989 0
.7205021 .5991652 0
.8312401 .5992263 0
.9270511 .5989035 0
.9999999 .5989778 0
0 .7228125 0
.1396853 .722874 0
.309887 .7230088 0
.4606766 .7230227 0
.5976363 .7229295 0
.7222209 .7226524 0
.8314082 .7237936 0
.9278136 .7239336 0
.9999999 .7239623 0
0 .8328765 0
.131202 .8328443 0
.3070858 .832767 0
.4604336 .8326113 0
.599565 .8329378 0
.7240691 .83318 0
.8341037 .8332419 0
.9277686 .8333111 0
.9999999 .8329652 0
0 .9282644 0
.1255607 .9282489 0
.3058684 .9282109 0
.4597726 .9281337 0
.5989667 .9282238 0
.7243813 .9282839 0
.8337976 .927658 0
.9279491 .9272417 0
.9999999 .9268433 0
0 .9999999 0
.1344861 .9999999 0
.3078106 .9999999 0
.4606642 .9999999 0
.5999527 .9999999 0
.7239348 .9999999 0
.8330544 .9999999 0
.9272981 .9999999 0
.9999999 .9999999 0
0 0 .1500655
.1376484 0 .1508785
.3020146 0 .1524592
.45309 0 .1505413
.591855 0 .149243
.7183049 0 .1484452
.829915 0 .1467068
.9254218 0 .1445497
.9999999 0 .1446456
0 .1503914 .151047
.1369125 .1536819 .1500079
.3038171 .1504498 .1502388
.4541778 .1483537 .1491305
.5925198 .1460354 .1464788
.7188625 .1426268 .1465254
.830231 .140368 .144071
.9254646 .1364233 .145439
.9999999 .1363887 .1431998
0 .3073252 .1498109
.1440229 .3075696 .1488447
.3077633 .3077907 .1482104
.4554824 .3082112 .1480823
.5930973 .3095504 .1463457
.7198316 .3094388 .1436052
.8309444 .3082602 .1417668
.9262117 .3080169 .1436227
.9999999 .30889 .1401874
0 .4571326 .1486871
.1420858 .4571783 .1479141
.3091224 .4576003 .1457096
.4576472 .4581351 .1457336
.5951685 .4588203 .1450404
.7202938 .4597042 .1440136
.8313144 .4603896 .141952
.927153 .4602624 .13928
.9999999 .4600044 .1385614
0 .5974099 .1424687
.1320012 .5974796 .1420264
.3061127 .5976596 .1419013
.4567655 .5981501 .14241
.595558 .598685 .1420705
.7207253 .5989249 .1402791
.8314324 .5989763 .1381231
.9272494 .5985002 .1375768
.9999999 .5986319 .1351381
0 .7228659 .137656
.1355065 .7229457 .136768
.3087724 .7230238 .1362032
.4598548 .7231014 .1370923
.5971504 .7230058 .1378468
.7220877 .7226644 .1377009
.8315811 .7236693 .1314497
.9279696 .723664 .1303113
.9999999 .7238029 .1312477
0 .8328962 .1347131
.1279551 .832864 .134398
.305999 .8327761 .1337596
.4592934 .8326116 .1338373
.5990503 .8329274 .1323321
.7239298 .8332733 .131195
.8341268 .8331306 .1315683
.9279144 .8332512 .129171
.9999999 .8328537 .1287077
0 .9282952 .1333017
.1225132 .9283029 .1330644
.3046204 .9282994 .1326024
.4592164 .9283148 .1327768
.598745 .9282441 .1330734
.7242149 .9282985 .1302532
.833758 .9276189 .1301647
.9278289 .9271821 .1307991
.9999999 .9266851 .1313545
0 .9999999 .1435724
.1306272 .9999999 .1436423
.3073051 .9999999 .1431476
.4605272 .9999999 .1394106
.5998548 .9999999 .13394
.7237739 .9999999 .1300076
.8328583 .9999999 .1269209
.9271944 .9999999 .1216479
.9999999 .9999999 .1247069
0 0 .3063787
.1437284 0 .3076096
.3038189 0 .3086289
.4533358 0 .310934
.593049 0 .3114731
.7189222 0 .311274
.8302521 0 .3113762
.9260056 0 .3106689
.9999999 0 .3109967
0 .1511352 .3087326
.1434319 .1492335 .3085649
.306404 .148304 .3101929
.4548547 .1462154 .3110635
.5936329 .141431 .3104493
.7196761 .1381336 .3104591
.8307456 .1353368 .3104293
.9261442 .1323929 .3102787
.9999999 .1295337 .3102878
0 .3077181 .3096956
.1408397 .3086565 .3096746
.3056461 .3093222 .3100915
.4556526 .3086362 .3104558
.5938885 .3084019 .3103524
.7209265 .3081364 .3098957
.8314444 .3067987 .3093667
.9265535 .3056947 .3099742
.9999999 .3062662 .3088761
0 .4579427 .3106221
.1366789 .4579943 .3103938
.3063466 .4581997 .3098773
.4570579 .4587494 .3098284
.5958822 .4594559 .3096795
.7214172 .4594741 .3094178
.8321598 .4592314 .3091027
.9274788 .4590263 .3080648
.9999999 .4587016 .3079172
0 .5975074 .3090788
.1281827 .597615 .3089075
.3045251 .5978911 .3089092
.4564954 .5984758 .3087647
.5957687 .5983562 .3089986
.7216986 .598497 .3077999
.8323015 .5984192 .3070107
.9280789 .5980061 .3064159
.9999999 .5978342 .3070139
0 .7229686 .3070628
.1276153 .7230538 .3068912
.3067525 .7230324 .3065778
.4592733 .7231359 .3059726
.5971022 .7231202 .3064987
.7223506 .7228253 .3057542
.8322968 .7235352 .3045897
.9283834 .7234262 .3047284
.9999999 .7234698 .3049282
0 .8329059 .306049
.1216577 .8328734 .3059258
.3037016 .8327782 .3056569
.4585233 .8326215 .305726
.5983996 .8329776 .3051507
.7233639 .8333794 .3044829
.8344528 .8329072 .3045095
.9279422 .8332374 .3032311
.9999999 .8324686 .3044221
0 .9282929 .305956
.1185756 .9283307 .3058976
.3030055 .928393 .3058889
.4580648 .9283141 .3054881
.5988715 .9280367 .3061619
.7241158 .9281929 .3053498
.8332373 .9277382 .3051973
.9279101 .9270834 .3051998
.9999999 .9265127 .3053789
0 .9999999 .3103606
.1269352 .9999999 .3104215
.3059573 .9999999 .3105801
.4604315 .9999999 .3110427
.6004242 .9999999 .3080033
.7238907 .9999999 .3067334
.8324056 .9999999 .3052623
.9264511 .9999999 .3034052
.9999999 .9999999 .304221
0 0 .4579996
.1456079 0 .4582555
.3087625 0 .4582696
.4571152 0 .4584683
.5930504 0 .459618
.7194281 0 .4606075
.8306835 0 .4608309
.9264676 0 .4606692
.9999999 0 .460775
0 .1492007 .4585258
.1417125 .1480399 .4586744
.3085636 .1460047 .4590827
.4585406 .1424251 .459036
.5942454 .1401266 .4596874
.720076 .1349778 .4601628
.8310733 .1307923 .460472
.9267801 .1253709 .4604416
.9999999 .1207671 .4602776
0 .3081818 .4590491
.1407469 .3082631 .4590498
.3075568 .3085518 .458965
.458466 .3078992 .4585539
.5957435 .307605 .4593568
.7216619 .3064358 .4596003
.8318225 .3050944 .4598294
.9274541 .3032149 .4597009
.9999999 .3027942 .4594175
0 .4584369 .458654
.136494 .4584648 .4586497
.3054895 .4583916 .4588467
.4576786 .4586797 .4590912
.5976759 .4589277 .4592263
.7232105 .4589994 .4589955
.8326543 .4580411 .4594243
.9278706 .457502 .4590382
.9999999 .4570308 .459117
0 .5970547 .4591913
.1271587 .5972185 .4590662
.3041389 .597665 .4588036
.4582155 .5981353 .4590438
.596922 .5981324 .4593437
.7229095 .5976903 .4590044
.8334266 .5973356 .4587893
.9287551 .5969279 .4590061
.9999999 .5966879 .4596748
0 .7228666 .4583592
.1175273 .7229532 .4581932
.3025075 .7231755 .4578987
.4576758 .7232208 .4575855
.5980093 .7230855 .457347
.7231288 .7228121 .4581735
.8329533 .723258 .4584869
.9283732 .7234872 .458805
.9999999 .7232597 .4597872
0 .8328194 .458618
.1185618 .8327601 .4585229
.3030748 .8326257 .4585784
.4579565 .8326088 .4586079
.5983239 .8328666 .4586952
.7241746 .8331816 .4583958
.8339734 .8333438 .4587685
.9277744 .8333036 .458843
.9999999 .8325053 .4594809
0 .9281868 .4603014
.1092382 .9282258 .4603236
.3002143 .9282414 .46027
.4574384 .9280995 .4601067
.5991473 .9278312 .4597434
.7247434 .9277982 .4599037
.83263 .927754 .4598433
.9273205 .9272008 .4597163
.9999999 .9265077 .4596017
0 .9999999 .4621436
.1271795 .9999999 .4621876
.3060974 .9999999 .462305
.4608025 .9999999 .4626895
.6008335 .9999999 .4633057
.7242769 .9999999 .4626889
.8323485 .9999999 .4604536
.9266738 .9999999 .4590342
.9999999 .9999999 .4605415
0 0 .5975946
.1410657 0 .5975205
.3089277 0 .5977207
.4590124 0 .5977911
.5949447 0 .5976881
.7195802 0 .5987937
.8311474 0 .5996569
.9265262 0 .6001285
.9999999 0 .6002879
0 .1465771 .598007
.1383897 .1458094 .5981628
.308251 .1436219 .5979016
.4585025 .1390654 .597924
.5951989 .1371825 .5981864
.7202753 .1335882 .5992026
.8312929 .1281625 .599624
.9267952 .1238833 .5998917
.9999999 .1182048 .5999441
0 .308823 .5983789
.1392912 .3083159 .5984163
.3073521 .3081219 .5985417
.4583464 .3069936 .5981911
.5956899 .3065907 .5984964
.7213037 .306451 .5988069
.831808 .3046429 .5990023
.9275127 .3028899 .5989683
.9999999 .3005797 .5993081
0 .4593645 .5982036
.1291273 .4591791 .5982936
.3039528 .4585583 .5984862
.4583935 .4577313 .598631
.5979891 .4581352 .5983236
.7222264 .4579569 .5982852
.8325713 .4567223 .5980391
.9283885 .4563469 .5985766
.9999999 .4571539 .5990396
0 .5966505 .5985559
.1226261 .596756 .5985121
.3038081 .5969235 .5984764
.4592622 .5970458 .5983314
.5982538 .5972053 .5983285
.7235324 .5971103 .5982512
.8330188 .5972067 .5984782
.9286242 .5968965 .5982414
.9999999 .5964734 .5987013
0 .7226286 .598401
.1165666 .7226803 .5983129
.3031687 .7227452 .598169
.4573838 .7227782 .5980792
.5977522 .7227042 .5985609
.7237608 .7225063 .5985075
.8336614 .7227269 .5986333
.9287019 .7224895 .5986267
.9999999 .7226378 .5989653
0 .8333882 .5984811
.1107631 .8334228 .5984026
.2999047 .8334404 .5981996
.4565607 .833039 .5982805
.5985059 .8328671 .5982347
.7247726 .8327503 .5981435
.835089 .8325441 .5979418
.9280225 .8333362 .5984499
.9999999 .8324757 .5992123
0 .9282894 .5994246
.1037935 .9282147 .5996482
.2973725 .9280379 .5996054
.4557832 .927844 .5996305
.5988395 .927483 .5994133
.7255449 .9272633 .5991979
.8333356 .9272594 .5994554
.9274341 .9274761 .5983719
.9999999 .9268817 .5982926
0 .9999999 .5998808
.1197259 .9999999 .5990567
.3058501 .9999999 .5999008
.4610214 .9999999 .599984
.6009231 .9999999 .6003972
.7237259 .9999999 .6014445
.8317789 .9999999 .601396
.9264102 .9999999 .5996534
.9999999 .9999999 .6002963
0 0 .7226174
.1365374 0 .722701
.3089128 0 .7225752
.4597028 0 .7224285
.5964319 0 .7223353
.7223701 0 .7227234
.8318015 0 .7228168
.9269505 0 .7235563
.9999999 0 .7243115
0 .1439268 .7226197
.1371075 .1425753 .722571
.3083883 .1396019 .7224673
.4592305 .1352203 .7224314
.5961654 .1362912 .722361
.7222363 .1306527 .7228026
.8321414 .1268843 .7230147
.9272864 .124975 .7236257
.9999999 .1186469 .7243338
0 .3085167 .722514
.1325174 .3086755 .7225007
.3068438 .3072318 .7224969
.4587559 .3055916 .7226892
.5968239 .3053522 .722707
.7217031 .3049206 .7230644
.832401 .3032641 .7234007
.9280772 .3013399 .7238322
.9999999 .2997383 .724105
0 .45851 .7233908
.1255333 .4584494 .7232487
.3035241 .4580408 .7231094
.4581482 .4574338 .7228811
.5983415 .4574497 .7226357
.7225969 .4568316 .7233399
.8331599 .4562368 .7236319
.9292943 .4549524 .7238939
.9999999 .4559373 .7239103
0 .5969232 .7234463
.1212356 .5968294 .7233953
.3052075 .5967526 .7230977
.4606631 .5969885 .7229197
.5985565 .5974749 .7231696
.7235718 .596841 .7235191
.8332645 .5965935 .7237137
.9290701 .5965891 .7238573
.9999999 .5970265 .7239415
0 .7228747 .7233082
.1171029 .7229267 .7233654
.3024677 .7230668 .7234907
.4567338 .7233495 .723527
.59754 .7232748 .7236856
.7237282 .7223416 .7239155
.8330395 .7232952 .7238588
.9279535 .7226794 .7233959
.9999999 .7224829 .723566
0 .8334137 .7241895
.1081713 .8333246 .7242118
.2997279 .8331053 .7242665
.4568479 .8327852 .7243844
.5984734 .8324049 .7243552
.7247996 .8322012 .7243232
.8340758 .8326126 .7241428
.927862 .8332325 .7238244
.9999999 .8327447 .7240497
0 .9278856 .7241971
.1081842 .9278452 .7241446
.2999685 .9277218 .7240741
.4576895 .927502 .7240842
.5998356 .9272631 .7240935
.7254744 .9269242 .7243782
.8332404 .9270502 .7242345
.9275318 .9268302 .7248139
.9999999 .9265937 .7244956
0 .9999999 .7241614
.128015 .9999999 .7241355
.3071629 .9999999 .72438
.4625199 .9999999 .7243543
.6024503 .9999999 .7244188
.7246468 .9999999 .7253993
.8325757 .9999999 .7258554
.9258683 .9999999 .7255799
.9999999 .9999999 .7253649
0 0 .8336
.1354287 0 .8336078
.3082023 0 .8336551
.4589006 0 .8336418
.5966509 0 .8333074
.7234125 0 .8333018
.8327828 0 .8334087
.9274442 0 .8335866
.9999999 0 .8338544
0 .1416332 .8335364
.1342592 .1401362 .8335477
.3072426 .1367643 .8336012
.4586142 .1337172 .8336709
.5964846 .1354915 .8334283
.7231393 .1317797 .8334303
.83253 .1264737 .8334274
.927659 .1220855 .8336307
.9999999 .116814 .8339136
0 .3086543 .8334586
.1258559 .3081661 .8334535
.3048786 .3077426 .8334805
.4574082 .3067351 .8335896
.5968049 .3064285 .8336925
.7223209 .3049682 .833845
.8328267 .3027891 .8336421
.9282073 .3009665 .83376
.9999999 .2991964 .8340594
0 .4598532 .8333522
.1196522 .4595647 .8334033
.3028165 .4588547 .83354
.4572725 .4580603 .8339171
.5978386 .457691 .8340066
.7223961 .4570596 .8341727
.8330649 .4563476 .8341103
.9292006 .4549953 .8339421
.9999999 .455453 .8337718
0 .5976648 .8338433
.113387 .597702 .8338941
.3008966 .5978161 .8340106
.4582991 .5974358 .8341375
.5977846 .597046 .8342682
.7228767 .5968027 .8343732
.8333343 .5965631 .834155
.9290714 .5962479 .8338366
.9999999 .5967787 .8337371
0 .7224698 .8339659
.123681 .7225256 .8339591
.303913 .7227121 .8339729
.4570091 .7232017 .83393
.597788 .7229615 .8341352
.7233231 .7225016 .8342
.8328887 .7225792 .8337697
.9277176 .7220271 .8337241
.9999999 .7220747 .8337015
0 .8332403 .8337489
.1142199 .8331481 .8337361
.301656 .8328911 .8337269
.4582373 .8325713 .8337201
.5986983 .8322931 .8337669
.7242742 .8320595 .8336439
.8327291 .8321383 .8338916
.9268544 .8332586 .833629
.9999999 .8328288 .8339462
0 .927768 .8341662
.1052475 .9276727 .8341562
.3009202 .9274383 .8341414
.4597206 .927083 .8341219
.6012351 .9266222 .8343592
.7256752 .9267631 .8342943
.8336306 .9269243 .8347688
.9279214 .9269521 .8350316
.9999999 .9266895 .8347183
0 .9999999 .8338281
.1261714 .9999999 .8338087
.307735 .9999999 .833811
.4624935 .9999999 .8338142
.6039788 .9999999 .8337213
.7274554 .9999999 .8339139
.8347601 .9999999 .834426
.9275288 .9999999 .8347595
.9999999 .9999999 .8340582
0 0 .9279975
.1372273 0 .9280381
.3078314 0 .9281362
.4586208 0 .9283292
.5965299 0 .9284933
.7234969 0 .9283959
.8329707 0 .9283432
.9275042 0 .9282057
.9999999 0 .9280549
0 .1413085 .9280299
.131566 .1402152 .9280619
.3059524 .1382046 .9281664
.4578207 .1358348 .9283521
.596535 .1364129 .9284824
.7230268 .1335284 .9283899
.8326052 .1276296 .9283439
.9275866 .1219758 .9282082
.9999999 .1161033 .9280701
0 .3076037 .9281399
.1241223 .3073659 .9281892
.303202 .3068541 .9283009
.4566331 .3062113 .928457
.5968788 .3075226 .928323
.7222325 .3063117 .9283707
.832057 .3042383 .9283469
.9276849 .3019773 .9282938
.9999999 .2991505 .9282348
0 .4578862 .9282228
.1148974 .4573129 .928259
.2998 .4570423 .9282722
.4571167 .4579614 .9282152
.5984931 .4588413 .9279994
.7220298 .4584965 .9278057
.8323749 .4578283 .9279832
.9279681 .4567139 .9282477
.9999999 .4554108 .9283703
0 .5980313 .9279003
.1215108 .5979666 .9278517
.3055333 .5978061 .92773
.460453 .5977026 .9275691
.5992535 .5979787 .9275789
.7235262 .597898 .9276563
.8326504 .597365 .9279838
.9282447 .5968738 .9284232
.9999999 .5962883 .9286068
0 .7224551 .9279192
.1251517 .7226031 .9279119
.3030977 .7229984 .9279111
.4589849 .7228287 .9278779
.5997941 .7224563 .9277301
.7245881 .7226785 .9277844
.8333541 .7234159 .9280012
.9275941 .7223179 .9286858
.9999999 .7220927 .9289162
0 .8329753 .9282248
.1178581 .8329177 .928236
.3037286 .8327525 .9282558
.4583045 .8328682 .9282627
.5985362 .8328876 .9282722
.7246939 .8324469 .9282875
.8335003 .8325779 .9281301
.9273832 .8325722 .9284523
.9999999 .8326742 .9282161
0 .9275576 .9282361
.1165213 .9275035 .9282448
.3040933 .9273708 .9282661
.4607192 .9271902 .9283267
.6015473 .9270096 .928277
.7246036 .9272321 .928222
.8329755 .9274004 .9281528
.9272355 .9272944 .928018
.9999999 .927274 .9281455
0 .9999999 .9275123
.1297562 .9999999 .9274977
.310416 .9999999 .9273829
.4656447 .9999999 .9271872
.603985 .9999999 .9270828
.7277256 .9999999 .9272703
.8371612 .9999999 .9279112
.9283342 .9999999 .9284379
.9999999 .9996293 .9284423
0 0 .9999999
.1403885 0 .9999999
.3092251 0 .9999999
.4599559 0 .9999999
.5980811 0 .9999999
.7232458 0 .9999999
.8323598 0 .9999999
.9267944 0 .9999999
.9999999 0 .9999999
0 .1405831 .9999999
.1357188 .1404601 .9999999
.3072973 .1398683 .9999999
.4595339 .140544 .9999999
.5982981 .1420074 .9999999
.7231465 .1375526 .9999999
.8323897 .1330491 .9999999
.9267688 .1279806 .9999999
.9999999 .1254778 .9999999
0 .3091111 .9999999
.1289197 .3090692 .9999999
.3056961 .3089672 .9999999
.4593124 .3092543 .9999999
.5988317 .3107416 .9999999
.7230405 .3087265 .9999999
.8321943 .3062359 .9999999
.9268446 .3050739 .9999999
.9999999 .3048348 .9999999
0 .4576005 .9999999
.1178348 .4578484 .9999999
.3033597 .4586038 .9999999
.4591829 .459989 .9999999
.5998673 .4606485 .9999999
.7231689 .4610091 .9999999
.8322816 .459977 .9999999
.9273379 .4596774 .9999999
.9999999 .4595136 .9999999
0 .598451 .9999999
.1303782 .598403 .9999999
.3059808 .5977136 .9999999
.4571527 .5965515 .9999999
.5989074 .5988187 .9999999
.7243934 .6002585 .9999999
.8327625 .6001746 .9999999
.9274567 .5991538 .9999999
.9999999 .5984727 .9999999
0 .7227631 .9999999
.1489961 .7229471 .9999999
.3122336 .7231407 .9999999
.4615365 .7234024 .9999999
.599302 .7232222 .9999999
.7235202 .7235178 .9999999
.8328017 .7249159 .9999999
.9265239 .7236513 .9999999
.9999999 .7229258 .9999999
0 .8326534 .9999999
.1460228 .8326585 .9999999
.3145693 .8325499 .9999999
.4653075 .8324504 .9999999
.6035501 .8322577 .9999999
.7264847 .8324104 .9999999
.8325384 .8332947 .9999999
.9254648 .8336313 .9999999
.9999999 .8329183 .9999999
0 .9260282 .9999999
.1494563 .9259773 .9999999
.3175378 .9258431 .9999999
.4681135 .9256539 .9999999
.6060231 .9252477 .9999999
.7273416 .9251734 .9999999
.8362105 .9250314 .9999999
.9278529 .9262682 .9999999
.9999999 .9275721 .9999999
0 .9999999 .9999999
.149676 .9999999 .9999999
.3173525 .9999999 .9999999
.4686801 .9999999 .9999999
.6060079 .9999999 .9999999
.7289506 .9999999 .9999999
.8402653 .9999999 .9999999
.9333801 .9980571 .9999999
.9999999 .9976622 .9999999
