luts/Timeless 44.cube
# 3D LUT of size 33x33x33 converted by Filestar.
#   Input:
#     color space: sRGB
#     white point: default (D65)
#     transfer function: default (sRGB)
#   Output:
#     color space: sRGB
#     white point: default (D65)
#     transfer function: default (sRGB)
#   Exposure: +0.35
#   Contrast: -43
#   Whites: +8
#   Blacks: -20
#   Vibrance: +30
LUT_3D_SIZE 33
.04832771 .00962059 .02690313
.05003525 .01134446 .02280282
.05403151 .00950964 .02029775
.08518829 .00144279 .02155449
.1203809 0 .02598443
.1579427 0 .02810863
.1951846 0 .02717103
.2319875 0 .02149044
.270365 0 .01494868
.3089807 0 .00637288
.3478141 0 0
.386674 0 0
.4234565 0 0
.4588937 0 0
.4932492 0 0
.5272326 0 0
.5608149 0 0
.594244 0 0
.6269236 0 0
.6590303 0 0
.6906607 0 0
.7217802 0 0
.7522156 0 0
.7820455 0 0
.8108767 0 0
.8388947 0 0
.866295 0 0
.8926365 0 0
.9181284 0 0
.9427425 0 0
.9670781 0 0
.9912909 0 0
.9999999 0 0
.04570591 .02496398 .02850389
.04627948 .0294186 .02259654
.04708359 .03241505 .01903367
.08031926 .0214797 .02248939
.1160005 .01292349 .02675056
.154836 .00623348 .02599517
.1942707 0 .02456002
.2331821 0 .01891673
.2711161 0 .01029408
.3106057 .00129128 .00227192
.349612 .00371605 0
.3877016 .00292988 0
.4242248 .00115263 0
.4593526 .00109503 0
.4938367 .00101994 0
.5278769 0 0
.5613598 0 0
.5947397 0 0
.6274047 0 0
.6594328 0 0
.6908682 0 0
.7220111 0 0
.752492 0 0
.7822847 0 0
.8110892 0 0
.8390932 0 0
.86644 0 0
.8927693 0 0
.9182676 0 0
.9429139 0 0
.9671424 0 0
.9913884 0 0
.9999999 0 0
.00935835 .0598338 .01717677
.00528393 .06245867 .01563364
.02574655 .05993354 .01484889
.07247812 .05473984 .01877118
.1128571 .05058766 .02330914
.1558017 .04513712 .02340883
.1948548 .04512819 .01882743
.2335935 .04501367 .01258308
.2730004 .0449267 .00735282
.3122919 .04959489 0
.3513771 .04884519 0
.3887195 .0476012 0
.424806 .04662631 0
.4597938 .04699704 0
.4944542 .04515518 0
.5284632 .04070561 0
.5619729 .03342178 0
.5952356 .02144422 0
.6278233 .00836101 0
.6596863 0 0
.6910747 0 0
.7222196 0 0
.7527152 0 0
.7825531 0 0
.8113555 0 0
.839348 0 0
.866645 0 0
.892965 0 0
.9184691 0 0
.943126 0 0
.9672609 0 0
.9915101 0 0
.9999999 0 0
0 .1024812 .00751754
0 .102499 .00600748
.00924313 .1009958 .00651408
.0690854 .09895092 .00812674
.1144603 .09693982 .01095895
.1550979 .09477913 .01274352
.1955133 .0962391 .00830341
.235661 .09818649 .00031491
.2747627 .09788992 0
.3142673 .09453652 0
.3524247 .09244963 0
.3891824 .09216612 0
.4250686 .09189861 0
.4602413 .09177699 0
.4952561 .08938774 0
.5291961 .08642624 0
.5626196 .0825076 0
.5958198 .07570227 0
.628247 .06777327 0
.6599053 .05914006 0
.6913902 .05016059 0
.7224571 .04184244 0
.7529485 .03328354 0
.7827788 .02442374 0
.8115512 .01565164 0
.8395833 .00771214 0
.8669089 0 0
.8932447 0 0
.9187546 0 0
.9434693 0 0
.9674981 0 0
.9917607 0 0
.9999999 0 0
0 .140021 0
0 .1391242 0
.01595524 .1382401 0
.0761294 .137088 0
.1211909 .1363257 0
.1616706 .1362437 0
.2006785 .1371739 0
.2398567 .1368714 0
.278107 .1357283 0
.3155199 .134995 0
.3531206 .1331929 0
.3895899 .132618 0
.4254954 .1324069 0
.4610438 .1310554 0
.4960969 .1292535 0
.5300516 .1266313 0
.5633509 .1243369 0
.596292 .1204375 0
.6285784 .1157513 0
.6601857 .110333 0
.6917704 .1066934 0
.7227614 .1029451 0
.7532665 .09878764 0
.7830802 .09421238 0
.8117953 .08945025 0
.8398166 .08498319 0
.8671114 .07966105 0
.8935031 .07365365 0
.9191296 .06266727 0
.9439092 .0551752 0
.9678153 .05694578 0
.9919794 .04046672 0
.9999999 .03306146 0
0 .1748424 0
0 .1742297 0
.03664445 .1741553 0
.0867073 .1741183 0
.1283892 .1740672 0
.1671336 .1740595 0
.2040187 .1749215 0
.2424428 .1741549 0
.2797602 .1742548 0
.3173721 .1735953 0
.354151 .173133 0
.390236 .1725532 0
.4262417 .1709447 0
.462032 .1692528 0
.4969029 .1680628 0
.5306005 .1662604 0
.5636659 .1648827 0
.5965971 .1619898 0
.6288952 .1586687 0
.6606274 .155209 0
.6922024 .1522404 0
.7231906 .1499054 0
.7536882 .1475417 0
.7833868 .1444029 0
.8121049 .1412902 0
.8402586 .1383373 0
.8673745 .13495 0
.8936512 .1312446 0
.919304 .1250211 0
.9443057 .1204712 0
.9683746 .1199761 0
.9922587 .1149944 0
.9999999 .1119125 0
0 .2108156 0
0 .2107761 0
.04533935 .2108694 0
.09186102 .2111535 0
.1330463 .2115073 0
.1718988 .210966 0
.2092079 .2105702 0
.2452027 .2111426 0
.2829156 .2113171 0
.3191042 .2117105 0
.3556103 .2111267 0
.3916521 .2105779 0
.4270866 .209395 0
.4625795 .2076332 0
.4971367 .206771 0
.5309049 .2057314 0
.563877 .2049182 0
.5966301 .2032672 0
.6290454 .2004934 0
.6608891 .1977066 0
.6925486 .195246 0
.7236015 .1929749 0
.7541975 .1906719 0
.7837217 .1883553 0
.8123917 .1868296 0
.8406318 .1836882 0
.8676891 .1812053 0
.893926 .1780347 0
.9194859 .1744429 0
.9445602 .1718376 0
.9688583 .1700872 0
.9925722 .1680486 0
.9999999 .1659994 0
0 .2468571 0
.00285339 .246511 0
.0538432 .2462175 0
.1002807 .2460459 0
.1416546 .2462341 0
.1787908 .2466105 0
.2142419 .2466443 0
.2499205 .2474193 0
.285015 .2489094 0
.3208731 .2487502 0
.3571044 .2486025 0
.3929249 .2484475 0
.4280861 .2479488 0
.4627454 .2469501 0
.497991 .244945 0
.5311549 .2443747 0
.5641294 .2437371 0
.596865 .2423805 0
.6291211 .240264 0
.6611286 .2381378 0
.692875 .236411 0
.7239608 .2346616 0
.7544044 .232886 0
.7839512 .2309413 0
.8127316 .2293022 0
.8409601 .2263436 0
.8679531 .2239929 0
.8941048 .2212302 0
.9197491 .2196768 0
.9447453 .2176935 0
.9690095 .2164966 0
.9927719 .2148456 0
.9999999 .2134224 0
0 .2839583 0
0 .2836812 0
.04360863 .2834376 0
.09521485 .2832418 0
.139248 .2832842 0
.1796018 .2834637 0
.2169403 .2835927 0
.2530935 .2843375 0
.2871822 .2861489 0
.3203637 .2876565 0
.3575046 .2870064 0
.3941622 .2863299 0
.4295494 .2855403 0
.4639581 .2844153 0
.4981782 .2836802 0
.5323554 .2820857 0
.564739 .2812919 0
.5969537 .2803075 0
.629229 .2790672 0
.6614876 .2775091 0
.6932327 .2761505 0
.7243291 .2748128 0
.7546192 .2732702 0
.7841591 .2716488 0
.8131248 .2699432 0
.8411452 .2676955 0
.86799 .2655573 0
.8942913 .2628358 0
.9200673 .2619391 0
.9450675 .2599266 0
.9692282 .2592503 0
.9929398 .2585992 0
.9999999 .2571202 0
0 .3210549 0
0 .3209116 0
.02723902 .3208679 0
.08651689 .3208052 0
.1340026 .3208468 0
.1764177 .321005 0
.2154697 .3212462 0
.2531728 .3214146 0
.2900691 .3223509 0
.3246194 .3227773 0
.3588564 .3231359 0
.3945843 .3230419 0
.4302728 .3226334 0
.4655802 .3216897 0
.4997559 .3206297 0
.5329708 .3200981 0
.565414 .3190168 0
.5980557 .3175421 0
.6293133 .3174248 0
.661782 .3161542 0
.6936144 .3149222 0
.7245772 .313678 0
.7548069 .3123589 0
.7843488 .310996 0
.8133246 .3094011 0
.8412792 .30755 0
.8681316 .3051238 0
.8945197 .3041355 0
.9202727 .3033447 0
.9453154 .3011784 0
.9694851 .300344 0
.9932256 .298932 0
.9999999 .2977631 0
0 .3587576 0
0 .3588093 0
0 .3587458 0
.06923053 .3586195 0
.1227232 .3585982 0
.1687812 .3587425 0
.2102222 .3589999 0
.2495653 .3591973 0
.2892123 .359005 0
.327408 .3584003 0
.3622851 .3582611 0
.396621 .3580805 0
.4318254 .3579528 0
.4661013 .3591458 0
.5012171 .3585326 0
.5343844 .3572161 0
.5668165 .3565668 0
.598953 .3555977 0
.6315682 .3540272 0
.6630102 .3534679 0
.693749 .3531169 0
.7246538 .3518645 0
.7549782 .3505518 0
.7846748 .3493065 0
.8135117 .3477619 0
.8412991 .3457399 0
.8683589 .344556 0
.8946798 .3439806 0
.9204438 .3431284 0
.9454861 .3415025 0
.9696265 .3404648 0
.9933569 .3388905 0
.9999999 .3374754 0
0 .3949579 0
0 .3950668 0
0 .3952139 0
.04655904 .39534 0
.1105856 .3954107 0
.1600375 .3955692 0
.2048344 .3956574 0
.2474178 .3955057 0
.2869253 .3952498 0
.325832 .3951503 0
.3624325 .3945667 0
.3973244 .3942346 0
.4314851 .3942938 0
.4668227 .394234 0
.5009333 .3945904 0
.5356838 .3941258 0
.5687143 .3931196 0
.6004212 .3928469 0
.6325832 .3918069 0
.6644635 .3903917 0
.695753 .389181 0
.7255346 .3885291 0
.7549459 .3882212 0
.784788 .3866904 0
.8135063 .3850122 0
.8411907 .3844428 0
.8681824 .3839244 0
.8947276 .3831611 0
.920544 .3818608 0
.9455054 .3802093 0
.9696251 .3792664 0
.9932635 .3779738 0
.9999999 .3766795 0
0 .4313315 0
0 .4314146 0
0 .4315088 0
.01061667 .4316414 0
.09066413 .4317987 0
.1480974 .4317461 0
.1977537 .4315266 0
.2429401 .4312975 0
.2840571 .4312296 0
.3225062 .4310941 0
.3601187 .4309886 0
.3965469 .4306191 0
.4322538 .4301276 0
.4656776 .4302121 0
.5009593 .42953 0
.5353863 .4296279 0
.5695032 .4292044 0
.6020755 .4286741 0
.6343109 .4281899 0
.6661639 .4273064 0
.6971552 .4259439 0
.7273609 .4246808 0
.7567962 .4241454 0
.784952 .4238581 0
.8127806 .4238333 0
.8406407 .4231124 0
.8679572 .4223165 0
.8945286 .4214296 0
.9204487 .419454 0
.9454206 .4177712 0
.9695404 .4167406 0
.9931716 .4155074 0
.9999999 .4143738 0
0 .4667493 0
0 .466827 0
0 .4669042 0
0 .4670095 0
.0763055 .4671425 0
.1384031 .4673114 0
.1900152 .4672827 0
.236941 .4671296 0
.2808075 .4669514 0
.3204226 .4667268 0
.3582726 .4665384 0
.3952501 .466444 0
.4315313 .4663569 0
.4667916 .4659317 0
.5011047 .4657742 0
.5359362 .4652882 0
.5703238 .4643468 0
.6032497 .4639512 0
.6354723 .4635699 0
.6671878 .4631604 0
.6979339 .4626197 0
.7289499 .4614555 0
.7583804 .4607477 0
.7866727 .4603453 0
.8141747 .4600967 0
.8408891 .4600009 0
.8674378 .4594812 0
.8941927 .4579985 0
.9203272 .4557736 0
.9453453 .4543647 0
.969471 .4530937 0
.9931015 .4518468 0
.9999999 .4508521 0
0 .5017048 0
0 .5017626 0
0 .5018278 0
0 .5019211 0
.06197648 .5020157 0
.1298074 .5021034 0
.1818986 .5022107 0
.2298706 .5022166 0
.2750038 .5021065 0
.3171898 .5019859 0
.3556096 .5017818 0
.3931415 .5017226 0
.4294809 .5015135 0
.4652916 .5015053 0
.5004525 .5014691 0
.5350201 .501473 0
.5701201 .5005146 0
.6037053 .4996246 0
.635871 .4989885 0
.6673065 .4984795 0
.6985134 .4981384 0
.7288799 .4978299 0
.7583785 .4972095 0
.7871849 .4964522 0
.8153669 .4954343 0
.842727 .4943372 0
.8690704 .4933557 0
.8946688 .4928052 0
.9199891 .4914123 0
.945338 .4898061 0
.9696417 .4886737 0
.9932807 .4874829 0
.9999999 .4865884 0
0 .5363508 0
0 .5363833 0
0 .5364202 0
0 .5364729 0
.04140376 .5365434 0
.1199123 .5366328 0
.1750425 .5367422 0
.222795 .5368783 0
.2687128 .5368735 0
.3116065 .5369156 0
.35243 .5368541 0
.3904885 .53642 0
.4274404 .5363778 0
.4633929 .5364484 0
.4987347 .5365415 0
.5335708 .5364829 0
.5687516 .5359659 0
.6033569 .5348001 0
.6356007 .5337249 0
.6671516 .5327931 0
.6981568 .5325872 0
.7286096 .5323786 0
.7585053 .5315635 0
.7873397 .5308235 0
.8155038 .529874 0
.8430844 .528659 0
.870099 .5273197 0
.8962908 .5262859 0
.9216973 .5253003 0
.9458795 .5246782 0
.9697997 .5239552 0
.9934754 .5227028 0
.9999999 .5219525 0
0 .5704549 0
0 .5704488 0
0 .5704634 0
0 .5705177 0
.01500903 .5705891 0
.1086236 .5706871 0
.1678211 .5707986 0
.2176461 .5708619 0
.2630591 .5709363 0
.3069069 .5708931 0
.3487656 .5707976 0
.3880897 .570418 0
.4255551 .5701157 0
.4618065 .5699912 0
.4973472 .5698289 0
.5325433 .5696351 0
.5674919 .5692372 0
.6022137 .5684758 0
.6355573 .5675033 0
.6667939 .567278 0
.6974226 .5666657 0
.7280788 .5658617 0
.7579858 .5653579 0
.7872962 .5645889 0
.8156246 .5637869 0
.843258 .5629041 0
.870231 .5619955 0
.8965302 .5609668 0
.9220524 .5598261 0
.9467825 .5588748 0
.9712128 .5578346 0
.9946247 .5569007 0
.9999999 .5566664 0
0 .6028483 0
0 .6028544 0
0 .6028616 0
0 .6028845 0
0 .602924 0
.1000358 .6029787 0
.162236 .6030484 0
.2134449 .6031381 0
.2595854 .6032426 0
.3026353 .6033555 0
.3450772 .6032912 0
.3855062 .6031312 0
.4235117 .6028523 0
.4600274 .6026705 0
.4961322 .6025279 0
.5319301 .6023976 0
.5665436 .6022524 0
.600675 .6018995 0
.6347567 .6012618 0
.6667299 .6004249 0
.6973332 .6002351 0
.7273794 .5995714 0
.7573003 .5985237 0
.7866744 .5978112 0
.8154233 .5970138 0
.8435095 .5961823 0
.870444 .5954018 0
.8966615 .5945226 0
.9222026 .5936649 0
.9471532 .59287 0
.9717014 .5920165 0
.9951581 .5912422 0
.9999999 .5902135 0
0 .63476 0
0 .6347659 0
0 .6347726 0
0 .6347821 0
0 .6348138 0
.08842675 .6348665 0
.1553859 .6349377 0
.2083987 .6350224 0
.2555606 .6351206 0
.2993288 .6352383 0
.3410037 .6353325 0
.3828348 .635249 0
.4227091 .6351276 0
.45974 .6348813 0
.4960374 .6348452 0
.5312729 .6347384 0
.5659702 .6346434 0
.5996037 .6344724 0
.6332434 .6338755 0
.6660568 .6332889 0
.6975401 .6323804 0
.727475 .632134 0
.7568184 .6317207 0
.7858148 .6307492 0
.8146578 .62977 0
.842829 .6289427 0
.8704332 .6279936 0
.8967628 .6273253 0
.9223406 .6267201 0
.9473605 .6260703 0
.9718062 .6253492 0
.9952963 .6244345 0
.9999999 .6234738 0
0 .6661102 0
0 .6661175 0
0 .6661261 0
0 .6661396 0
0 .666173 0
.07708903 .6662348 0
.1496863 .6663118 0
.2048604 .6664117 0
.2532888 .6665382 0
.2979043 .6667057 0
.3394457 .6669428 0
.3809786 .6669289 0
.4208074 .6669219 0
.4591486 .6668131 0
.4951637 .6665143 0
.5306425 .666312 0
.5650612 .6660922 0
.598796 .665843 0
.6320809 .6654448 0
.6654785 .6647637 0
.6970056 .6645738 0
.7278463 .6636493 0
.7568749 .6634123 0
.7857133 .6630795 0
.8140432 .6621328 0
.8420519 .6610965 0
.8695806 .6603742 0
.8965015 .6596847 0
.9225702 .6590242 0
.9475719 .658478 0
.9719391 .6578099 0
.9953685 .6570932 0
.9999999 .6564893 0
0 .6972803 0
0 .6972963 0
0 .6973152 0
0 .6973456 0
0 .6973863 0
.06037305 .697459 0
.141089 .6975561 0
.1986853 .697677 0
.2483759 .6978173 0
.2938684 .6979909 0
.3366258 .6981408 0
.3771307 .6982459 0
.417627 .6981789 0
.4563295 .6980588 0
.4930242 .6977214 0
.5286366 .6973661 0
.5637978 .6970087 0
.5977243 .6967337 0
.6310149 .6964355 0
.6642601 .6959223 0
.6963422 .6956519 0
.7270043 .6955088 0
.7573872 .6942232 0
.7859761 .6939618 0
.8140869 .6939018 0
.8418961 .6931032 0
.8691394 .6922196 0
.8957489 .6916106 0
.9217857 .6909605 0
.9476152 .6901849 0
.972124 .6894809 0
.9955164 .6887434 0
.9999999 .6883344 0
0 .728022 0
0 .7280316 0
0 .7280518 0
0 .7280826 0
0 .72811 0
.0314443 .7282155 0
.1288434 .7282647 0
.1901922 .7283306 0
.2418005 .7283791 0
.2886308 .7284237 0
.3323751 .7284905 0
.3736393 .7286152 0
.4132985 .7286068 0
.4523277 .7284911 0
.4901381 .7283758 0
.525714 .727976 0
.5612196 .7276103 0
.5959979 .7272231 0
.6299435 .7268625 0
.663202 .7264299 0
.6955135 .7261387 0
.7264078 .7258601 0
.7567422 .7254974 0
.7865694 .7243779 0
.8146441 .7240664 0
.8418511 .7243059 0
.8690941 .723518 0
.895742 .7226229 0
.9216603 .7219998 0
.9471185 .7211906 0
.9714093 .7204643 0
.9952005 .7200715 0
.9999999 .7194849 0
0 .7580485 0
0 .7580477 0
0 .7580467 0
0 .7580454 0
0 .7580434 0
0 .7580412 0
.114284 .7580422 0
.1815366 .7580101 0
.2351092 .758041 0
.2836947 .7580723 0
.327856 .7581546 0
.3692011 .758234 0
.4083815 .7583684 0
.447885 .7583306 0
.4862562 .7582183 0
.5232753 .7579316 0
.5586207 .7575842 0
.5936658 .7572064 0
.6282817 .7567725 0
.6619563 .7563315 0
.6941808 .7560121 0
.7257968 .7556244 0
.7562019 .7553808 0
.7858043 .7551869 0
.814754 .7541394 0
.8424158 .7535595 0
.8688759 .75374 0
.8955212 .7530791 0
.9215869 .7521722 0
.9465076 .7515084 0
.970759 .7509429 0
.9944672 .7502339 0
.9999999 .7495806 0
0 .7868411 0
0 .7868396 0
0 .7868381 0
0 .7868358 0
0 .7868324 0
0 .7868224 0
.09569804 .7867959 0
.1703043 .7867688 0
.2274315 .7867374 0
.2773899 .7867016 0
.3233039 .7866629 0
.3652228 .7867392 0
.4049686 .7868623 0
.4436888 .7869955 0
.4827204 .786912 0
.5205241 .786808 0
.5563318 .786398 0
.5915994 .7859666 0
.6264559 .7855423 0
.6605245 .7851689 0
.6928846 .7848412 0
.724679 .7845136 0
.7552375 .7842643 0
.7850932 .784047 0
.8140314 .7838547 0
.8422748 .782881 0
.8693926 .7820782 0
.8951436 .7821652 0
.9208233 .7817376 0
.945962 .7810681 0
.9704239 .7804721 0
.9942005 .779557 0
.9999999 .7787677 0
0 .8149019 0
0 .8148966 0
0 .8148909 0
0 .8148815 0
0 .8148678 0
0 .8148502 0
.0708768 .8148323 0
.1572567 .8148077 0
.2181149 .814777 0
.270007 .8147456 0
.3171195 .8147247 0
.3599736 .814762 0
.4007795 .8148263 0
.4400543 .8149108 0
.4790332 .8148771 0
.5170081 .8148196 0
.5543981 .814657 0
.5897433 .8142629 0
.6246333 .813876 0
.6586595 .8134283 0
.6914958 .8131359 0
.7234277 .8128175 0
.754257 .8125541 0
.7841274 .8123174 0
.8132669 .8121091 0
.8416163 .8118823 0
.8689212 .8110203 0
.8952529 .810375 0
.9203275 .8104827 0
.9454235 .8099994 0
.9698704 .8091746 0
.9936981 .8081378 0
.9999999 .8071958 0
0 .8422614 0
0 .8422554 0
0 .8422484 0
0 .8422384 0
0 .8422251 0
0 .842208 0
.03623543 .8421881 0
.1429343 .8421793 0
.2081101 .8421757 0
.262192 .8421578 0
.3106854 .8421376 0
.354472 .8421863 0
.3960516 .8422376 0
.4362322 .8422973 0
.4752841 .8422968 0
.5143513 .8422316 0
.5523743 .8421765 0
.5886963 .8419586 0
.6230093 .8416005 0
.6566421 .8412595 0
.6895967 .8409668 0
.7216666 .8406308 0
.7531081 .8402691 0
.783008 .8400567 0
.8120599 .8399695 0
.8405071 .8397933 0
.8679906 .8395447 0
.8942432 .8387209 0
.9204646 .8377086 0
.9451688 .8373124 0
.969421 .8367479 0
.993156 .8360194 0
.9999999 .835162 0
0 .8689645 0
0 .8689588 0
0 .8689522 0
0 .8689429 0
0 .8689334 0
0 .868926 0
0 .868917 0
.126175 .8689105 0
.1969916 .8689036 0
.2537915 .8689484 0
.30396 .8689817 0
.3494037 .8690583 0
.3921137 .8691512 0
.4329258 .8691942 0
.4723538 .8691585 0
.5111282 .8690578 0
.549738 .8689585 0
.5869613 .8688599 0
.6214817 .8685403 0
.6550789 .8682855 0
.687805 .8680445 0
.719596 .8679916 0
.751203 .8675007 0
.7816983 .8669945 0
.8108206 .8667965 0
.8392318 .8665273 0
.8666476 .8661814 0
.8932067 .8658119 0
.9191443 .8650092 0
.9449142 .8639446 0
.969305 .8632964 0
.9927401 .8628725 0
.9999999 .8622379 0
0 .8951055 0
0 .8951105 0
0 .8951162 0
0 .8951243 0
0 .8951351 0
0 .8951488 0
0 .8951656 0
.1070914 .8951919 0
.1857224 .8952049 0
