luts/Timeless_29.cube
# 3D LUT of size 33x33x33 converted by Filestar.
#   Input:
#     color space: sRGB
#     white point: default (D65)
#     transfer function: default (sRGB)
#   Output:
#     color space: sRGB
#     white point: default (D65)
#     transfer function: default (sRGB)
#   Exposure: +0.53999996
#   Contrast: +23
#   Whites: +8
#   Blacks: -20
#   Vibrance: +5
LUT_3D_SIZE 5
0 .00158175 .00933342
.2915064 0 0
.5791765 0 0
.8171429 0 0
.9953485 0 0
0 .305663 0
.3003028 .3073995 0
.5814847 .3093385 0
.8187076 .3080281 0
.9964144 .3064044 0
0 .5967977 0
.2997985 .5971457 0
.5858087 .5977224 0
.8197314 .5976817 0
.9981202 .5964037 0
0 .8321214 0
.2946377 .8318224 0
.5872258 .8316997 0
.8221244 .8315608 0
.9972755 .8310425 0
0 .9999999 0
.2867765 .9999999 0
.5862929 .9999999 0
.8191671 .9999999 0
.9946907 .9999999 0
0 0 .3148785
.2962706 0 .31749
.5830261 0 .3193759
.8184895 0 .3191202
.9964778 0 .3166199
0 .3073814 .3201599
.2999606 .3077038 .3190572
.5828316 .3068768 .3184423
.8198438 .3039354 .3171303
.9975581 .3004947 .3138367
0 .5970153 .312505
.2917264 .5975695 .3124541
.5855373 .5981383 .3124012
.8215423 .5969843 .3089134
.9987082 .594425 .3100213
0 .8323848 .3019994
.2798524 .8324069 .301432
.5839871 .8322558 .3010789
.823802 .8314875 .2998228
.9994292 .8306746 .2997841
0 .9999999 .2990101
.2767667 .9999999 .2978324
.5812425 .9999999 .2960886
.816821 .9999999 .2910377
.9949148 .9999999 .2923329
0 0 .611093
.3015466 0 .6120101
.5851613 0 .6123272
.8206714 0 .6130719
.997923 0 .6128237
0 .3035646 .6126639
.296187 .3016758 .6128424
.5853701 .3000095 .6131957
.8213282 .2979479 .6123573
.9991103 .2922357 .6116012
0 .5960916 .6132199
.2835092 .596724 .6129493
.5871665 .5959768 .6125881
.8202314 .5953751 .6120416
.9976419 .5931843 .6106153
0 .8328698 .6084165
.269933 .8328275 .6078025
.5819357 .8321588 .6062797
.8227909 .8313696 .6063333
.9993095 .830195 .6062302
0 .9999999 .6049831
.2659319 .9999999 .6043438
.581019 .9999999 .6042199
.8157266 .9999999 .6062294
.9941661 .9999999 .6031404
0 0 .8488322
.2916985 0 .8491431
.5835071 0 .8492091
.8211342 0 .8493981
.998183 0 .8491573
0 .2984944 .8489878
.2833611 .2974679 .8491401
.5818527 .2955058 .8495598
.8210685 .2891282 .8501538
.9995992 .2826682 .8497866
0 .5926966 .8498827
.2688335 .592133 .8500847
.5809257 .5904606 .8500319
.821303 .5895309 .8504484
.9989614 .5896109 .8486454
0 .8313783 .8494932
.2716778 .8311543 .8492764
.5801932 .8307773 .8489469
.8193405 .8304976 .8488802
.9953917 .8306015 .84819
0 .9999999 .8477135
.2643013 .9999999 .8475581
.5813991 .9999999 .8460487
.8192405 .9999999 .8469899
.9933965 .9999999 .8463802
0 0 .9999999
.2918982 0 .9999999
.5823941 0 .9999999
.8180851 0 .9999999
.9956875 0 .9999999
0 .2971678 .9999999
.2822675 .2971748 .9999999
.5819183 .2941589 .9999999
.8173693 .289153 .9999999
.9962154 .2852596 .9999999
0 .5893464 .9999999
.2673565 .5881318 .9999999
.5777132 .5877973 .9999999
.81679 .5900397 .9999999
.9955398 .5885834 .9999999
0 .8276983 .9999999
.268108 .8274937 .9999999
.5793973 .8270972 .9999999
.8157482 .8277429 .9999999
.9931676 .8279357 .9999999
0 .9999999 .9999999
.2719527 .9999999 .9999999
.5818439 .9999999 .9999999
.8221909 .9999999 .9999999
.9975852 .996555 .9999999
