luts/Timeless 42.cube
# 3D LUT of size 33x33x33 converted by Filestar.
#   Input:
#     color space: sRGB
#     white point: default (D65)
#     transfer function: default (sRGB)
#   Output:
#     color space: sRGB
#     white point: default (D65)
#     transfer function: default (sRGB)
#   Exposure: +0.25
#   Contrast: +2
#   Whites: +3
#   Blacks: -11
#   Vibrance: +6
LUT_3D_SIZE 33
.00689957 .0046586 .02477115
.01665027 .00422992 .01650434
.0457492 0 .01857328
.08722494 0 .01702605
.125562 0 .01421367
.1611138 0 .00874657
.1960422 0 .00426938
.2310252 0 .00186981
.2661107 0 .00220502
.3014355 0 .00134657
.3366919 0 0
.3716568 0 0
.4065743 0 0
.4407806 0 0
.4742354 0 0
.5072885 0 0
.540001 0 0
.5723364 0 0
.604176 0 0
.635591 0 0
.6664894 0 0
.6974464 0 0
.7279865 0 0
.7577896 0 0
.7871724 0 0
.8159753 0 0
.8442385 0 0
.8720947 0 0
.8994868 0 0
.92617 0 0
.9521137 0 0
.9775371 0 0
.9999999 0 0
0 .04187698 .01137999
.00292424 .03867729 .00870072
.04338322 .03607622 .01168067
.08609851 .03335039 .01034624
.1247075 .03317941 .00854395
.1614036 .03460955 .00451388
.1964359 .0336724 .00369841
.2320343 .03636707 .00227945
.2669384 .03779408 .00191656
.3020173 .03552133 0
.3372661 .03258012 0
.3722967 .02979026 0
.4071085 .02752987 0
.4409098 .02786617 0
.4743372 .0282173 0
.507382 .02857726 0
.5400848 .0280489 0
.5723974 .0270698 0
.6041424 .02639901 0
.6355679 .02103184 0
.6665072 .01366031 0
.6974704 .01106533 0
.7280221 .00738814 0
.7578321 .00715162 0
.7871973 .00565127 0
.8160011 .00327336 0
.8442914 .00128311 0
.8721566 0 0
.8995396 0 0
.9262186 0 0
.9521667 0 0
.9775866 0 0
.9999999 0 0
0 .07328286 .00113483
0 .07218339 0
.04559593 .06991728 .00423952
.08687509 .06726608 .00783391
.1247327 .06780254 .00713631
.162109 .06860011 .00579038
.1981023 .07001496 .00450784
.2330494 .07161886 .00170566
.2679115 .07122292 0
.3027475 .06987821 0
.3379535 .06766737 0
.3729246 .06548075 0
.4072825 .06535482 0
.441056 .0655922 0
.4744521 .06583946 0
.5074877 .06609484 0
.5401823 .06572447 0
.5724357 .06631907 0
.6041089 .06575194 0
.6355416 .06233972 0
.6665271 .0568993 0
.6974978 .054971 0
.7280623 .05171246 0
.757883 .05132122 0
.787225 .05020307 0
.8160448 .04789128 0
.8443511 .04592962 0
.8722245 .04322278 0
.8995971 .03843417 0
.9262298 .03201188 0
.9522223 .02298472 0
.9776413 .0140949 0
.9999999 .01063807 0
0 .1048683 0
.00083951 .1043537 0
.05275247 .1030282 .00319594
.09023095 .1035 .00665208
.12782 .103725 .0081846
.1637682 .1039851 .00631038
.1998435 .1045247 .0011527
.2346289 .1047772 0
.2692347 .1043889 0
.303927 .1033266 0
.3385712 .1022169 0
.3732232 .1013244 0
.4075129 .1012829 0
.4412646 .1014481 0
.4746169 .1016509 0
.5076283 .102019 0
.5402717 .1025326 0
.5725055 .1030352 0
.6040648 .1030834 0
.635504 .1009017 0
.6665557 .09747053 0
.6975585 .09615091 0
.7281203 .09408801 0
.7581369 .09249546 0
.7872727 .09308549 0
.8161309 .091422 0
.8444355 .09015397 0
.8723181 .08831384 0
.8996794 .08552022 0
.9263194 .08114173 0
.9523018 .0756316 0
.9777195 .06978817 0
.9999999 .06842736 0
0 .1402206 0
0 .1401975 0
.05584008 .1382751 0
.0900596 .1390419 .00185707
.1291581 .1383337 .00243059
.166245 .1376437 .00242693
.2018377 .1375225 0
.2359085 .1381803 0
.2700318 .1384431 0
.3043441 .1379526 0
.3389336 .136972 0
.3736221 .1362315 0
.4078214 .136265 0
.4415356 .1364873 0
.4747887 .1371743 0
.5077567 .1378468 0
.5403895 .1382355 0
.5726075 .138665 0
.6041735 .1386658 0
.6354305 .1374274 0
.6666089 .1353975 0
.6976402 .1342452 0
.7281717 .1327057 0
.7581783 .1315709 0
.7873942 .1317449 0
.8162411 .1305745 0
.8445444 .1295758 0
.8724436 .1280189 0
.8997905 .1260341 0
.9263943 .1227321 0
.9524013 .1187408 0
.9778239 .114792 0
.9999999 .1147783 0
0 .1747521 0
0 .1746283 0
.04916201 .1733103 0
.09161782 .1730058 0
.1287398 .1728472 .00100414
.1669809 .1722657 0
.2022275 .1721855 0
.2362138 .1722818 0
.2701436 .1724949 0
.3050178 .1720368 0
.339412 .1715246 0
.3741058 .1710835 0
.4081095 .1715353 0
.4417645 .1719945 0
.4749914 .1725387 0
.5079026 .17315 0
.5405123 .1735479 0
.5727006 .1738821 0
.6041505 .1737856 0
.6353391 .1729743 0
.6666793 .1720363 0
.6977493 .1709193 0
.7282757 .1695339 0
.7582896 .1686589 0
.7875488 .1687169 0
.8163783 .1678576 0
.8446781 .1668566 0
.8725353 .1662011 0
.8999215 .1641861 0
.9264889 .161228 0
.9524929 .1581485 0
.9779689 .1555142 0
.9999999 .1557437 0
0 .2089659 0
0 .2088707 0
.03735377 .208275 0
.0949383 .2068927 0
.1289991 .2072218 0
.1663086 .2067403 0
.2020262 .2065873 0
.2358788 .20694 0
.270035 .2072935 0
.3049745 .2070654 0
.339873 .2067318 0
.3743935 .2066726 0
.4084077 .2068376 0
.4420053 .2071895 0
.4752029 .2076424 0
.5080595 .208143 0
.5406563 .2084723 0
.5726927 .2085461 0
.6041208 .2085505 0
.6353451 .2079541 0
.6668964 .2074852 0
.6979724 .2065326 0
.7283586 .2053559 0
.7584214 .2047972 0
.7877322 .2047701 0
.8164469 .2048203 0
.8447055 .2040515 0
.8727278 .2024808 0
.9000345 .2005531 0
.9266077 .1979842 0
.9526051 .1954269 0
.9781293 .1944199 0
.9999999 .19462 0
0 .2433706 0
0 .2432977 0
.02790751 .2432858 0
.09355762 .2417091 0
.1315034 .2415818 0
.1653429 .2418048 0
.2010799 .2416896 0
.2346374 .2423378 0
.269698 .2422392 0
.3049016 .241802 0
.3399509 .2415907 0
.3746233 .2417806 0
.4086971 .2418476 0
.4422733 .2420325 0
.4754259 .24235 0
.5082264 .2427806 0
.5408372 .2430405 0
.572723 .2428294 0
.6042223 .2428495 0
.6356445 .2426986 0
.6672563 .2421275 0
.6980815 .2413267 0
.7285241 .2407629 0
.758566 .2403023 0
.7878013 .2412803 0
.8165211 .2408597 0
.8449049 .2394656 0
.8729991 .2378016 0
.900177 .2359016 0
.9267303 .2338676 0
.9527043 .2318574 0
.9783031 .2319653 0
.9999999 .23213 0
0 .2765885 0
0 .2766201 0
.03291767 .2767693 0
.08785325 .276329 0
.1309184 .2759797 0
.164946 .2764485 0
.2003687 .2765407 0
.2345713 .27676 0
.2697153 .2766319 0
.3047473 .2763307 0
.3398118 .2762547 0
.3744712 .2763259 0
.4087042 .2765685 0
.4425142 .276553 0
.4757194 .2767182 0
.5085444 .2768737 0
.5410711 .2768541 0
.5727908 .2766351 0
.604292 .2768751 0
.6361072 .2767766 0
.6673838 .2762942 0
.6982179 .2757471 0
.72875 .2756167 0
.7586824 .2756745 0
.7880688 .2756527 0
.816753 .2753885 0
.8451422 .2741868 0
.8731966 .2728515 0
.9003065 .2709316 0
.9268509 .2691932 0
.9529195 .2684038 0
.9785187 .2681983 0
.9999999 .2684987 0
0 .3096569 0
.00287156 .3096733 0
.04351317 .3098023 0
.08953037 .3097472 0
.1315779 .3094801 0
.1693477 .309379 0
.2036679 .3095399 0
.2374155 .3097382 0
.2717536 .3099087 0
.3058909 .3102963 0
.3403836 .3104039 0
.3747218 .3104884 0
.4089091 .310646 0
.4426979 .3108646 0
.4760306 .3108352 0
.5089459 .3109595 0
.5410134 .3107272 0
.5728744 .3105502 0
.6044449 .3107379 0
.6361987 .3105627 0
.6674443 .3103638 0
.6984588 .3102047 0
.7289419 .3100944 0
.7588838 .3099622 0
.7882832 .3095818 0
.8171644 .3090416 0
.8453795 .3085577 0
.873267 .3071896 0
.9004373 .3055619 0
.9269975 .3041876 0
.9531546 .3040766 0
.9787008 .3043212 0
.9999999 .3044652 0
0 .3440662 0
0 .3441031 0
.0432445 .3440599 0
.08959857 .3439878 0
.1303557 .3438651 0
.1686605 .3437146 0
.2040212 .3437455 0
.239627 .3435791 0
.2736657 .3436894 0
.3076197 .3439361 0
.3419207 .343955 0
.3763059 .3438015 0
.410017 .3439839 0
.4429837 .3446707 0
.4762417 .3448956 0
.5090792 .3446899 0
.5412478 .3444682 0
.5729396 .344516 0
.6047013 .3446697 0
.6363651 .3445621 0
.6676072 .3445728 0
.6986441 .3444439 0
.7290987 .3443375 0
.7590119 .3440194 0
.788401 .3436424 0
.8172679 .3432188 0
.845517 .3427235 0
.873367 .3413589 0
.9005616 .3397163 0
.9272176 .3394819 0
.9533033 .3397099 0
.9788296 .3398471 0
.9999999 .3399057 0
0 .3779545 0
.00180098 .3778934 0
.04801091 .377824 0
.09279109 .3777249 0
.1325808 .3776046 0
.1671363 .3778406 0
.2044936 .377678 0
.2390146 .377752 0
.2750519 .3774984 0
.3094462 .3774124 0
.3436768 .3773042 0
.3776076 .3772478 0
.4114503 .3771529 0
.4446098 .3773631 0
.4765999 .3783866 0
.5091952 .3783355 0
.5413568 .3780962 0
.5732555 .3784266 0
.6051863 .3785812 0
.6366579 .3787317 0
.667899 .3786119 0
.6988268 .3783867 0
.7292492 .378057 0
.75915 .3777318 0
.7885329 .3773924 0
.8174387 .3769518 0
.8457471 .3759136 0
.8734336 .3750904 0
.9006938 .3746209 0
.9273762 .3746127 0
.9534522 .3747246 0
.9789706 .3747813 0
.9999999 .3748334 0
0 .411037 0
.01007896 .4110037 0
.05443797 .4109786 0
.0956886 .410972 0
.1335644 .4109802 0
.1700637 .4109907 0
.20364 .4113 0
.2402439 .4112289 0
.2746185 .4112973 0
.3106134 .4110329 0
.3448352 .4109224 0
.3785962 .4109288 0
.4121222 .4108315 0
.4454883 .4108137 0
.4780648 .4110544 0
.5094877 .4117217 0
.541479 .4119914 0
.5736625 .4119305 0
.6055614 .4121934 0
.6372454 .4123185 0
.6681878 .4124399 0
.698858 .4121921 0
.7293593 .411662 0
.7593009 .411122 0
.7886473 .4108471 0
.8174106 .4101893 0
.845682 .4094176 0
.8735183 .4089753 0
.9009123 .4090633 0
.9275483 .4091389 0
.9536121 .4092075 0
.9791264 .4092499 0
.9999999 .4092963 0
0 .4446567 0
.00356751 .4446346 0
.0491065 .4446098 0
.0930622 .444574 0
.1325734 .444526 0
.1703592 .4444829 0
.2064793 .4444932 0
.2400957 .4447815 0
.274696 .4448495 0
.3101075 .4446642 0
.3456292 .4443696 0
.3795105 .444362 0
.412895 .4444591 0
.4460284 .4445623 0
.4782857 .4444965 0
.510219 .4446003 0
.5419821 .4452224 0
.5741074 .4454834 0
.6060681 .4454153 0
.6374722 .4454917 0
.6686154 .4453993 0
.6990998 .4454807 0
.7294027 .4452489 0
.7593035 .4448671 0
.7885447 .4441614 0
.8173689 .4433273 0
.8457299 .4430926 0
.8737214 .4430427 0
.9011059 .442939 0
.9277706 .4429727 0
.9538231 .4430524 0
.9793234 .4431244 0
.9999999 .4431067 0
0 .4779168 0
0 .4778939 0
.04272179 .4778736 0
.08946148 .4778484 0
.1301979 .4778146 0
.1685456 .4777716 0
.2055968 .4777213 0
.2391306 .4780226 0
.2756208 .4779596 0
.3099293 .4780908 0
.3450468 .4781134 0
.3804081 .4779615 0
.4136676 .4779914 0
.4462083 .4779429 0
.4783015 .4778326 0
.5106894 .4779404 0
.5426832 .478159 0
.5747615 .4783643 0
.6063915 .47855 0
.637791 .4784414 0
.6686305 .4784986 0
.6992596 .4785361 0
.7294965 .4784867 0
.7592009 .4779134 0
.7884617 .4771529 0
.8174074 .4770625 0
.8459047 .476886 0
.873892 .4766833 0
.9012896 .4765245 0
.9280124 .4764308 0
.9540589 .4764479 0
.9795697 .4764528 0
.9999999 .4763849 0
0 .5108399 0
0 .5108519 0
.0341238 .5108681 0
.08469021 .510886 0
.1270171 .510907 0
.1662611 .5109338 0
.2037402 .5109702 0
.2402843 .5110136 0
.2744557 .5113052 0
.3095051 .5114928 0
.3449274 .5114377 0
.3792619 .5114045 0
.413548 .5110908 0
.4464514 .5110288 0
.4789147 .5111253 0
.5111545 .5111194 0
.5431957 .5112273 0
.5752162 .5111911 0
.6067726 .5112752 0
.6379101 .5114093 0
.6688403 .5113577 0
.6992007 .5112809 0
.729229 .5109505 0
.7591278 .5107389 0
.7886935 .5106667 0
.8174558 .5105903 0
.8460049 .5103825 0
.8739979 .5101837 0
.9014322 .5099736 0
.9281987 .5096887 0
.9543138 .509665 0
.9796036 .5096032 0
.9999999 .5094872 0
0 .5437266 0
0 .5437371 0
.03042719 .5437487 0
.0823402 .5437657 0
.1252465 .5437894 0
.1649313 .5438229 0
.2028768 .543864 0
.2397718 .5439129 0
.2759408 .5439699 0
.3098786 .5442696 0
.3438621 .5444125 0
.3783079 .5443428 0
.4126052 .5441714 0
.4471385 .5438098 0
.4798062 .5436975 0
.5120602 .5436891 0
.544167 .5436534 0
.5755891 .5438955 0
.6072904 .543726 0
.6384045 .5438027 0
.6690627 .5438879 0
.6992723 .5435197 0
.7294155 .5435539 0
.7589269 .543837 0
.7885756 .5437201 0
.8175731 .5436637 0
.8460986 .5435472 0
.8740799 .5432769 0
.901538 .5429544 0
.9283755 .5426508 0
.9543123 .5425687 0
.9794589 .5424268 0
.9999999 .5422609 0
0 .5761205 0
0 .5761661 0
.03045203 .5761827 0
.08275826 .5762042 0
.1258402 .5762329 0
.1655125 .5762691 0
.2034719 .5763135 0
.2400726 .5763534 0
.2759523 .5763379 0
.3102459 .5764535 0
.3444741 .5765413 0
.3777239 .576588 0
.4119441 .5764676 0
.4461098 .576276 0
.4804095 .5758923 0
.5126528 .5758774 0
.5445531 .5758591 0
.5761241 .5759397 0
.6073928 .5760319 0
.6385856 .5757001 0
.6692032 .5756196 0
.6994825 .5759897 0
.7294018 .576365 0
.7593265 .5762286 0
.7883531 .576391 0
.8174489 .5761917 0
.8461716 .5759313 0
.8743075 .5757189 0
.9016526 .5754252 0
.9284562 .5751285 0
.9543734 .5750381 0
.9794108 .5749145 0
.9999999 .5748882 0
0 .6081999 0
0 .6081973 0
.03384408 .6081943 0
.08431 .6081892 0
.1265081 .6081824 0
.1656342 .6081738 0
.2031919 .6081632 0
.2397864 .6081507 0
.2755946 .6081393 0
.3107566 .6081473 0
.3438868 .6083958 0
.3778491 .6084777 0
.4113631 .6084207 0
.4452423 .6082829 0
.4793383 .6079982 0
.5131292 .6076962 0
.545027 .6076373 0
.5767075 .6075323 0
.6073163 .6076069 0
.6386204 .6076219 0
.6694862 .6076375 0
.6998971 .6077699 0
.7297797 .608083 0
.7593877 .6084149 0
.7885691 .6083502 0
.8174931 .608214 0
.846117 .6079257 0
.8742264 .6076324 0
.9017685 .607346 0
.9285784 .6071237 0
.9543841 .6069679 0
.9793519 .6069437 0
.9999999 .6067683 0
0 .6395679 0
0 .639565 0
.03235954 .6395617 0
.08344571 .6395569 0
.1259111 .6395506 0
.1651832 .6395437 0
.202841 .6395437 0
.2393772 .6395465 0
.2750815 .6395555 0
.3101749 .6395786 0
.3448602 .6396049 0
.377845 .63984 0
.4114951 .639826 0
.4449915 .6397107 0
.4784808 .6395304 0
.5120205 .6392184 0
.5451254 .6388602 0
.5769308 .6388817 0
.6081008 .6390792 0
.6387774 .6394492 0
.6696264 .6394745 0
.7001595 .6392882 0
.7301473 .6393757 0
.7596805 .6397458 0
.7886463 .6400705 0
.817674 .6398051 0
.8462438 .6394695 0
.8740785 .6392847 0
.9016348 .6389886 0
.9284701 .6386815 0
.9544634 .6383486 0
.979387 .6383799 0
.9999999 .638347 0
0 .670699 0
0 .6706958 0
.02545142 .6706923 0
.0794841 .670687 0
.1233569 .67068 0
.1633852 .6706713 0
.2013553 .6706567 0
.2380964 .6706464 0
.2740997 .6706304 0
.3093593 .6706265 0
.3440467 .6706223 0
.378455 .6705872 0
.4112026 .6707745 0
.4444175 .6707126 0
.477768 .6706798 0
.5108907 .6705661 0
.5444762 .6703342 0
.5778161 .6700312 0
.6091838 .6700527 0
.6395457 .6704959 0
.6697443 .6708836 0
.700174 .6707647 0
.7303056 .6705653 0
.7597211 .6706694 0
.7888216 .6708934 0
.8174518 .67116 0
.8461736 .6707394 0
.8743253 .6701853 0
.9015169 .670083 0
.9281043 .6697753 0
.954122 .6694461 0
.9794138 .6693439 0
.9999999 .6692972 0
0 .701401 0
0 .7013961 0
.01471868 .7013906 0
.07232986 .7013867 0
.1181816 .7013758 0
.1590227 .7013562 0
.1975769 .7013321 0
.2348313 .7013048 0
.271552 .7012975 0
.3076043 .7012731 0
.3431794 .7012166 0
.3780923 .7012273 0
.4109577 .7014904 0
.4448256 .7015313 0
.4781505 .7014925 0
.5111216 .701421 0
.5436481 .7013725 0
.5771368 .7010767 0
.6098911 .7009002 0
.6404708 .7010514 0
.6702808 .7014704 0
.7001732 .7016479 0
.7303334 .7014003 0
.7598695 .7011695 0
.7890447 .7011327 0
.8178567 .7012793 0
.8460743 .7014164 0
.8741456 .7011662 0
.9015888 .7005271 0
.9277922 .7004262 0
.9539077 .7000886 0
.9792776 .6997445 0
.9999999 .6996586 0
0 .731557 0
0 .7315577 0
.00739761 .7315578 0
.06775215 .7315583 0
.1156658 .7315589 0
.1574498 .7315393 0
.1966978 .7315454 0
.2344784 .7315422 0
.271051 .7315754 0
.3072775 .7315577 0
.3429012 .7315378 0
.3778973 .7315837 0
.4124639 .7316223 0
.445177 .7318391 0
.4784914 .7318236 0
.5113716 .7317527 0
.5438091 .7316455 0
.5760378 .7315625 0
.6090536 .7312114 0
.6411042 .7309471 0
.6712732 .7312632 0
.7007514 .7315757 0
.7306657 .7314059 0
.760253 .731185 0
.7895929 .7309428 0
.8181564 .7310173 0
.8463834 .7312353 0
.8740797 .7312942 0
.901175 .7311376 0
.9279825 .7304212 0
.9538546 .7299856 0
.9790767 .7298455 0
.9999999 .729791 0
0 .7614594 0
0 .7614584 0
0 .7614573 0
.06162946 .7614558 0
.1118204 .7614536 0
.1549039 .7614493 0
.1949444 .7614423 0
.2332397 .7614341 0
.2704511 .7614142 0
.3068939 .7613782 0
.3426262 .761363 0
.3775304 .7613601 0
.4121211 .7613147 0
.4447869 .7614246 0
.4786008 .7613057 0
.5113862 .7611504 0
.5438911 .7609996 0
.5760007 .7609439 0
.6078074 .7609036 0
.6404135 .7605961 0
.6717649 .7606226 0
.7014259 .7608896 0
.7311652 .7609043 0
.7608114 .7607214 0
.7900241 .7605855 0
.8187203 .760538 0
.8468226 .7605823 0
.8739935 .7608241 0
.9010585 .7605488 0
.9274509 .7603438 0
.9535241 .7598661 0
.9790381 .7593462 0
.9999999 .7594045 0
0 .7906578 0
0 .7906559 0
0 .7906538 0
.05561238 .790651 0
.1083089 .790647 0
.1522808 .7906423 0
.192726 .7906363 0
.2312616 .790629 0
.2685839 .7906207 0
.3049642 .7905755 0
.3407523 .7904978 0
.3759936 .7904075 0
.4107359 .7903047 0
.4450224 .7901919 0
.477631 .7902756 0
.5109174 .7901196 0
.5434195 .7899666 0
.5756367 .7898793 0
.6074496 .7898797 0
.6390337 .7898629 0
.6708664 .7896938 0
.7012441 .7897967 0
.731379 .7895881 0
.7611302 .7895662 0
.790333 .7896186 0
.8190132 .7896785 0
.8468804 .7895204 0
.8741798 .789358 0
.9007785 .7894702 0
.9272044 .7893063 0
.9530622 .7891644 0
.9785517 .7888385 0
.9999999 .788399 0
0 .8192983 0
0 .819289 0
0 .8192785 0
.04278859 .8192633 0
.1012108 .8192432 0
.1472275 .8192174 0
.1887572 .819186 0
.2279738 .8191486 0
.2657673 .819105 0
.3025717 .8190548 0
.3386261 .8189984 0
.3741309 .8189114 0
.4091156 .8188066 0
.4436074 .818692 0
.4776338 .8185676 0
.5103546 .8185754 0
.5429149 .8184648 0
.5753629 .8183312 0
.6072816 .8183408 0
.6387352 .8183599 0
.6693246 .8184754 0
.7007267 .818336 0
.7314702 .8180972 0
.7613434 .818009 0
.7905126 .8179712 0
.8190553 .8178801 0
.8468806 .8177648 0
.8741782 .8176913 0
.9009992 .8176041 0
.9269186 .817834 0
.9527821 .8177084 0
.9781463 .8175821 0
.9999999 .8174736 0
0 .8472339 0
0 .8472251 0
0 .8472151 0
.02922023 .8472008 0
.09426556 .8471817 0
.1424613 .8471573 0
.1851282 .8471274 0
.2250583 .847092 0
.2633441 .8470506 0
.3005007 .8470067 0
.3368228 .8469579 0
.3724738 .8469036 0
.4076301 .8468121 0
.4422675 .8467092 0
.4762331 .8466102 0
.5097669 .8465229 0
.5423554 .8465144 0
.5749965 .8464167 0
.6071997 .8463826 0
.6385773 .8463863 0
.6692945 .8464401 0
.6996101 .8465906 0
.7310573 .8463051 0
.7614056 .8460367 0
.7906515 .8458066 0
.818988 .845701 0
.8468462 .8456381 0
.8742064 .8455723 0
.9009395 .8455098 0
.9272402 .8454293 0
.9525947 .8457041 0
.977829 .8456382 0
.9999999 .8455567 0
0 .8747702 0
0 .8747625 0
0 .8747538 0
.01650825 .8747413 0
.08734309 .8747246 0
.1378419 .8747035 0
.1816234 .8746775 0
.2222286 .8746465 0
.2609714 .8746104 0
