luts/Timeless 37.cube
# 3D LUT of size 33x33x33 converted by Filestar.
#   Input:
#     color space: sRGB
#     white point: default (D65)
#     transfer function: default (sRGB)
#   Output:
#     color space: sRGB
#     white point: default (D65)
#     transfer function: default (sRGB)
#   Exposure: -0.01
#   Contrast: -29
#   Whites: -29
#   Blacks: -16
#   Vibrance: +50
LUT_3D_SIZE 9
.00388102 .03519235 0
.05954461 .02584394 .00263469
.2147482 0 .01279413
.3394774 0 0
.4613789 0 0
.5848067 0 0
.7024237 0 0
.8219724 0 0
.9426105 0 0
0 .1247256 0
.06877422 .1204433 0
.2111569 .1261566 0
.3406878 .1235697 0
.4643211 .1095102 0
.5847448 .09523357 0
.7024609 .09071302 0
.8224074 .0511006 0
.9431665 0 0
0 .2543623 0
.06988958 .2559503 0
.2266479 .2570049 0
.3464407 .2558135 0
.4679671 .2471838 0
.5846673 .2440727 0
.7030339 .2425141 0
.8226587 .2326609 0
.9429986 .2198821 0
0 .4025713 0
0 .4021727 0
.2028934 .3995976 0
.3433452 .3967386 0
.4656512 .3935887 0
.5840624 .3900248 0
.7031615 .3849581 0
.8224906 .3767523 0
.9436575 .3632366 0
0 .5365278 0
0 .5361663 0
.1626309 .5352913 0
.3215573 .5337761 0
.4586527 .5306506 0
.5802165 .5268241 0
.7030892 .5231729 0
.821271 .5180826 0
.941258 .5113878 0
0 .6680421 0
0 .6679218 0
.09265029 .6676704 0
.2901461 .6672032 0
.4356475 .6663952 0
.5713311 .6641263 0
.6944625 .6613271 0
.8199508 .6557899 0
.9386145 .6522132 0
0 .8010798 0
0 .801093 0
0 .8010156 0
.2348187 .8006889 0
.4070455 .799771 0
.5538546 .7982808 0
.6876687 .7958076 0
.8114211 .7934316 0
.9361023 .7905117 0
0 .9366758 0
0 .9366868 0
0 .9365886 0
.1257766 .9362829 0
.3616491 .9358232 0
.5246618 .9353247 0
.6700999 .9344971 0
.8067399 .9323125 0
.9349208 .9312652 0
0 .9874319 0
0 .98744 0
0 .9873918 0
.01917862 .9873592 0
.3411025 .9874979 0
.5132272 .9873379 0
.6637883 .9872025 0
.801254 .986666 0
.9363689 .9862913 0
.0078449 .03585733 .08228818
.09543883 .01752862 .0839637
.2195432 0 .09399434
.345637 0 .08980652
.4672151 0 .07400107
.5883644 0 .04457268
.7069744 0 0
.8261335 0 0
.9451261 0 0
0 .1235007 .09069411
.07580271 .1182746 .08971333
.2154541 .1197256 .08790457
.3456347 .1143331 .07607535
.4686852 .09796678 .06232902
.5884314 .07143597 .02412209
.7074741 .03501649 0
.8267598 0 0
.9459706 0 0
0 .2567226 .08876065
.02945754 .258607 .0662967
.2202857 .2594686 .03312317
.3514329 .254725 .0253233
.4701049 .2454299 .02863432
.5882816 .2389778 0
.7072136 .2323671 0
.8258506 .2217188 0
.9460172 .19988 0
0 .4045615 0
0 .4041477 0
.191821 .402427 0
.3427272 .3990708 0
.4704641 .3940301 0
.5879043 .3895021 0
.704308 .3833919 0
.824178 .3744278 0
.9448424 .3598522 0
0 .5375336 0
0 .5371726 0
.1452067 .5361667 0
.3166509 .5344639 0
.4593907 .5324239 0
.5830069 .528789 0
.7060988 .5233457 0
.8238537 .5163558 0
.942283 .5094931 0
0 .6688725 0
0 .6688201 0
.06520291 .6685112 0
.2841164 .6680666 0
.433543 .6672339 0
.5707217 .664908 0
.6957014 .6624563 0
.8211483 .6558034 0
.9403743 .6513464 0
0 .8017989 0
0 .8017936 0
0 .8016506 0
.221943 .8013157 0
.4028151 .8003917 0
.5516588 .7989897 0
.6867973 .79638 0
.8119686 .7938833 0
.9372645 .7905853 0
0 .9372416 0
0 .9372621 0
0 .937132 0
.09163915 .9367006 0
.3530797 .9360098 0
.5200996 .9359866 0
.6678768 .9351442 0
.8057391 .9329928 0
.9356212 .9314877 0
0 .987884 0
0 .9878547 0
0 .9877622 0
0 .9877452 0
.3314339 .987816 0
.5080324 .9879964 0
.6612195 .9878455 0
.8000439 .9873908 0
.9370502 .9865738 0
0 .01139023 .2180545
.09519825 0 .217846
.2249053 0 .2105222
.3493424 0 .219283
.472005 0 .211147
.5901095 0 .2023912
.7095984 0 .188429
.8276603 0 .1704977
.9467326 0 .1411141
0 .1132258 .2196482
.06508335 .1080547 .2199737
.2214937 .1031846 .2139907
.3518548 .08719013 .2135023
.4737985 .06478757 .2055008
.5901565 .03900625 .1973225
.7092283 0 .183132
.827927 0 .164549
.9471844 0 .133408
0 .2609604 .2173259
0 .2595583 .210167
.2076964 .2556179 .2045795
.3507176 .2496938 .2036368
.472315 .2416151 .1992511
.5898845 .2322584 .188568
.709087 .2222734 .1725987
.8270922 .2089082 .1502241
.9474676 .1830386 .1170397
0 .4060745 .164768
0 .4054297 .1605964
.1557201 .4040208 .1523141
.3360807 .4016328 .1472411
.4753932 .3941403 .1492521
.5896341 .3836319 .1675173
.7060699 .3789731 .1601054
.8261699 .3684084 .1271538
.9470494 .3521363 .08191036
0 .5391743 .1041456
0 .5389303 .09678219
.07667283 .5382415 .08051256
.3047364 .5366226 .08478426
.4530435 .534685 .08921779
.5890641 .5303015 .08674874
.7109866 .5216534 .06644399
.8254998 .51293 .09780451
.9440191 .5055442 .04356261
0 .6708868 0
0 .6708202 0
0 .6708966 0
.266079 .6703207 0
.4274459 .6692714 0
.5686002 .6668909 0
.6982505 .6637537 0
.8245945 .6551651 0
.9437037 .6488652 0
0 .8033004 0
0 .8033108 0
0 .8033264 0
.1856154 .8030313 0
.3889712 .8020408 0
.5451191 .8007097 0
.6855513 .7976236 0
.8129384 .7952146 0
.9403618 .7902965 0
0 .9385434 0
0 .9385197 0
0 .9384112 0
0 .9380161 0
.3289111 .9376323 0
.5074712 .9371378 0
.6615481 .9367583 0
.8030717 .9347062 0
.9367709 .9325032 0
0 .9892177 0
0 .9892141 0
0 .9891738 0
0 .9892998 0
.3023697 .9894064 0
.4955525 .9891474 0
.6547991 .989504 0
.7972969 .9890737 0
.9375349 .9875736 0
0 0 .3421699
.08386444 0 .3436063
.2262982 0 .3479869
.3444348 0 .3477739
.4738612 0 .3461103
.5933557 0 .3358385
.713805 0 .3229823
.8310435 0 .3125735
.9492977 0 .2938273
0 .08574115 .3491724
0 .07429481 .3511552
.2006957 .0527573 .3522758
.3516449 .01718032 .3522373
.478075 0 .3431146
.5933847 0 .3320717
.7129706 0 .3208893
.8297573 0 .3091719
.9495351 0 .2895157
0 .2461944 .3520082
0 .2425603 .3523775
.177461 .2345914 .3510994
.349888 .2276871 .3461612
.4768826 .2251465 .33419
.5908535 .221312 .3270524
.710252 .2071564 .3145171
.8278479 .1913794 .3031238
.9502862 .1464801 .2830731
0 .4057917 .3377557
0 .4049992 .3351431
.09389939 .4018174 .3276297
.321462 .3958009 .3191238
.4703586 .3850779 .319169
.5834973 .380388 .3208513
.7058954 .3720246 .3084135
.8281931 .3577035 .2921077
.9500532 .337274 .2704161
0 .5402429 .2897534
0 .5395278 .2856966
0 .5385932 .2799234
.2636624 .5368626 .270688
.4432716 .5354749 .2643669
.5911075 .5296403 .2576045
.7111801 .5171862 .2697215
.8250953 .5105132 .2817879
.9465374 .4985252 .2526507
0 .6728187 .2303538
0 .6727449 .2265715
0 .6725789 .2166013
.2114383 .6725143 .2032797
.4061629 .6717082 .1996266
.5622135 .6694983 .2039221
.7027363 .6645066 .2096442
.8305461 .6527617 .1923058
.9494684 .6432105 .1848555
0 .8051871 .118195
0 .8051921 .111384
0 .8050674 .09270624
.09671237 .8046013 .06533677
.3612715 .8038661 .05325636
.5283952 .8031162 .06853942
.6798297 .8006605 .1045483
.8143662 .7975141 .1194773
.9464765 .7881863 .09386518
0 .9400877 0
0 .9402158 0
0 .9404466 0
0 .9405912 0
.287452 .9402813 0
.4885359 .9393994 0
.6491097 .9392459 0
.7983252 .9373949 0
.9370408 .9345977 0
0 .9914607 0
0 .9916508 0
0 .9920385 0
0 .9923245 0
.2548679 .9923483 0
.4722193 .9921504 0
.6425724 .9919519 0
.7902681 .9917045 0
.9364034 .989705 0
0 0 .4656524
.06894682 0 .4665275
.2114941 0 .4672431
.3354414 0 .4700344
.4719957 0 .4701547
.5918613 0 .4651744
.7141917 0 .4575274
.8336895 0 .4466098
.9537683 0 .4292624
0 .04690498 .4706757
0 .02605425 .4715244
.1712158 0 .4727615
.3277855 0 .4737288
.4746128 0 .4719059
.5947926 0 .4648831
.7152563 0 .4553728
.8345723 0 .4445879
.953768 0 .4266219
0 .2179588 .4731573
0 .2140157 .4732614
.1053151 .2038115 .4730855
.3138613 .192234 .4728363
.4715397 .1825022 .472173
.5956855 .1850754 .4616528
.7137131 .1778719 .450229
.8329413 .149842 .4381472
.9540001 .08710887 .4202952
0 .3860976 .4732384
0 .3845617 .4725974
.00179499 .3803347 .4698989
.2879702 .3716336 .4665025
.4646834 .3619548 .4605203
.5878732 .3651376 .4487096
.7074903 .3604341 .4405699
.8307756 .3445675 .4300263
.95165 .3214261 .412194
0 .5398208 .4535927
0 .5395578 .4520398
0 .5379756 .4471406
.2223761 .5349796 .4378587
.4214572 .5290108 .4281064
.5854714 .5196031 .4237149
.7031398 .5109175 .4325019
.8263689 .5021457 .4204578
.9501981 .4850718 .3998371
0 .6749362 .4007829
0 .6747049 .3982559
0 .6741002 .3917059
.07616525 .6730475 .3827368
.3699385 .6718119 .3735521
.5514722 .669529 .3700635
.7056147 .6637381 .3654974
.8357759 .6473859 .3551363
.9491214 .6378046 .3730563
0 .8078278 .3367268
0 .807729 .3342215
0 .8073857 .327662
0 .8067896 .3157966
.3114378 .8061488 .3063363
.508483 .8054036 .3007862
.6739018 .8029544 .3048156
.8186402 .7979499 .3100001
.9540401 .7862573 .2900797
0 .9423493 .2354354
0 .9423841 .2329563
0 .9424967 .2265454
0 .9426504 .2170625
.2015297 .9427376 .2035128
.4560331 .9424977 .1907228
.6330548 .9412575 .2028189
.7911572 .9398454 .2104629
.936889 .9368744 .2244846
0 .993812 .1829608
0 .9939665 .1792822
0 .9943498 .17216
0 .9950128 .1598145
.1431465 .9956521 .139135
.4402614 .9950809 .1273043
.6264162 .9940621 .1432145
.7819955 .9936076 .158201
.933567 .992162 .1832526
0 0 .5839891
.06637347 0 .5844741
.202145 0 .585708
.3261483 0 .5877981
.4553576 0 .588509
.5882128 0 .5880766
.7107292 0 .5844672
.8339199 0 .5756472
.9541491 0 .5649949
0 0 .5876387
0 0 .5880238
.1516316 0 .5889832
.3090248 0 .5902964
.452311 0 .5903872
.5903046 0 .5898399
.7141971 0 .5847966
.8349146 0 .5743997
.9556784 0 .5627472
0 .1901905 .5899479
0 .1867561 .5900326
.06494949 .1765356 .5902262
.2845652 .1583046 .5905855
.4431436 .1402667 .5913292
.5897007 .1350815 .5916782
.7180761 .1204946 .5834403
.8380901 .09247226 .5706166
.9583663 0 .5569518
0 .3542639 .5899618
0 .3519195 .5899328
0 .3458982 .5895793
.2338897 .3365879 .5889069
.4241577 .3269027 .5892604
.5858581 .3233102 .5869479
.7171375 .327651 .5757462
.8356529 .3207114 .5630649
.95575 .2945518 .5494202
0 .5216915 .5869818
0 .5206348 .5868026
0 .5179065 .5858142
.1723948 .5128731 .583913
.3917842 .5043682 .5808032
.5692133 .4972457 .5746417
.7042771 .4978991 .5632862
.8260008 .4918074 .5524661
.9496072 .4762142 .5397211
0 .6742963 .5643281
0 .6741874 .56344
0 .6737916 .5609812
0 .6719258 .5544916
.3349814 .6673113 .5447115
.530547 .6620746 .5339535
.699857 .6551062 .528999
.8219211 .6445592 .5378757
.9470952 .6339507 .5311088
0 .8107228 .5117755
0 .8105503 .5096645
0 .8099198 .5042448
0 .8086983 .4952652
.2241638 .8067117 .4860007
.4793939 .8042213 .4784183
.6595111 .8021721 .4764701
.821329 .7962568 .4728737
.957646 .7822692 .4572636
0 .9446455 .4448578
0 .9445478 .4434391
0 .9442817 .4394555
0 .9438834 .4324732
0 .9432904 .4231805
.4165215 .9430133 .4180368
.6163718 .9423218 .4148373
.7879875 .9412524 .412158
.935679 .9380252 .4136339
0 .9959807 .4162708
0 .9960143 .4143625
0 .9960231 .4098262
0 .9960549 .4015815
0 .9966703 .3938534
.390499 .9969776 .3884917
.602521 .9960513 .3867958
.7776731 .9950586 .390888
.9339159 .9938665 .3985289
0 0 .7028772
.02281272 0 .7031228
.1922418 0 .7037522
.3205466 0 .7045304
.4476607 0 .7054924
.5730745 0 .7060156
.7063318 0 .7051229
.8272718 0 .7018163
.9519941 0 .6943129
0 0 .7049094
0 0 .7051235
.1362695 0 .7053819
.3001036 0 .7063823
.4388571 0 .70755
.5703318 0 .7075301
.7070355 0 .7063369
.829749 0 .7027433
.9543781 0 .6932958
0 .1671277 .7054982
0 .1613389 .7056486
0 .1467814 .7062247
.2690233 .1171087 .7072862
.4256128 .06855604 .7079588
.5688244 .01204093 .7092427
.7067943 .01264788 .7086062
.8368276 0 .703097
.9589109 0 .6905294
0 .3267335 .7068454
0 .3236197 .7070786
0 .3162351 .7072672
.1927721 .3040993 .7075783
.3947686 .2885612 .7086229
.5557548 .2783461 .7096635
.7065632 .2760109 .7090546
.8426393 .2656793 .7003685
.9629869 .2497059 .6842842
0 .4881769 .706821
0 .4864426 .7068961
0 .4820619 .7069715
.02762936 .4749004 .7068208
.3407474 .4660938 .7065754
.5351585 .4561902 .7061592
.701836 .4539346 .7041804
.8380557 .4540797 .6925114
.9585341 .4495612 .6753995
0 .6600081 .7027844
0 .6594461 .7027664
0 .6578432 .7026786
0 .6543058 .7018003
.2970532 .6488068 .7000913
.5030745 .6422477 .6965492
.6812161 .6357736 .68864
.8198767 .634905 .6786265
.9463231 .626865 .6682035
0 .809541 .6779038
0 .8094326 .6772114
0 .8091742 .6752828
0 .8088173 .6715289
.1852506 .8072029 .6652341
.4481203 .8033358 .6543583
.6434001 .7978534 .6447799
.8176617 .7932581 .6392844
.94817 .779309 .6452314
0 .9472101 .6261615
0 .9472519 .6250323
0 .9471415 .6221278
0 .9464034 .616523
0 .9449369 .6075367
.372905 .9432477 .5970311
.5937908 .9421622 .5916164
.7765701 .9412883 .5926746
.9385474 .937925 .5944425
0 .9983172 .606343
0 .9982793 .6050979
0 .9982715 .6016229
0 .9982889 .5952568
0 .9978947 .5862569
.3298643 .9972638 .5763857
.5724674 .9966322 .5717034
.7637017 .9963376 .5765705
.9309583 .9960844 .5804577
0 0 .8204638
0 0 .8205352
.1665566 0 .8207247
.3058964 0 .8212489
.4353334 0 .8223236
.5659441 0 .8219184
.691007 0 .8232101
.8245761 0 .8213734
.9456114 0 .8190553
0 0 .8216463
0 0 .821768
.1006773 0 .8219702
.2832432 0 .8226422
.4224387 0 .8236683
.5581967 0 .8239695
.6902851 0 .8240616
.8245591 0 .822215
.9475275 0 .8198429
0 .123736 .8228986
0 .1145368 .8230579
0 .09218691 .8235368
.2417874 .0343769 .8243092
.4039434 0 .8252239
.5493394 0 .8261109
.6879966 0 .8257453
.8251427 0 .8237382
.9529957 0 .8216499
0 .2986924 .8246428
0 .2948835 .8247831
0 .2865357 .8253058
.1409298 .2723519 .8261647
.3643969 .2507729 .826572
.528387 .2323483 .8273607
.6807921 .2144665 .8276193
.8250768 .2059031 .8266034
.9618774 .1761411 .8217094
0 .45938 .8246407
0 .4572162 .8247555
0 .451602 .8250672
0 .4424993 .8255041
.2987311 .4275094 .8264831
.4972359 .4160411 .8265148
.6643394 .411043 .8267326
.8251794 .40323 .827654
.9657691 .3997711 .8168041
0 .6255967 .8235429
0 .6242276 .8236485
0 .6208227 .8239023
0 .6157337 .8241498
.2069316 .6110657 .8234385
.4596781 .6038781 .822849
.65218 .5948418 .8224332
.8211468 .5932991 .8211804
.9588581 .5939021 .8082991
0 .7966539 .8185751
0 .796538 .8185126
0 .7962958 .8184343
0 .7958257 .8182278
.0881381 .7943666 .8172106
.4322006 .790485 .8162568
.6295577 .7843856 .8131945
.8038687 .7789023 .8061181
.9391776 .7761601 .7987221
0 .946779 .7943398
0 .9467747 .7939447
0 .9467407 .7928073
0 .9465075 .790441
0 .9461741 .7869126
.356953 .9454867 .7820038
.578947 .9428043 .7743535
.7609502 .9402504 .769441
.9387237 .9380897 .7687824
0 .9999999 .7801402
0 .9999999 .7794843
0 .9999999 .7780444
0 .9999999 .7758687
0 .9999999 .7724301
.2923333 .9996104 .7667435
.551376 .9980497 .7579539
.7536592 .9972199 .7556935
.9277446 .9977046 .7589268
0 0 .9389378
0 0 .9390379
.1463478 0 .9392771
.2948584 0 .9397575
.4225859 0 .9404224
.5509732 0 .9413401
.6808961 0 .941588
.8094031 0 .9407086
.9404413 0 .9398122
0 0 .9399772
0 0 .9401646
.0459329 0 .9405217
.2619832 0 .9409823
.4091094 0 .9417295
.5418454 0 .9425542
.6778719 0 .9424675
.8088043 0 .9415615
.9409503 0 .9407089
0 .02838041 .9412825
0 .00839775 .9414372
0 0 .9418814
.1975427 0 .9426921
.3812501 0 .943777
.52763 0 .9435785
.6699567 0 .9439256
.8073857 0 .943564
.9420994 0 .9427829
0 .2650801 .9426409
0 .2612136 .9428146
0 .2503672 .9431181
.03187141 .2300608 .9438512
.3305787 .1975471 .9450249
.5023083 .164951 .9452788
.6546929 .1223494 .9462845
.8035102 .08749112 .946577
.9454109 .06106453 .945687
0 .4275093 .9434987
0 .4247608 .9436439
0 .4175649 .9440421
0 .4043616 .9448557
.2417425 .3879174 .945674
.462169 .3712555 .9464535
.6345987 .3586725 .9475854
.7959587 .3518495 .9483097
.9462168 .3464405 .9480879
0 .5908929 .9436958
0 .5892521 .9438698
0 .5854132 .9441475
0 .5798819 .9445757
.0045832 .5718116 .9452606
.4083874 .5614412 .9459801
.6092842 .5540181 .9462379
.7808553 .551761 .9466508
.943697 .5529681 .9469042
0 .7656997 .9436668
0 .765179 .9438107
0 .76361 .944109
0 .7599775 .9445493
0 .7558715 .9442788
.3632029 .7516187 .9437094
.5897667 .7457628 .9424522
.7723685 .7400022 .9426663
.9422656 .7408171 .9453362
0 .9366066 .9403238
0 .9366379 .9403504
0 .9368079 .9404926
0 .937162 .9406322
0 .9374862 .9405566
.3405908 .9372493 .9400327
.5727622 .9365339 .9393618
.7635141 .9360044 .9394332
.9349941 .9317997 .935804
0 .9968421 .9371055
0 .9967805 .9368852
0 .9966332 .9369489
0 .9969516 .9368231
0 .9981064 .9359862
.3156089 .9998289 .9348968
.5611758 .9999116 .9335026
.7601274 .9983996 .9344539
.929991 .9989247 .9350252
