luts/Timeless 11.cube
# 3D LUT of size 33x33x33 converted by Filestar.
#   Input:
#     color space: sRGB
#     white point: default (D65)
#     transfer function: default (sRGB)
#   Output:
#     color space: sRGB
#     white point: default (D65)
#     transfer function: default (sRGB)
#   Exposure: +0.53999996
#   Contrast: +23
#   Whites: +8
#   Blacks: -20
#   Vibrance: +5
LUT_3D_SIZE 5
0 .00158175 .00933342
.320433 0 0
.6233534 0 0
.8662044 0 0
.9999999 0 0
0 .2884084 0
.3276753 .2902493 0
.6249724 .2917418 0
.8671813 .28916 0
.9999999 .2880172 0
0 .569048 0
.3280167 .569528 0
.6295251 .5690957 0
.8690698 .5694516 0
.9999999 .5678173 0
0 .8005719 0
.3269357 .8001503 0
.630025 .8001233 0
.8699496 .7997118 0
.9999999 .7992556 0
0 .9768942 0
.317863 .9768146 0
.6305175 .9766951 0
.8692315 .9753935 0
.9999999 .9747857 0
0 0 .3027849
.3245457 0 .306063
.6263108 0 .3073376
.8674865 0 .3067635
.9999999 0 .3042841
0 .2896723 .3086886
.3282153 .2892779 .3077575
.6266735 .288638 .3064954
.8683097 .2847291 .3047097
.9999999 .2817804 .3016154
0 .5689474 .3018384
.3227641 .5698584 .3005377
.629564 .569445 .3016346
.8697397 .5682883 .30006
.9999999 .5658545 .2979807
0 .8008196 .2903458
.3162206 .8006865 .2892588
.6285537 .8005727 .2885719
.8721153 .7996336 .2870377
.9999999 .7986226 .2874807
0 .9772395 .2843922
.3076484 .977156 .2841892
.6267347 .9771884 .284596
.868881 .9757261 .2817977
.9999999 .9746136 .2819686
0 0 .592796
.3299547 0 .5935276
.6282116 0 .5938422
.8692968 0 .5952159
.9999999 0 .5943934
0 .2860774 .5941707
.3253287 .2835661 .594652
.6291687 .2816815 .5949704
.8699339 .2777823 .5941406
.9999999 .273191 .5928462
0 .568152 .595233
.3160403 .5685375 .594894
.6314543 .5676088 .5940793
.8686193 .5670322 .5937195
.9999999 .5646765 .592109
0 .8012767 .5902924
.3052936 .8009934 .5898533
.6289159 .800279 .5881627
.8701619 .8003773 .5884119
.9999999 .79862 .5899381
0 .9768242 .587043
.2985407 .9764869 .586578
.6251776 .9762345 .5861204
.8673681 .9758229 .5875065
.9999999 .9745042 .583504
0 0 .8284284
.3221503 0 .8286957
.6293124 0 .8286633
.8691702 0 .8291086
.9999999 0 .8287361
0 .2813349 .8285217
.3161105 .2793142 .8286737
.6273361 .277491 .8290898
.8702397 .2692428 .8297802
.9999999 .2627349 .8292277
0 .5650278 .8294693
.3028817 .5637675 .8297964
.6260117 .5618888 .8300114
.8711308 .5605246 .8296732
.9999999 .5619895 .8277918
0 .799548 .8293444
.3060369 .7994781 .8291205
.6260464 .7991176 .8290097
.8683457 .7988997 .8278921
.9999999 .7985483 .827474
0 .9766917 .8273647
.2975751 .976214 .827358
.6265023 .9760569 .8259486
.8669079 .9749882 .827073
.9999999 .9735625 .8258022
0 0 .9999999
.3206597 0 .9999999
.6259912 0 .9999999
.8676385 0 .9999999
.9999999 0 .9999999
0 .2783712 .9999999
.3136012 .2783218 .9999999
.6258436 .2741802 .9999999
.8669234 .2687841 .9999999
.9999999 .2655415 .9999999
0 .5606319 .9999999
.2976916 .5579477 .9999999
.6238014 .5601264 .9999999
.867337 .5613247 .9999999
.9999999 .5597608 .9999999
0 .7958521 .9999999
.2975944 .7959776 .9999999
.623328 .7954264 .9999999
.864426 .7964413 .9999999
.9999999 .7947354 .9999999
0 .9737352 .9999999
.3038444 .9735714 .9999999
.6250086 .9728343 .9999999
.8688889 .9724433 .9999422
.9999999 .9748815 .9985054
