luts/Timeless_32.cube
# 3D LUT of size 33x33x33 converted by Filestar.
#   Input:
#     color space: sRGB
#     white point: default (D65)
#     transfer function: default (sRGB)
#   Output:
#     color space: sRGB
#     white point: default (D65)
#     transfer function: default (sRGB)
#   Exposure: +0.25
#   Whites: -18
#   Vibrance: -10
#   Saturation: -11
LUT_3D_SIZE 9
.0495285 .00320076 0
.1456096 0 0
.2756706 .0053868 .00559394
.3936624 .03875365 .0245204
.5100423 .08061823 .06196884
.6235792 .1202062 .1067087
.7363538 .1501699 .1435462
.8435402 .1762939 .1736161
.9408095 .2081091 .2069877
.07039344 .1306466 .01068749
.162978 .1299067 .02080433
.2713982 .142064 .03048792
.3922933 .1521269 .04796283
.5092627 .167671 .08158761
.6230171 .1916322 .1222756
.735966 .2112708 .1554083
.8430539 .2302783 .1824685
.9407543 .2554238 .2149059
.09419247 .2605056 .05601379
.1697651 .2619702 .06206279
.2778577 .2664202 .07129826
.3947018 .2727009 .08373509
.511993 .2760692 .1113469
.6244684 .2936327 .1453212
.7369834 .3104517 .1720443
.8426369 .3251766 .1991493
.9403797 .3425249 .2316663
.1478057 .390888 .1132154
.2032146 .3916265 .1141045
.2924643 .3937921 .1189125
.3978148 .398017 .1323344
.5154648 .4005941 .1456093
.6305243 .407345 .1663784
.7394194 .4207866 .1909191
.8443816 .4333789 .2188022
.9406614 .4493333 .2531303
.1783785 .51741 .1733121
.2262723 .5172917 .1750731
.3119585 .5171061 .1792098
.4147729 .5181019 .1847429
.5252756 .5217306 .1875596
.6369415 .5261456 .1948899
.7437389 .5351296 .214718
.8468709 .5479957 .2436394
.9408769 .5609767 .2778219
.2277926 .6365289 .2226519
.2652869 .6365266 .223141
.3403409 .6369249 .2225544
.4306398 .639129 .2263507
.5346522 .6398926 .2296209
.6439512 .6434659 .2321839
.7519614 .6479486 .2486184
.8518373 .6585932 .2757805
.9439332 .6719015 .3101042
.2782978 .7529153 .2753877
.3102237 .7529472 .2766621
.3744963 .7534697 .2785585
.4599618 .7540809 .2822746
.5592454 .7552074 .2847879
.6628355 .7579082 .2911204
.7625424 .7626167 .2986099
.8592866 .7684438 .3245395
.9503857 .7773823 .3565455
.3643994 .8617479 .350266
.3885178 .8616492 .3522547
.4373753 .861764 .3558593
.5094922 .8623826 .3593199
.5966805 .8636701 .3647297
.6897181 .8650566 .3706665
.782263 .8674567 .3764481
.8721876 .8739104 .3923092
.9607771 .8805143 .4178283
.4446848 .9640142 .4456196
.4633799 .9640343 .4469494
.5060884 .964194 .449596
.5709773 .9642105 .453195
.6465477 .9650167 .4587895
.730127 .9661496 .46513
.8165993 .9687886 .4778292
.9030153 .9714244 .4991665
.9810408 .9784866 .5269318
.02843286 .00738349 .1267034
.1475298 .00621051 .1271213
.2611841 .03549589 .1334447
.3883056 .05940514 .1447187
.5043758 .09268861 .1608631
.6197211 .1320793 .1825918
.7335166 .1608714 .2067662
.8416107 .184804 .2271559
.9392272 .2153046 .2548534
.06707112 .136231 .132529
.1538463 .139489 .1361471
.2605716 .1525468 .1453431
.3863994 .160523 .1541727
.5031359 .1741374 .1706105
.6194322 .1968535 .1919061
.7332116 .2168972 .2143682
.8410857 .2352578 .2337317
.9390866 .2602673 .2608298
.1037138 .2609003 .1517162
.1743311 .2623917 .1561691
.2777503 .2662345 .1643448
.3906227 .2732313 .1717226
.5059575 .2795538 .1859548
.6209261 .2960888 .2083397
.7339694 .3125724 .2291439
.8405057 .3269219 .2466712
.938963 .3456752 .2751904
.1523972 .390017 .1849289
.2059633 .390798 .1860419
.2942691 .3926009 .1866665
.3963785 .3966997 .1952987
.5115126 .3992294 .2074094
.6273503 .4077345 .2217638
.7373468 .4208988 .239849
.8422596 .4354461 .2647207
.9391249 .4523516 .2956557
.1840582 .5163779 .2227558
.2289403 .5167304 .2241375
.3136437 .5169889 .2277492
.4151764 .5175018 .2328155
.522802 .5208332 .2377083
.6344831 .5261168 .2437534
.7418663 .5354145 .2598879
.8454572 .5484313 .2838458
.9398432 .5620581 .3147462
.2317726 .6357704 .2643119
.2681492 .6358055 .2651158
.3411174 .6361845 .265723
.4339939 .6377439 .2656175
.5343683 .6392186 .2701811
.6425616 .6429977 .2740534
.7503263 .6480007 .2877192
.8503863 .6593576 .3113725
.9426898 .6735058 .3430454
.2836718 .7520275 .3101019
.3139287 .7520831 .310853
.3764905 .7526849 .3123649
.4611184 .7532816 .3157664
.5596457 .75456 .3185425
.6624007 .7572771 .3246467
.7626373 .7619501 .3313082
.8572569 .76881 .3557021
.948937 .7784905 .385993
.3678793 .8613629 .3777708
.3918445 .8612779 .3794915
.4396895 .8614662 .382636
.5116049 .8621448 .3856636
.5978224 .8635523 .3909418
.6903293 .8650713 .396298
.7824717 .8672271 .4022717
.8718519 .8737918 .4178237
.9597344 .8809782 .4424379
.4478473 .9641833 .4631693
.4663424 .9641857 .4644156
.508419 .964325 .4669768
.5721176 .9643798 .4713494
.6479086 .96536 .476807
.7306641 .9664555 .4822677
.8168835 .96907 .4943942
.9025875 .9716476 .515381
.9804154 .9788011 .5436909
.061319 .00982152 .257752
.1551958 .01847805 .2571658
.2670126 .03651406 .2555674
.3839289 .06954761 .2589306
.5032337 .1120915 .2700473
.6147522 .1473401 .2911114
.7279223 .1737344 .3071976
.8373503 .1983281 .3214976
.9364811 .2298978 .3419607
.06228097 .1379757 .2571086
.1503009 .1448383 .2574114
.2667695 .1537015 .259127
.3839049 .1688295 .2666482
.5021067 .1859798 .2770291
.6149929 .2058957 .2964726
.7282429 .2252661 .310988
.8372903 .2451892 .3260179
.9366281 .2715474 .3453053
.09272767 .2677545 .2646701
.1742229 .2687023 .2672908
.2806016 .272862 .2748348
.3880999 .2806896 .2817214
.5023659 .287631 .2903092
.6169786 .3010819 .3060079
.7299274 .316974 .3195027
.8378969 .3332636 .3350515
.9372166 .3528739 .3546589
.1612592 .3897704 .2843118
.2130852 .3906921 .2863194
.2972379 .3932853 .2907072
.3990437 .3971897 .2960197
.5079175 .4015305 .3035884
.6225663 .4100865 .3149565
.7345698 .4234025 .3300355
.8401949 .4400806 .3488135
.9381686 .4576145 .3703853
.2052851 .5134569 .3086076
.244135 .5139474 .3099365
.3218266 .5148343 .3114308
.4166502 .516604 .3177772
.520559 .5188702 .3215606
.6298178 .5255437 .3282785
.7398872 .5357397 .3428264
.8439226 .5493804 .3654519
.9389477 .5636006 .3881658
.2407112 .6346369 .3434673
.2746405 .6347185 .3443463
.344239 .6349668 .3458998
.4359403 .6357183 .3471017
.5363565 .6371319 .3475902
.6416668 .6422265 .351762
.7464492 .6481967 .3646291
.8482231 .6613997 .3847053
.9411746 .6762741 .4098935
.2883264 .7509562 .3798559
.318179 .7510262 .3804727
.3797878 .7512616 .3820106
.4637783 .7518593 .3850356
.5620103 .7532918 .3876307
.66293 .7555799 .3908628
.7622912 .7601359 .3987924
.8570659 .7684748 .4191048
.9487413 .779162 .4471162
.3715747 .8615881 .4372494
.3952616 .8613898 .4387181
.4427298 .8613195 .4408539
.5137608 .8620384 .4423678
.6002943 .8634383 .4467102
.6921819 .8649521 .4518207
.7838351 .8671671 .4593985
.8731726 .8725153 .4734948
.9569604 .8821992 .4972451
.4534355 .9647699 .5029446
.4715904 .9646408 .5040747
.5130131 .9647656 .5060833
.5759631 .9649227 .5097508
.6506931 .9656414 .5144537
.7319093 .9672498 .5198585
.8181283 .9697451 .5311278
.9023857 .9725115 .5523494
.9802302 .9793523 .5788359
.09486378 .02565656 .3768455
.1671646 .0405169 .377445
.2723561 .05875113 .3789565
.3892997 .07795119 .3806727
.5023152 .1119033 .3852745
.6142047 .1513351 .3966618
.7246625 .1849062 .4127311
.835723 .2133054 .4256097
.9357697 .2457555 .4410106
.09119795 .1474669 .377961
.1711585 .1511747 .3781475
.2750834 .1613022 .3797391
.3878676 .1717483 .381618
.5028474 .187811 .3865099
.6145265 .2119478 .3997636
.7252067 .2359272 .4159887
.83589 .2592886 .4283839
.9358625 .2863716 .4442176
.1327891 .2711348 .3801803
.1939484 .2724105 .380524
.2898227 .2768115 .3809772
.3937007 .2845845 .3866355
.5048228 .2956613 .3942331
.6163115 .3104134 .4082014
.7272326 .3260387 .4221231
.8366591 .3440376 .4355292
.936585 .3624147 .4514866
.1619431 .3908053 .3899339
.2141162 .3921987 .3912649
.3085642 .3965321 .3957096
.4121161 .4027914 .4026059
.5087115 .4107986 .4077472
.6199102 .415848 .4182689
.7334011 .4277688 .4311864
.8390248 .444637 .4467728
.9377977 .4613101 .4641939
.2169636 .5124387 .4101489
.2570724 .5131052 .4112698
.3340287 .5147821 .4139558
.4223085 .5181189 .4180297
.5212036 .5215189 .4206902
.6261297 .5290616 .4277128
.7385705 .5382075 .4437166
.8443226 .5514138 .460305
.9398086 .5678743 .4776228
.2608648 .633704 .4339803
.2950506 .6337681 .4350435
.3569818 .6343194 .4369929
.4393155 .6355729 .4409684
.5380083 .636857 .446138
.6401207 .6414647 .4504662
.7441555 .6492364 .4595139
.8482122 .6615738 .4746848
.9435524 .6759481 .4934869
.2983129 .7509377 .4645492
.32587 .7511107 .4653293
.3851503 .7512037 .4684497
.4687867 .7516339 .4734763
.5636931 .7526683 .4776984
.6624323 .7545794 .4807925
.761816 .758561 .4869151
.8572323 .7673666 .4999172
.9496968 .7789918 .5178813
.3712929 .8626308 .5121198
.3931792 .8625534 .5129961
.444315 .8626013 .5143198
.5172085 .8627902 .5157146
.6011246 .8637351 .5182959
.691834 .8650017 .5213863
.7863022 .8669054 .5263829
.8747961 .8717431 .5358543
.9563288 .8837614 .5582184
.4601201 .9650036 .5685711
.4782339 .9650319 .5693703
.520081 .9650554 .5713283
.5825093 .9651839 .5732698
.6539389 .9661708 .5753813
.73597 .9682345 .5784379
.8200948 .9706998 .58602
.9044223 .9738954 .6029854
.9825512 .9795843 .625876
.0972464 .07638588 .4988638
.1728041 .08619631 .4993209
.2788668 .09756783 .5002816
.3950772 .1120699 .5021846
.5080577 .1300864 .5050443
.6181731 .1549566 .5082557
.7269868 .1869429 .5175068
.8327435 .2188854 .5325962
.9329129 .2494532 .546511
.1133398 .1708415 .5004831
.1814593 .1742457 .5004147
.2831763 .1823083 .5006657
.3971964 .190282 .5023537
.507849 .1994521 .5047742
.618238 .2127291 .5082745
.7265027 .2366845 .5194278
.8330321 .2631737 .5340623
.933269 .2897181 .5488174
.1599817 .2858439 .5030541
.2102385 .2881349 .5032902
.2985672 .2921352 .5033067
.401235 .2978899 .5036451
.5106437 .3022656 .505515
.6195942 .3087893 .5111622
.7272791 .3278832 .5246041
.8337064 .3483083 .5377397
.9350187 .3690358 .553138
.1829974 .4000252 .508916
.2293245 .4010414 .5093056
.3169869 .404395 .5091403
.4153733 .4096455 .5099509
.5170719 .4135483 .5120701
.6252447 .4195405 .5191866
.7336642 .4325174 .5327826
.8379632 .4516224 .5442337
.9375897 .4697471 .5597957
.2183242 .5135306 .5140951
.2587376 .5144327 .5147977
.3357619 .5167693 .5169715
.4292323 .5220217 .5211714
.5315892 .5312582 .527816
.6313215 .5349967 .5326753
.7395672 .5438068 .5435553
.8439465 .5565601 .5540134
.941106 .5727603 .5702393
.2606873 .6322262 .5312291
.2942873 .63276 .5322661
.363801 .6337046 .534726
.4507743 .6370693 .5395851
.5436036 .6411784 .5444149
.6397617 .6443196 .5488009
.7461967 .6524114 .5543895
.8492953 .6646932 .568181
.9445358 .678964 .5853167
.3027757 .7500401 .5574331
.3318239 .7501262 .5580608
.3940667 .7505491 .55963
.4775363 .7519501 .5618806
.5696424 .7536024 .564531
.6641515 .755693 .5692763
.7609346 .7595761 .5750808
.8589479 .767968 .5868832
.9497359 .7811843 .6058573
.3744561 .8626978 .5936127
.3957937 .8632224 .5943804
.4451558 .8639885 .5958813
.5184253 .8648508 .5978724
.604464 .865126 .5999963
.6935084 .8658965 .6032792
.7837956 .8681185 .6093578
.8752809 .8729059 .6195931
.9612773 .8829006 .6346648
.4614425 .9672254 .6456765
.4794407 .9674614 .6463924
.5210692 .9678841 .6480592
.5815185 .9683999 .6507329
.6518908 .9693407 .6539754
.7326221 .9702541 .6565666
.8188577 .9721521 .6602847
.9064731 .9747662 .6698664
.9851922 .9806624 .689437
.1300751 .1179985 .6215786
.1936226 .1215448 .6217414
.2930354 .1314356 .6222868
.4036015 .1451038 .6218317
.5137974 .1573085 .622869
.6237541 .1728147 .6236166
.7319942 .1906698 .628349
.8363217 .2139647 .6366494
.9328113 .2453507 .65014
.1437066 .1941264 .6222559
.2022992 .1962866 .6223739
.2970856 .20153 .6222724
.4060977 .2111048 .6215481
.5156305 .2190185 .6226514
.6233605 .2272835 .6240416
.7325015 .2384349 .6289724
.8354607 .2585735 .6379494
.9327937 .2871517 .6512793
.1702344 .3011017 .6232002
.2193173 .3022687 .6229453
.3071696 .305104 .6222674
.4129989 .3092865 .6216937
.518814 .3130058 .6224846
.6246617 .3186522 .6246741
.7325222 .3279828 .6297176
.834781 .3452584 .642131
.9334735 .3679412 .6547979
.1988052 .4141228 .6245564
.244918 .4150483 .6246355
.3271775 .4168815 .6247796
.4235204 .4200148 .6247987
.5265939 .4237549 .6262246
.6293709 .4288035 .6293346
.7332066 .4357064 .6358359
.8370599 .4512776 .648688
.9353078 .4703994 .6597033
.2374849 .5258439 .6280081
.2725912 .526546 .628337
.3414342 .5284543 .6298122
.4344547 .5319303 .6329985
.5378364 .5353305 .6358759
.6382118 .5377615 .638772
.7376945 .5449082 .6450546
.8439857 .5559398 .6550807
.9428506 .5721902 .6670889
.2715165 .6339545 .6343249
.305887 .6342385 .6347646
.3743834 .6350376 .6357926
.4564285 .6382 .6383817
.5487642 .6438624 .6449574
.6497007 .6518514 .6519434
.7496428 .6569898 .6561419
.8515804 .666317 .6647451
.9493045 .6793647 .6772189
.3063346 .7482316 .6534047
.3337687 .7484146 .653993
.3937956 .7490045 .6555036
.4781004 .7507378 .6584622
.5725623 .7550943 .6610377
.6683581 .7596602 .6656548
.7610263 .7636464 .6704034
.8605894 .7720748 .6776343
.9534823 .7849544 .6896622
.3619856 .8604174 .6797713
.3845305 .8609966 .6801243
.4360341 .8623739 .6813159
.5140595 .8646535 .6833648
.6058016 .8671978 .6860848
.6937925 .8683692 .6889048
.7828661 .8694516 .6930043
.875535 .8726736 .7012752
.9659236 .8837746 .7148827
.4565668 .9666428 .719158
.4745131 .9671096 .7198842
.5157577 .9683244 .7216597
.5744543 .9705431 .7240251
.6460685 .9724284 .7272343
.7303355 .973607 .7308232
.8188532 .9739532 .7349365
.9077494 .9773819 .7435406
.986115 .9838 .7625867
.1546432 .1464349 .7401005
.2096069 .150183 .7398577
.3045815 .1591413 .7392923
.414483 .1734099 .7391096
.5271949 .1828035 .7390571
.636668 .1934161 .7394427
.7419637 .2065256 .7401161
.8421385 .2271691 .7437961
.9360886 .2513881 .7506303
.1660911 .2117732 .7401913
.2186448 .2141026 .7399969
.3110039 .2202368 .7394978
.416939 .2313999 .7389773
.5281401 .2377131 .7389453
.637825 .2444282 .7393158
.7412639 .254678 .7396188
.8417776 .2706839 .7437232
.9363738 .2905676 .7504829
.1913226 .3143218 .7406273
.2379836 .3155299 .7404332
.3240028 .3186207 .7399721
.4254129 .3249292 .7387862
.5298495 .3300896 .7385957
.6393315 .3341908 .7395666
.7422534 .3400938 .7393574
.8413177 .352944 .7439931
.9367959 .3709478 .7519087
.2278205 .4262291 .7421963
.2669131 .4268988 .7421876
.3427189 .4290753 .7418403
.4398661 .432806 .7408514
.539539 .4369951 .7410393
.6398876 .4417824 .7414708
.7427968 .4470107 .7419958
.8434294 .4541857 .7467385
.938059 .4678451 .7568733
.2554817 .5401708 .7449327
.289013 .540645 .7449549
.3577222 .5415802 .7450582
.4535127 .5435553 .7454136
.5530636 .5455378 .7457856
.650301 .5484703 .7463165
.7461389 .5522476 .7468084
.8470409 .5568154 .7513574
.9423265 .572199 .7650234
.2828699 .64762 .7474715
.313739 .6478661 .7475514
.378576 .6484377 .7478196
.4684513 .6500714 .7484586
.5647565 .653739 .7505682
.6624352 .6555791 .7528849
.7565983 .6559185 .7555187
.8520083 .6643461 .7617012
.9492199 .6773075 .7741948
.3130031 .7538425 .753819
.3408941 .7538475 .7537476
.401847 .753933 .7535495
.48469 .7544281 .753342
.5786686 .7569538 .7562451
.6767324 .7614142 .7618672
.7697907 .7684184 .7704445
.8648812 .7754069 .7769489
.959913 .7853125 .7866576
.3627385 .8601456 .7726456
.38498 .8604982 .7729012
.4352361 .8613834 .773454
.5113311 .8628169 .7746945
.6002408 .8658509 .7780135
.6927586 .8702145 .7814335
.7846177 .8732837 .7857168
.8771393 .8764216 .7899947
.9695352 .8865455 .7993288
.4459442 .9639092 .8005183
.4642919 .9644834 .8009993
.5070841 .966015 .8024414
.5687194 .9688738 .8052518
.6426393 .9729024 .8086149
.7304883 .9765403 .8129445
.8207874 .9777254 .8177416
.9095933 .9792377 .822217
.9913812 .9862981 .8352462
.1685758 .1769828 .8549394
.2226827 .1802982 .8547673
.3160891 .1878593 .8543105
.4301668 .1959256 .8536315
.5431687 .2113046 .852551
.6520836 .2214389 .851275
.7593277 .2325841 .8499611
.853185 .2472114 .8517571
.9426423 .2723188 .8557683
.1837433 .2346734 .8548877
.2323193 .2367957 .8547316
.3210464 .2421395 .8543202
.4335899 .2484027 .8537532
.5445002 .2600938 .8524024
.6533736 .2700867 .8511418
.7601917 .2783828 .8502029
.8527288 .2907666 .8518577
.9429379 .309556 .856012
.2133511 .3315993 .8554973
.2546732 .3331062 .8553423
.335243 .3366933 .8549177
.4386497 .3422816 .8537974
.5482348 .3491188 .8521879
.6579689 .3561114 .8507129
.7606547 .3608417 .8502878
.8534984 .3686224 .8518465
.9440862 .3841083 .8563767
.2545759 .4468349 .8560741
.289754 .4472473 .8559541
.358871 .4482587 .8553255
.4517431 .4499451 .8541169
.5595728 .4524826 .8519902
.6639193 .459197 .850725
.7610962 .4641604 .8518164
.855708 .4667965 .8538226
.9447625 .4784375 .8581888
.284972 .5570917 .8557647
.3142563 .5573763 .8556726
.3786133 .5586428 .8554578
.4678464 .5613442 .8553532
.5680836 .5628447 .8549854
.6673071 .5654696 .8551636
.7642362 .5678653 .8563207
.8578108 .5716536 .8565508
.9478541 .5803496 .8601621
.3180921 .6679923 .8574818
.3449555 .6679423 .8575845
.4028333 .6676354 .8577617
.4830084 .6675659 .8582947
.5747251 .6690985 .8596031
.674091 .6694362 .8607034
.7714636 .6698999 .8612729
.8634189 .6738747 .8611381
.9538993 .6818088 .8659405
.3460667 .7706941 .86059
.3716663 .7705306 .8605453
.4251943 .7706763 .8609127
.5019747 .7710953 .8616259
.5904231 .7723892 .8631075
.6847776 .7727968 .865532
.7808194 .7735587 .8671972
.8735157 .7765944 .8676773
.96356 .7850152 .8758693
.3782386 .8689297 .8681593
.3992547 .8689908 .8681928
.4456624 .8692048 .8683251
.5168508 .869309 .8685692
.6034241 .8705621 .8695103
.6954346 .872847 .8716624
.7900865 .8772975 .8738339
.8845097 .8833871 .8805383
.9763616 .8903019 .8912029
.4473683 .9660451 .8877875
.4649345 .966418 .8881137
.5062294 .9671528 .8889835
.5681296 .9684244 .890636
.6428103 .9710528 .892781
.7286704 .9750873 .8952178
.8233746 .9800584 .9000834
.912503 .9844963 .9065654
.9953411 .9908937 .9168704
.2339966 .2144619 .9620518
.2748 .2172172 .9619463
.3545544 .2239689 .9616823
.4553738 .2365614 .961122
.5611128 .248424 .9593001
.6692401 .2648329 .9578188
.7720318 .2783053 .9569563
.8701045 .2900726 .9570513
.9590355 .3050361 .9585084
.248822 .2646119 .9619916
.2862653 .2666137 .9619059
.3612477 .271562 .9616913
.4585493 .2806866 .9612208
.563018 .2913065 .9591052
.6705222 .3049318 .9576867
.773159 .3170627 .9572756
.8712456 .3273553 .9570608
.958904 .3427906 .9585801
.2658595 .3540124 .9623094
.3009914 .3552933 .9622337
.3719345 .3578839 .9619964
.4645604 .3637337 .960691
.5702459 .3750026 .9588488
.6737499 .3842336 .9579794
.7752413 .3935554 .9576736
.8727155 .3990624 .9571499
.9594846 .4104247 .9585454
.2885208 .4649662 .9630499
.3222286 .4650337 .9630406
.3901829 .4660172 .9627452
.4791739 .469282 .9618651
.5781348 .4758512 .9604402
.6783867 .4797156 .9601173
.7790003 .4839743 .9597463
.87485 .4892086 .9588446
.9615446 .5007154 .9594701
.3083633 .5758392 .9642326
.3369751 .5760833 .9643316
.3989663 .5765656 .964492
.4860458 .5775583 .9643043
.5850139 .5799028 .9639615
.6868206 .581339 .9641201
.7836197 .5849366 .9628126
.8775181 .5902967 .9615327
.9647245 .5974199 .9619611
.3406316 .6883389 .9656045
.365619 .6881046 .9658392
.4202073 .6878144 .9664219
.4983193 .6873935 .9668474
.5940062 .6897662 .967416
.6926318 .6890693 .9671516
.7915368 .6886366 .9668047
.8833219 .6944657 .9651937
.9695365 .7005265 .9649529
.3772238 .793024 .9667857
.4014071 .7928488 .9669072
.4525905 .7927111 .9672101
.5275757 .7919158 .9680049
.6122409 .7913721 .9694909
.7009211 .7901906 .9712967
.7974662 .7916443 .9719921
.8899492 .7939266 .9717967
.9760923 .7985551 .9719717
.4183513 .8893321 .969266
.4373888 .8895651 .9693567
.4812921 .8903251 .9697103
.5493957 .8917205 .9702095
.6310689 .8926091 .9718415
.7155987 .8931934 .975148
.8049249 .8934072 .9788527
.8961274 .89496 .9801686
.9831125 .8988696 .9829494
.4943491 .9785839 .9798439
.5092428 .9787481 .9800813
.5443809 .9791601 .9806762
.5994287 .9796007 .9816253
.6683512 .9810538 .9831514
.7447028 .9839141 .9857916
.8312721 .9865504 .9882171
.9152855 .9895516 .9914076
.995925 .997673 .9999999
