luts/Timeless 23.cube
# 3D LUT of size 33x33x33 converted by Filestar.
#   Input:
#     color space: sRGB
#     white point: default (D65)
#     transfer function: default (sRGB)
#   Output:
#     color space: sRGB
#     white point: default (D65)
#     transfer function: default (sRGB)
#   Exposure: +0.55
#   Contrast: +30
#   Whites: +10
#   Blacks: -26
#   Vibrance: +7
LUT_3D_SIZE 9
.03294239 .00200158 .01874008
.1395803 0 0
.3138205 0 0
.4682743 0 0
.6094311 0 0
.7366607 0 0
.8507545 0 0
.9469426 0 0
.9999999 0 0
0 .1308383 0
.1468491 .133653 0
.3160356 .13122 0
.4704224 .1290138 0
.6102216 .12745 0
.7372916 .1294337 0
.8510293 .1190628 0
.9471623 .1085172 0
.9999999 .1051145 0
0 .2861932 0
.1547965 .28607 0
.3180499 .2868893 0
.4716297 .2870232 0
.6113999 .2885302 0
.7388623 .2901991 0
.8517786 .2876767 0
.9475628 .2863067 0
.9999999 .2850483 0
0 .4316487 0
.1625535 .4322369 0
.3210345 .4334838 0
.4718042 .433713 0
.6120746 .4348992 0
.7415851 .4351639 0
.8528298 .4356252 0
.948431 .4344451 0
.9999999 .4333705 0
0 .5693307 0
.1414375 .5694456 0
.3179732 .5698374 0
.4735982 .5698663 0
.6147369 .570967 0
.7423807 .5716863 0
.8538333 .5719373 0
.9485705 .5716573 0
.9999999 .5693533 0
0 .6940587 0
.1279923 .6940751 0
.3163552 .6941298 0
.4738562 .6942801 0
.6184079 .6938282 0
.7434804 .694154 0
.8534143 .6948435 0
.9493822 .6939332 0
.9999999 .6936324 0
0 .8040548 0
.1115899 .803966 0
.3122456 .8036583 0
.4738926 .8033745 0
.617913 .8030725 0
.7456342 .8026621 0
.8540058 .802843 0
.9486712 .8027335 0
.9999999 .8017237 0
0 .8987737 0
.1064294 .89877 0
.3103423 .8988694 0
.4722569 .898758 0
.6172672 .8986289 0
.7425182 .8986761 0
.8546429 .8971938 0
.9486445 .8969625 0
.9999999 .8968304 0
0 .9798662 0
.08544336 .9798226 0
.3032672 .9796032 0
.4683416 .9795192 0
.6145458 .9796713 0
.7416546 .9796935 0
.8528768 .978672 0
.9476275 .9776413 0
.9999999 .9774471 0
0 .00906608 .1478387
.1452971 0 .148507
.3150222 0 .148527
.4706712 0 .1472266
.611185 0 .1452055
.7379836 0 .141537
.8515674 0 .1366982
.9473721 0 .1323774
.9999999 0 .1266165
0 .1299363 .152746
.1510333 .1321563 .1517244
.3171941 .1300712 .1474223
.4715737 .1242499 .1439025
.6118345 .1174559 .142676
.7386907 .1191356 .138579
.8518884 .1100578 .1339467
.9477136 .09957734 .1298963
.9999999 .09628401 .1238068
0 .2871058 .1463997
.1581437 .2867713 .144203
.3193609 .2880249 .1446113
.4726431 .2846461 .1451338
.6126481 .2853891 .1397258
.7400172 .2874236 .1320121
.8524618 .2846283 .1293554
.9481369 .2831555 .1242087
.9999999 .2819999 .1175689
0 .432336 .1376255
.1521539 .4326649 .1344106
.3218684 .4334479 .132657
.4729818 .4339413 .1354639
.613389 .4336185 .1314786
.7423708 .4333138 .1307658
.8535154 .4334104 .1246034
.9490486 .4325363 .1169247
.9999999 .4320101 .1112773
0 .5699111 .1167644
.1297904 .5701456 .1149702
.3141538 .5705902 .1138695
.4734741 .5706015 .1192055
.6153781 .5714329 .1185075
.7436776 .5710704 .1172352
.8547703 .5706973 .1130001
.9491952 .5701347 .1083276
.9999999 .5680758 .1066586
0 .6945973 .0993756
.1182475 .6945293 .09660486
.3129109 .6945485 .09680489
.4726611 .6949452 .09376114
.6188536 .6941817 .1055457
.7441703 .6941496 .0997446
.85409 .6947625 .09020173
.9495801 .693711 .08611468
.9999999 .6932989 .08021656
0 .8043573 .08019023
.09886795 .8041857 .07748421
.3083553 .8039435 .07715591
.4697298 .8039948 .07088549
.6161239 .8036836 .07151752
.7460465 .8028237 .080481
.8547217 .8027436 .07778748
.9489167 .8028544 .07267848
.9999999 .8014172 .06823444
0 .8989351 .03868692
.08781631 .8988806 .04013488
.3048697 .8990111 .05090863
.4706578 .8991063 .05422088
.6162788 .8990941 .05164141
.7416305 .8990251 .05290588
.8549656 .8972263 .06324557
.9491715 .8968186 .06367688
.9999999 .8967903 .06068952
0 .9799852 .02319806
.06545646 .9798647 .02580501
.298566 .9797085 .03624688
.466497 .9795297 .03380685
.613069 .9798047 .0183511
.7402541 .9800079 .02658107
.8529074 .9787562 .04060845
.9481339 .9775898 .03917381
.9999999 .9772553 .03488806
0 0 .3136525
.14823 0 .3152303
.3152662 0 .3159085
.4726009 0 .3170041
.6122948 0 .3160657
.7392748 0 .3166365
.8528707 0 .314763
.9483365 0 .3127159
.9999999 0 .3106888
0 .1287034 .3160418
.1462909 .1261703 .317425
.3163274 .1228754 .3174942
.4736361 .1163579 .3158597
.6121761 .1111979 .3153242
.7398255 .1029466 .3161023
.8531904 .09062093 .3139216
.9487347 .07910214 .3117111
.9999999 .07516817 .3094838
0 .2848949 .3184232
.1475452 .2854814 .3188784
.3204349 .2849278 .3175745
.4728475 .2840493 .3155724
.6124315 .2834989 .3159648
.7413822 .2823939 .315361
.853655 .2784258 .3126812
.9495068 .2758134 .3094525
.9999999 .2745627 .306697
0 .4339296 .3146421
.1308039 .433665 .3132879
.3169176 .4331366 .3131858
.473609 .4337476 .3128625
.6138797 .433035 .313941
.7428942 .4321207 .3131172
.8549824 .4300374 .3109187
.950373 .4291725 .3078476
.9999999 .4285136 .3058888
0 .5701081 .3086895
.112213 .5702964 .3088011
.3070302 .5712749 .3088161
.4711834 .5714583 .3088708
.6155555 .5714118 .3087812
.7448465 .5700122 .3066502
.8552572 .569281 .3073503
.9506811 .5669218 .3053799
.9999999 .5661405 .3042683
0 .6949354 .3010641
.08032472 .6950088 .3016725
.2984731 .6957 .3010657
.4691624 .6954581 .3006097
.618072 .6949714 .3001781
.7447697 .6944792 .297767
.8563318 .6940176 .2940292
.9513815 .693228 .2944631
.9999999 .692103 .2986191
0 .8045697 .2938896
.03278017 .8046135 .2935421
.2962111 .8044854 .292472
.4655305 .8042141 .2920797
.6141422 .8045617 .2892433
.7447673 .804225 .2896954
.8557434 .8033073 .2893063
.9509943 .8028318 .2903112
.9999999 .8016021 .2893756
0 .8995829 .2876666
.01694429 .8996944 .2877145
.291687 .8997625 .2859351
.463009 .9000036 .2858393
.6129842 .8998122 .285917
.7410619 .8999146 .2826108
.855665 .8979992 .2849224
.9503662 .8970329 .2863888
.9999999 .8964614 .2873158
0 .9803203 .2848307
.00351528 .9803179 .2847491
.2861737 .9803074 .2834259
.4588547 .9801204 .2832334
.6092028 .9801258 .2803218
.7381259 .9806941 .2761862
.8511997 .9798121 .2787725
.9486552 .9777272 .280883
.9999999 .9769546 .2785907
0 0 .4704933
.1435757 0 .4708056
.3194023 0 .4719256
.4708493 0 .4731101
.6114515 0 .4732751
.7404709 0 .4732671
.8534769 0 .4712603
.9491215 0 .4694504
.9999999 0 .4686391
0 .1215402 .4720488
.1362787 .1188358 .4723474
.3182154 .1104063 .4734582
.4704938 .1102918 .4740613
.612069 .105969 .4735836
.7412999 .09041225 .4725375
.8540891 .07324427 .4703796
.9498286 .05599059 .468793
.9999999 .03839574 .4678407
0 .2837783 .4726935
.1269931 .2829601 .4730482
.3112131 .2808116 .4738766
.4737239 .2782078 .4738672
.6132477 .2816118 .4721506
.7426913 .2773707 .4715005
.8550183 .2719017 .4695333
.9506606 .2674951 .4685301
.9999999 .2677117 .467413
0 .4336112 .4728906
.1135007 .4334001 .4727759
.3068197 .432217 .4728878
.4740327 .4301855 .4726193
.6143703 .4317627 .4707668
.7431881 .4309911 .4714892
.854364 .4285783 .4694901
.9504859 .4267646 .4675499
.9999999 .4254533 .4669788
0 .5706843 .470493
.07239059 .5708428 .4699129
.2991317 .5712641 .4681628
.4673772 .5712582 .4673133
.6167991 .5707351 .4674976
.7431803 .5695202 .4687423
.8555385 .5677366 .4667406
.9510387 .5655535 .4662926
.9999999 .5652913 .4659691
0 .6944327 .4649611
.03999742 .6944177 .4640731
.292386 .6945264 .4629608
.4651963 .6950986 .4614804
.6172513 .6946896 .4606965
.7452564 .6943671 .4610744
.8571299 .6923742 .4604003
.950842 .6917953 .4656647
.9999999 .691058 .465779
0 .8041033 .4590015
0 .8039706 .458977
.2915223 .8037753 .4579897
.4626259 .804128 .4575955
.6129026 .8039368 .4567876
.7455062 .8039607 .4561107
.8561824 .8036281 .4565718
.9511332 .8026924 .4573863
.9999999 .8012409 .4571534
0 .8993463 .4564971
0 .8992715 .456098
.2842985 .8994086 .4561554
.4589963 .8996706 .4551523
.6108853 .8992819 .4554259
.7417366 .8992263 .4551128
.8552932 .89865 .4547849
.9505607 .8972554 .4546412
.9999999 .896507 .4545354
0 .9795987 .4537755
0 .9795933 .4538402
.2843358 .9796887 .4540949
.4582309 .9798093 .4544334
.6074385 .9798004 .4560334
.736702 .9798849 .4553393
.850162 .9797434 .4520077
.9478241 .9781799 .4500955
.9999999 .9767542 .4491082
0 0 .6134138
.1446444 0 .6136941
.319393 0 .6140625
.474501 0 .6142768
.6128097 0 .6142945
.7405559 0 .6147165
.855172 0 .6156985
.9504808 0 .6158099
.9999999 0 .6151388
0 .1128457 .6143277
.1301209 .1082936 .6144466
.3165433 .09916223 .6148378
.4733589 .09655311 .614905
.6134887 .09555668 .6150967
.7423519 .08422386 .6154038
.8555596 .05712084 .6157248
.950944 .02242936 .6155595
.9999999 .01735077 .6147415
0 .2802571 .6149923
.1102446 .2801645 .6151998
.3112605 .2756622 .6154581
.4721364 .2734326 .6155133
.6144903 .2741683 .6160154
.7452035 .2715431 .6160449
.8563313 .2693771 .6154514
.9515914 .2631656 .6145899
.9999999 .2624128 .6134298
0 .4298857 .6156639
.09154347 .4293235 .6156378
.3013674 .4275509 .6157316
.4660743 .4262334 .6154053
.6179222 .4256348 .6157089
.7478906 .4249266 .6145493
.8570271 .4235818 .6140665
.9506828 .4250877 .6133268
.9999999 .4251128 .6122153
0 .5688944 .6157428
.05658302 .5688268 .6156023
.2934294 .5686398 .6154678
.4650102 .5681843 .6151761
.6184329 .5671763 .6145883
.744886 .5673085 .6140563
.8542454 .5679671 .6143664
.9490425 .5668156 .6131376
.9999999 .5655829 .6124663
0 .6951395 .6138294
0 .6952999 .6136773
.2830227 .6950713 .6130506
.4601901 .6947187 .6122742
.6138389 .6941218 .6118134
.7464297 .693063 .6101208
.8541456 .6922435 .6129181
.9497949 .6913753 .612457
.9999999 .6911443 .6120099
0 .805329 .6108469
0 .8052433 .6107309
.2792459 .8049293 .6106306
.4587371 .8040558 .609404
.6149183 .8035936 .6075035
.7454099 .803334 .6072359
.8562592 .8035392 .6069655
.9519293 .801592 .6064661
.9999999 .8012649 .609634
0 .8999572 .6071241
0 .8998414 .6070566
.2703851 .8996606 .6063118
.4523096 .8991048 .6056567
.6084948 .8989377 .6050398
.7400137 .8985345 .6053715
.854559 .8980867 .6049707
.9494115 .8978471 .6043099
.9999999 .8959051 .6043196
0 .9801993 .6047246
0 .9799516 .6042308
.2719862 .9795311 .6031695
.4535791 .9792216 .603363
.6063055 .9794108 .603727
.7351527 .9794657 .6046757
.8493974 .9787064 .6046661
.94745 .9783078 .6011496
.9999999 .9774719 .600436
0 0 .7420465
.1296942 0 .7422794
.3150639 0 .7426866
.4725459 0 .7429741
.6160838 0 .7429274
.744274 0 .7433328
.8550914 0 .7434205
.9502628 0 .743086
.9999999 0 .7430521
0 .09856265 .742434
.1207608 .09399024 .7426454
.3108129 .085173 .7429822
.4711437 .07088467 .7433171
.6157477 .06870084 .7430764
.7447118 .05703791 .7437826
.8560296 .03886529 .7438244
.9510025 .03469095 .7434239
.9999999 .01828716 .7427894
0 .2791412 .7428918
.09454409 .2783546 .7429269
.3087924 .2712641 .7435288
.4694845 .2685145 .7435665
.6152086 .2674009 .7438294
.74538 .2641385 .7445075
.8578572 .2609467 .7445489
.9520403 .2590619 .7434636
.9999999 .2603507 .7417591
0 .4291348 .7436867
.05151912 .4284563 .7436361
.2940084 .4255964 .7436217
.4632623 .4234643 .7439591
.6145029 .4210192 .7445694
.7464507 .4190066 .7451687
.8598973 .4155152 .7447426
.9519967 .4203974 .741912
.9999999 .4207988 .7410079
0 .5665436 .7445772
0 .5665743 .7444792
.2814293 .5656552 .7442827
.4588027 .5647367 .7440644
.6135433 .5630498 .7444018
.7455992 .5626037 .7445058
.857682 .5634936 .742405
.9513932 .564323 .7412357
.9999999 .5642316 .7407017
0 .6932034 .7438175
0 .6930775 .7439233
.2798675 .6932084 .7438571
.4593961 .6933556 .7434707
.6124045 .6918602 .7432141
.7455418 .6905821 .7427373
.8537299 .692028 .7412447
.9478356 .6917255 .7413632
.9999999 .6911563 .7409278
0 .8053365 .7428275
0 .8052021 .7428421
.2766589 .804998 .742795
.4557145 .8046595 .7419214
.6109886 .8030422 .7413877
.7410314 .8026752 .7410966
.8554476 .8023778 .7393677
.9478717 .8019204 .7408429
.9999999 .8015338 .740847
0 .9000244 .7400047
0 .8998254 .7398235
.2736397 .8994319 .7392692
.4538172 .8989937 .7383928
.608065 .898425 .7381309
.7412153 .8975554 .7386874
.8522062 .8981217 .7382557
.9494117 .8966473 .7370887
.9999999 .8954945 .7357705
0 .9803285 .7365316
0 .9803655 .7362566
.2723947 .9804489 .7355043
.4493546 .9804333 .7355928
.6037927 .9795254 .7356548
.7363313 .9790644 .7361122
.8491562 .9782264 .7358419
.9450369 .9781216 .7352104
.9999999 .9769022 .7343237
0 0 .8533347
.1228872 0 .8534741
.3108038 0 .8538254
.4705319 0 .8544788
.6146907 0 .8544691
.7445554 0 .8547643
.8546165 0 .8548748
.9504619 0 .8540961
.9999999 0 .8539494
0 .08875672 .8535739
.1118447 .08414597 .8537162
.3081232 .07232169 .8540754
.4686417 .05393016 .8546667
.6134382 .04748403 .8545853
.7440674 .03058605 .854898
.8548267 .02261105 .8552046
.9509277 .00323541 .8542383
.9999999 0 .8542088
0 .2719627 .8540081
.09373724 .2711048 .8540963
.3032688 .268804 .8543776
.4643703 .2668295 .8547082
.6113339 .2663254 .8547617
.7419782 .2613103 .8554919
.8548971 .2584012 .8556663
.9517038 .2536065 .8547667
.9999999 .2486635 .854301
0 .4239545 .854466
.02780148 .4227706 .8544354
.2907009 .4216557 .8545812
.4605874 .4200794 .8548648
.6103529 .4178816 .8551394
.7411702 .4162141 .8558466
.8551474 .4157805 .8555444
.9526195 .4118407 .8550909
.9999999 .4125268 .8539289
0 .5645831 .8546067
0 .5639275 .8545976
.2759889 .5623638 .8547408
.4574198 .560495 .8546578
.6092429 .5604849 .8544234
.7404662 .5598763 .855124
.855507 .558518 .8551545
.9531137 .5569846 .8544348
.9999999 .5586709 .8531102
0 .689761 .8546504
0 .6897224 .8545853
.2716539 .6897231 .8543611
.4538789 .6893387 .8541635
.6082345 .6873216 .8542824
.7405195 .6878697 .8540885
.8552199 .6883039 .8540954
.9505742 .6884906 .8530525
.9999999 .6894868 .8521743
0 .8018017 .8541546
0 .8017205 .8541725
.2785237 .8016334 .854102
.4557073 .8024341 .8536654
.6073419 .8015924 .8535707
.7398502 .8007742 .8531518
.8546867 .8005617 .8532369
.947327 .8012608 .852672
.9999999 .8014756 .8522168
0 .899766 .8533941
0 .8996519 .8533564
.271809 .8993487 .8530136
.4542661 .8989723 .8526142
.6072338 .8986955 .8524673
.7409766 .8973436 .852397
.8512199 .8978466 .8523702
.9461339 .8970821 .8531396
.9999999 .8959355 .8524305
0 .9809125 .8512258
0 .9807982 .8512031
.2689089 .9805227 .8510588
.452956 .9803173 .8508161
.6074618 .9797319 .8506928
.7384831 .9789905 .8492979
.8507322 .9775968 .8503837
.9451558 .9767905 .8508955
.9999999 .9760594 .849271
0 0 .9472659
.1232755 0 .9471281
.3105057 0 .9472085
.4679037 0 .9473465
.6105128 0 .947586
.7413424 0 .9480219
.8532569 0 .9484288
.9477802 0 .9485567
.9999999 0 .9479784
0 .0816861 .9471253
.111588 .07820118 .9471806
.3064801 .06908263 .9473162
.4657426 .05406278 .9475264
.6094697 .03715942 .9476262
.7403875 .01862615 .9480745
.8530028 0 .9485155
.9478371 0 .9488525
.9999999 0 .9481319
0 .2700522 .9474173
.08480815 .2688479 .9475264
.2968433 .2678157 .9476094
.4616484 .2641603 .9477326
.6078967 .262836 .9477581
.738498 .2580526 .9483916
.8523819 .2549713 .9490544
.9483975 .251941 .9494424
.9999999 .2513529 .948527
0 .4185514 .9476978
0 .4183701 .9477884
.2809742 .4175408 .9479694
.4544547 .4167371 .9478903
.6069663 .4160341 .9478191
.7372753 .4148736 .9485982
.852236 .4147529 .9495243
.9488048 .4143485 .9491485
.9999999 .4140414 .9490576
0 .5596383 .9475297
0 .5593456 .9475688
.2744404 .558711 .9475177
.4523276 .5570951 .9475046
.6069699 .5584537 .9476115
.7377921 .5579702 .9480965
.8525387 .5576547 .949032
.9491907 .5573285 .9485806
.9999999 .5571311 .9485018
0 .6873756 .9476933
0 .6874715 .9476557
.2705232 .6871252 .9475302
.4548284 .68575 .9470995
.6069252 .6857762 .9468341
.738422 .6856345 .9472931
.8524175 .6858287 .9480446
.9487428 .6848103 .9487291
.9999999 .6840489 .9487759
0 .7992662 .9481394
0 .7995338 .9479442
.2683198 .8000153 .9477362
.4510974 .7998751 .9475233
.6050067 .7988738 .9472421
.738156 .7981048 .9473067
.8513751 .7986124 .9470032
.9480066 .7983893 .9473003
.9999999 .7983227 .9474614
0 .8972369 .9479839
0 .8971021 .9479685
.2665035 .8970993 .9478119
.4517511 .8968399 .9475259
.6041088 .8966694 .947411
.736206 .895933 .9466857
.850266 .8951414 .9457459
.9469094 .8953912 .9457498
.9999999 .8959469 .9449739
0 .9797185 .9464104
0 .9796191 .9462294
.2643852 .9793884 .9457821
.4513332 .979117 .9449307
.6052974 .9790477 .9448915
.7371996 .9784632 .9448385
.851972 .977172 .9449325
.9458584 .9767653 .9457168
.9999999 .9764283 .9467298
0 0 .9999999
.1243535 0 .9999999
.308449 0 .9999999
.4688277 0 .9999999
.6114464 0 .9999999
.7384393 0 .9999999
.850714 0 .9999999
.9463118 0 .9999999
.9999999 0 .9999999
0 .07396492 .9999999
.109787 .07049156 .9999999
.3038704 .06380867 .9999999
.4670213 .05015949 .9999999
.6109388 .04346029 .9999999
.7382092 .03035098 .9999999
.8505687 .00505229 .9999999
.9467643 0 .9999999
.9999999 0 .9999999
0 .2676355 .9999999
.08629251 .2669343 .9999999
.2968831 .2661173 .9999999
.4639911 .2640145 .9999999
.6091599 .2638245 .9999999
.7376263 .2612799 .9999999
.8501259 .2557774 .9999999
.9472981 .2514721 .9999999
.9999999 .2491641 .9999999
0 .4172323 .9999999
0 .417417 .9999999
.2789181 .4171816 .9999999
.4556257 .4180137 .9999999
.6076828 .4170325 .9999999
.7364792 .4172903 .9999999
.8495053 .4152152 .9999999
.9472147 .4138034 .9999999
.9999999 .4139014 .9999999
0 .5582008 .9999999
0 .5573524 .9999999
.2665206 .5557234 .9999999
.4511794 .5567274 .9999999
.6054066 .5581697 .9999999
.7358353 .55783 .9999999
.8504418 .5573625 .9999999
.9465932 .5567665 .9999999
.9999999 .5561963 .9999999
0 .6850737 .9999999
0 .6848742 .9999999
.2809171 .6848966 .9999999
.4531917 .6847908 .9999999
.6021404 .682687 .9999999
.7359899 .6853878 .9999999
.8493031 .6850843 .9999999
.9460924 .6840698 .9999999
.9999999 .6832922 .9999999
0 .7969825 .9999999
0 .797029 .9999999
.275951 .7971286 .9999999
.4537554 .7971143 .9999999
.6055591 .7966899 .9999999
.7358953 .7971569 .9999999
.8479933 .7969622 .9999999
.9435991 .7965503 .9999999
.9999999 .7962108 .9999999
0 .8936998 .9999999
0 .8935039 .9999999
.2783985 .8931583 .9999999
.4545079 .8929729 .9999999
.6058392 .8927772 .9999999
.737516 .8922373 .9999999
.8502201 .8930233 .9999999
.9429572 .8952082 .9999999
.9999999 .896053 .9999999
0 .9759805 .9999999
0 .9759267 .9999999
.2762992 .9760906 .9999999
.4580597 .975784 .9999999
.6072939 .9755761 .9999999
.7386227 .9753042 .9999999
.8533487 .9744911 .9999999
.9501942 .9743853 .9999999
.9999999 .97725 .9999999
