luts/Timeless_51.cube
# 3D LUT of size 33x33x33 converted by Filestar.
#   Input:
#     color space: sRGB
#     white point: default (D65)
#     transfer function: default (sRGB)
#   Output:
#     color space: sRGB
#     white point: default (D65)
#     transfer function: default (sRGB)
#   Exposure: +0.9
#   Contrast: +23
#   Whites: +6
#   Blacks: -20
#   Vibrance: +5
LUT_3D_SIZE 5
0 .00152409 .00613534
.3543736 0 0
.6586127 0 0
.8707724 0 0
.9999999 0 0
0 .3627506 0
.3653139 .3629087 0
.6610845 .3668537 0
.8725591 .3648336 0
.9999999 .3637512 0
0 .6653829 0
.3661657 .6655093 0
.6645066 .6654314 0
.8736692 .665054 0
.9999999 .6650705 0
0 .8746228 0
.3600649 .8741859 0
.6645949 .8745234 0
.8749846 .8734952 0
.9999999 .8733999 0
0 .9999999 0
.3530726 .9999999 0
.6653168 .9999999 0
.8725008 .9999999 0
.9999999 .9999999 0
0 0 .3620423
.359964 0 .365129
.6618022 0 .3655084
.8726224 0 .3649485
.9999999 0 .3631778
0 .3647482 .3664624
.3641776 .3638075 .3661081
.6629807 .3654138 .3646058
.8738399 .3615392 .3633132
.9999999 .3583769 .361544
0 .6661006 .3580473
.3555735 .6668969 .3575618
.6649836 .6658002 .3573535
.8756197 .6652097 .3538888
.9999999 .6636633 .3583488
0 .8749493 .3512679
.3481855 .8749539 .3509683
.6624412 .874684 .3506491
.8763902 .8735916 .3509172
.9999999 .8732359 .3488204
0 .9999999 .3485895
.3447534 .9999999 .3472496
.6610552 .9999999 .3479787
.8712348 .9999999 .3448521
.9999999 .9999999 .342762
0 0 .664097
.3634527 0 .6649734
.6637507 0 .6654727
.8737744 0 .6654478
.9999999 0 .6654661
0 .3610784 .6657345
.3578631 .3597915 .6657103
.663567 .3572397 .666648
.8753483 .356221 .6651977
.9999999 .3520601 .6647807
0 .6655691 .6661792
.3502566 .6665325 .6656575
.664405 .6650576 .664959
.8738698 .6638696 .6647838
.9999999 .6625977 .6643927
0 .8750505 .661967
.3403455 .8748887 .661477
.6620427 .8738449 .6608362
.8733884 .8743168 .6602355
.9999999 .8727726 .6597537
0 .9999999 .6601471
.3364109 .9999999 .6590884
.6600611 .9999999 .6586034
.8700497 .9999999 .6604998
.9999999 .9999999 .6570296
0 0 .8742296
.3559932 0 .8745627
.6632078 0 .874458
.8740384 0 .8747332
.9999999 0 .8744385
0 .3565294 .8741828
.3489612 .3546771 .8744805
.6599165 .3509218 .8752214
.8747957 .3473589 .875611
.9999999 .3463806 .8753323
0 .6614881 .8753513
.3389823 .6614974 .8752002
.6606045 .6602013 .875204
.8746819 .6594217 .8756347
.9999999 .6597739 .874594
0 .8740438 .8748665
.3434388 .8739768 .8745648
.6608227 .8737632 .8741611
.8718957 .8730633 .8745463
.9999999 .8726285 .8745269
0 .9999999 .8730627
.3390039 .9999999 .8734533
.6606624 .9999999 .872555
.8716345 .9999999 .8735104
.9999999 .9999999 .8730649
0 0 .9999999
.355687 0 .9999999
.6602941 0 .9999999
.8732584 0 .9999999
.9999999 0 .9999999
0 .3549685 .9999999
.347062 .3534776 .9999999
.6587956 .3504841 .9999999
.8726031 .3483867 .9999999
.9999999 .3455682 .9999999
0 .6587201 .9999999
.3367264 .6585876 .9999999
.6569192 .6573802 .9999999
.871101 .6585768 .9999999
.9999999 .6578357 .9999999
0 .8702458 .9999999
.3396512 .8705637 .9999999
.6588895 .8703571 .9999999
.8705752 .8706947 .9999999
.9999999 .8717983 .9999999
0 .9999999 .9999999
.3426232 .9999999 .9999999
.6587024 .9999999 .9999999
.8755086 .9999999 .9999999
.9999999 .9969763 .9999999
