luts/Timeless 36.cube
# 3D LUT of size 33x33x33 converted by Filestar.
#   Input:
#     color space: sRGB
#     white point: default (D65)
#     transfer function: default (sRGB)
#   Output:
#     color space: sRGB
#     white point: default (D65)
#     transfer function: default (sRGB)
#   Exposure: -0.01
#   Contrast: -25
#   Whites: -25
#   Blacks: -14
#   Vibrance: +43
LUT_3D_SIZE 33
0 .02561936 .01484949
0 .02302435 .01393403
.00979611 .01958197 .01360069
.03883076 .01405077 .01330239
.07985299 .0076717 .01159641
.1184071 .00090887 .00773104
.1533499 0 .00413202
.1902011 0 .00357408
.2271095 0 .00718814
.253688 0 .00040617
.2836643 0 0
.3139636 0 0
.3448409 0 0
.3768361 0 0
.4076644 0 0
.4385866 0 0
.4699944 0 0
.5013583 0 0
.5323965 0 0
.5632003 0 0
.59326 0 0
.6222366 0 0
.651342 0 0
.6805032 0 0
.7104146 0 0
.74048 0 0
.770562 0 0
.8006917 0 0
.830942 0 0
.8609568 0 0
.8914124 0 0
.9225271 0 0
.9529086 0 0
0 .04281262 .01262676
0 .03996322 .01274056
0 .03677789 .01210862
.03451026 .03111532 .01195983
.07767592 .02723015 .00854004
.1171277 .0193734 .0040178
.1557809 .01222891 .001497
.1887904 .01414042 .00018915
.2253902 .0156899 .00260983
.2536395 .01892907 0
.2840363 .01871752 0
.3143063 .01901498 0
.3460886 .02007343 0
.3766896 .01878359 0
.4076815 .01370951 0
.4389126 .00502827 0
.4702991 0 0
.5016378 0 0
.5327785 0 0
.5634494 0 0
.5930176 0 0
.6218076 0 0
.6509367 0 0
.6802281 0 0
.710234 0 0
.7404615 0 0
.7706174 0 0
.8007289 0 0
.8309935 0 0
.8609858 0 0
.8914734 0 0
.9225786 0 0
.9529694 0 0
0 .06357503 .00750722
0 .06156397 .00732085
0 .05810189 .00745173
.03688621 .05584686 .00517585
.07948973 .05311875 .0022003
.1194632 .04856431 .00278795
.1572223 .04608296 0
.1894785 .05179076 0
.2230946 .05510004 0
.2536509 .05453026 0
.283751 .05395806 0
.3145662 .05493715 0
.34611 .05544135 0
.3768457 .05375283 0
.4080444 .04833382 0
.439299 .04004147 0
.4706399 .03081755 0
.5019504 .02094719 0
.5330886 .01065083 0
.563648 .00176428 0
.592603 .00612227 0
.6212978 .01233368 0
.6505643 0 0
.6800854 0 0
.7102125 0 0
.7404395 0 0
.7706683 0 0
.8007709 0 0
.8310519 0 0
.8610144 0 0
.8914975 0 0
.9225811 0 0
.9530322 0 0
0 .08774386 .0016062
0 .08715855 .00029554
.00936144 .08689908 0
.04297848 .08653256 0
.08443855 .086574 0
.1217211 .08623094 0
.1581681 .08629317 0
.1930419 .08692647 0
.2226913 .09112864 0
.2531042 .0903045 0
.2830283 .09070612 0
.3146401 .0901539 0
.3465721 .08902433 0
.3774745 .08810548 0
.4086196 .08361987 0
.4398469 .07836296 0
.4711254 .07256176 0
.5023577 .06606444 0
.5333631 .05804951 0
.5632449 .05643851 0
.5919384 .06183465 0
.6206466 .06677832 0
.6505058 .05317426 0
.6800947 .03921524 0
.7101774 .02879816 0
.7403895 .02023692 0
.7706997 .00772922 0
.8008121 0 0
.8311027 0 0
.861024 0 0
.8914967 0 0
.9225848 0 0
.9530615 0 0
0 .1206553 0
0 .1203109 0
.02024762 .1199203 0
.05333193 .1194364 0
.09265638 .1194033 0
.1269959 .1208025 0
.1598422 .1224198 0
.1935677 .1230555 0
.2247121 .1224102 0
.2538863 .123294 0
.2851523 .1223109 0
.3155437 .1224136 0
.3474962 .1210848 0
.3783338 .1205443 0
.4093756 .1170229 0
.4405362 .1133214 0
.4717062 .1092434 0
.5028178 .1043799 0
.5332589 .101724 0
.5622754 .1047164 0
.5910461 .1083718 0
.6206739 .107267 0
.6504226 .1003773 0
.6800581 .09338961 0
.7100578 .08795024 0
.7403235 .08260702 0
.7706327 .07470242 0
.8008245 .06702868 0
.8311594 .05977382 0
.8610379 .05039617 0
.8914033 .03341124 0
.9225894 0 0
.9530584 0 0
0 .1502063 0
.00849848 .1504684 0
.03339604 .151041 0
.06481738 .1522736 0
.09868222 .1539958 0
.1318658 .1550933 0
.1645412 .1552551 0
.1950316 .1561258 0
.2259832 .1551744 0
.2556088 .1559531 0
.286721 .1552562 0
.3183748 .1536295 0
.3490665 .1526995 0
.3791426 .1518285 0
.4101017 .1501058 0
.4411672 .1473874 0
.4718974 .1449386 0
.5026067 .1424991 0
.531975 .1450251 0
.561061 .1472929 0
.5910039 .1462107 0
.6207718 .144691 0
.6502402 .1403286 0
.679941 .1367179 0
.7098875 .1330426 0
.7402578 .1288515 0
.7705477 .1237388 0
.8008087 .118109 0
.8309302 .1132061 0
.8610556 .1075666 0
.8912174 .101349 0
.9226008 .07927097 0
.9530538 .06674106 0
0 .186321 0
.00195472 .1865741 0
.02856312 .18686 0
.06870398 .1874485 0
.1039897 .1883421 0
.136767 .1890546 0
.1692398 .1889908 0
.1988574 .188391 0
.2281244 .1884329 0
.2591451 .18803 0
.2875076 .1891576 0
.3186841 .1883369 0
.3503613 .1855994 0
.3801492 .1842628 0
.4096486 .1839681 0
.4404339 .1832463 0
.4712442 .181877 0
.5010926 .1829557 0
.5313033 .1828196 0
.5612078 .1822239 0
.5910935 .1815403 0
.620711 .1800935 0
.6500932 .1773133 0
.6799768 .1748314 0
.7098261 .1726866 0
.7401944 .1693254 0
.7704781 .1653646 0
.8007571 .1609578 0
.8309422 .1566246 0
.8610632 .152699 0
.8912137 .1483547 0
.9226165 .1336359 0
.9530805 .1264859 0
0 .2221052 0
0 .2222574 0
.01706035 .2225367 0
.06370937 .222593 0
.1038277 .2226036 0
.1403302 .2222551 0
.1730459 .2209706 0
.2032076 .2198351 0
.2316724 .2197645 0
.2607538 .22054 0
.2909587 .2207313 0
.3183925 .2224767 0
.3490654 .2212267 0
.3799028 .2197304 0
.4107442 .218363 0
.4405032 .2184572 0
.470533 .217788 0
.5013241 .2164745 0
.5318409 .2154614 0
.5616793 .2153552 0
.5913584 .2150273 0
.6207492 .2141131 0
.6501488 .2126266 0
.6801336 .2107158 0
.7100179 .2087487 0
.7402794 .2060883 0
.7705557 .2028933 0
.8008569 .1993756 0
.8310229 .1957807 0
.8612048 .1921777 0
.8914904 .1880945 0
.9227881 .1780387 0
.9530782 .1732106 0
0 .2565729 0
0 .2566267 0
.01257062 .2567061 0
.06118368 .2568788 0
.1018979 .2568496 0
.1369248 .2563195 0
.1702861 .2556736 0
.2023931 .2548639 0
.2319748 .2541783 0
.2617146 .2543898 0
.2909387 .2556433 0
.3199785 .2558226 0
.3487704 .2561358 0
.3791752 .2552845 0
.4097484 .2548446 0
.4406724 .2539726 0
.4711642 .2533063 0
.5009915 .2528827 0
.5309875 .2519239 0
.5613495 .250701 0
.5915176 .2490692 0
.6208552 .248008 0
.6503611 .2474169 0
.6802461 .2460138 0
.7101132 .2440302 0
.740355 .2411871 0
.7707151 .2386335 0
.8011526 .2356308 0
.8312876 .2323986 0
.8616334 .2287882 0
.8920099 .2248856 0
.9228392 .2189216 0
.9530678 .2148919 0
0 .2929803 0
0 .2931685 0
.00250351 .2931391 0
.04411579 .2930744 0
.08683599 .2928749 0
.1274346 .2922523 0
.1644234 .2914256 0
.1982855 .2906342 0
.2295744 .2903562 0
.2612181 .2903635 0
.291862 .2901176 0
.3204499 .290503 0
.3497868 .290234 0
.3786019 .2905752 0
.4094206 .2900044 0
.4399475 .2898055 0
.4706491 .2893172 0
.5017282 .2878323 0
.5311584 .2873693 0
.5604731 .2863119 0
.5904248 .2846892 0
.6203427 .2826775 0
.6507687 .2812136 0
.6806525 .279878 0
.7105742 .2780533 0
.7406525 .2759448 0
.7710484 .2735941 0
.8013305 .2710771 0
.8316833 .2677049 0
.8620939 .2644094 0
.8924314 .2608795 0
.9228514 .2574982 0
.9529336 .253578 0
0 .3285706 0
0 .3286039 0
0 .3285646 0
.0157761 .3285004 0
.0712885 .328279 0
.114979 .3279458 0
.1545423 .3273715 0
.1926176 .3267262 0
.2264408 .3263656 0
.258623 .3260399 0
.290334 .3260008 0
.3215517 .3257408 0
.3504902 .3249291 0
.380028 .3242787 0
.4090723 .3247959 0
.4398732 .3244957 0
.4702955 .3239163 0
.5005092 .3231225 0
.5307472 .321989 0
.5609978 .3201933 0
.5901963 .3191331 0
.619535 .3180726 0
.6503309 .3165166 0
.6803914 .3150707 0
.7103688 .3135252 0
.7404563 .311639 0
.7708071 .30958 0
.8012229 .3071613 0
.8316076 .3045538 0
.861945 .3017152 0
.8924167 .2981299 0
.9228637 .2945682 0
.9528334 .2909445 0
0 .3636082 0
0 .3635458 0
0 .3634678 0
0 .3632833 0
.0532453 .3630502 0
.1053153 .3628 0
.1473782 .3624838 0
.1850984 .3619927 0
.2218486 .3612578 0
.2564294 .3605238 0
.2879028 .3603908 0
.3200719 .3600017 0
.3512047 .3594981 0
.3811946 .3589806 0
.4104955 .3585069 0
.4406968 .358145 0
.4703929 .3584902 0
.5008789 .3576044 0
.5306022 .3563215 0
.5604959 .3548089 0
.590689 .3532293 0
.6206834 .3517954 0
.6502877 .3510281 0
.6799342 .3501287 0
.709947 .3487443 0
.7400134 .347084 0
.7702684 .3453131 0
.8007326 .3432433 0
.8312116 .3410691 0
.86163 .3386498 0
.8921017 .3355659 0
.9223638 .3318731 0
.9525943 .328314 0
0 .3980453 0
0 .3979976 0
0 .3979439 0
0 .397867 0
.02903774 .3977467 0
.0918281 .3975163 0
.1378157 .3971036 0
.1779183 .3966129 0
.2151821 .396036 0
.2501861 .395444 0
.2844265 .3947423 0
.3180327 .394084 0
.350872 .3937643 0
.3813227 .3932766 0
.4114895 .392789 0
.4406246 .3927073 0
.4707003 .3920839 0
.5004386 .3916338 0
.5306987 .3906777 0
.5607194 .389528 0
.5907826 .388337 0
.6208519 .3869249 0
.6515191 .3846568 0
.6809067 .3837329 0
.7097943 .3831291 0
.7392352 .3823654 0
.7694663 .3804927 0
.8002564 .3786339 0
.8309186 .3764773 0
.8613238 .3743913 0
.8916202 .3715872 0
.9219911 .3687527 0
.9522687 .3658752 0
0 .4320266 0
0 .4319645 0
0 .4318851 0
0 .4317712 0
0 .4316181 0
.06964462 .4314258 0
.123912 .4311817 0
.1679522 .4308842 0
.2068429 .4305288 0
.2433009 .430255 0
.2776835 .4297279 0
.3123648 .429048 0
.3474383 .4282902 0
.3807811 .4274605 0
.4111201 .4270374 0
.4408057 .4266461 0
.4697248 .426581 0
.4997329 .4257746 0
.5297557 .4250353 0
.5607176 .4236777 0
.5913941 .4227224 0
.6217591 .4215022 0
.6514804 .4197308 0
.6813696 .4178328 0
.7112645 .4163185 0
.7402467 .4158043 0
.7693607 .4148869 0
.7996903 .4133037 0
.8304939 .4114417 0
.8609588 .4094626 0
.8912318 .4069437 0
.9215379 .4046735 0
.951802 .4021961 0
0 .4656073 0
0 .4655518 0
0 .4654906 0
0 .465403 0
0 .4652851 0
.0414655 .4651349 0
.1082525 .4649572 0
.1558471 .4646595 0
.1975639 .4644181 0
.2348181 .4643155 0
.2710636 .4641556 0
.3061695 .4639722 0
.341655 .4631841 0
.376453 .4621825 0
.4087659 .4613031 0
.4399002 .4604381 0
.469098 .4600761 0
.4982091 .4593542 0
.5281656 .4589741 0
.5585117 .4585131 0
.590066 .4569775 0
.6211333 .4555432 0
.6517838 .4541202 0
.6815973 .4523686 0
.7110719 .4505118 0
.7408977 .4488117 0
.7707044 .4478772 0
.8000714 .4470469 0
.8297786 .4460713 0
.8602353 .4439614 0
.890653 .4420465 0
.9209271 .440125 0
.9512329 .4380822 0
0 .4986948 0
0 .4986414 0
0 .4985845 0
0 .4985029 0
0 .4984002 0
.00813375 .4982141 0
.09214003 .4979872 0
.1451304 .4977835 0
.1876939 .4977167 0
.2275017 .4975786 0
.2649197 .4974257 0
.3007196 .4972335 0
.3362057 .4967631 0
.3714092 .496049 0
.4055702 .4953322 0
.4372102 .494472 0
.4679157 .4934121 0
.4971096 .4928736 0
.5267003 .4921697 0
.5573893 .4914277 0
.5880685 .4905973 0
.6195621 .4892223 0
.6506065 .4880569 0
.6814072 .4869582 0
.7109388 .4853188 0
.7407781 .4833012 0
.7712625 .481626 0
.8016124 .4801252 0
.830829 .4791762 0
.8603619 .4781672 0
.8899071 .4770476 0
.9202598 .4753016 0
.9506125 .4733719 0
0 .5315711 0
0 .5315009 0
0 .5314215 0
0 .5313074 0
0 .5311544 0
0 .5309591 0
.07515744 .5308499 0
.1325928 .5307923 0
.1793106 .5306319 0
.2206412 .5304427 0
.2586807 .5302064 0
.2949471 .5299274 0
.3308251 .5293947 0
.3657809 .5288378 0
.4003234 .5283579 0
.4339787 .5276083 0
.4654015 .5266787 0
.4963894 .5260805 0
.5259522 .5255824 0
.5560237 .5245711 0
.5867864 .5236801 0
.6179146 .5227562 0
.6494115 .5214056 0
.6802823 .5204527 0
.7108864 .5194953 0
.7409387 .5180359 0
.7706196 .5158805 0
.8009998 .5141467 0
.8314152 .5124348 0
.8614731 .5117383 0
.8909357 .5109031 0
.9202159 .510104 0
.9499835 .5087869 0
0 .5635731 0
0 .5635245 0
0 .5634722 0
0 .5633948 0
0 .563286 0
0 .5632207 0
.04615149 .5631462 0
.1169553 .5630088 0
.1674748 .5628442 0
.2108856 .5626584 0
.2506442 .5624281 0
.2882605 .5621862 0
.3245755 .5619142 0
.3603691 .5614637 0
.3951137 .5611972 0
.4297415 .5608335 0
.4627483 .5601395 0
.4945862 .559429 0
.5261487 .5584803 0
.5560673 .5576842 0
.5858302 .5568147 0
.6169306 .5557576 0
.6475212 .5550326 0
.6790885 .5540001 0
.7103585 .5529908 0
.7406151 .5516444 0
.7709109 .550449 0
.8006194 .5488967 0
.8307095 .5475408 0
.861043 .5461261 0
.8911561 .5450017 0
.9209623 .544255 0
.9508474 .5429432 0
0 .5955883 0
0 .5955601 0
0 .5955279 0
0 .5955098 0
0 .5954855 0
0 .5954273 0
.00526118 .595315 0
.09822584 .5951807 0
.1548809 .5950262 0
.201366 .5948576 0
.2429196 .5946894 0
.2816588 .5945097 0
.3185976 .5943089 0
.3548982 .594089 0
.3899665 .5939088 0
.4247341 .5936945 0
.4586619 .5934101 0
.491428 .5928008 0
.5238823 .5921521 0
.5557576 .5912665 0
.5858124 .5905447 0
.6155248 .5896982 0
.6472226 .5885041 0
.677725 .5875289 0
.7091548 .586689 0
.7402772 .5852741 0
.7703586 .584185 0
.8004097 .5830489 0
.8304759 .5819173 0
.8603552 .5807359 0
.8906077 .579699 0
.9207956 .5783247 0
.9508248 .5772761 0
0 .6285071 0
0 .628509 0
0 .6285112 0
0 .6285142 0
0 .6284965 0
0 .6284709 0
0 .6284393 0
.06952338 .62834 0
.1375804 .6282189 0
.1883888 .6280876 0
.2324961 .6279427 0
.2729238 .6277869 0
.3109775 .6276172 0
.347638 .6274421 0
.3838647 .6272604 0
.4189673 .6270743 0
.453885 .6267781 0
.4872822 .6263124 0
.5201603 .625644 0
.5527582 .6250091 0
.585165 .6241955 0
.6160104 .6231173 0
.6459389 .6222961 0
.6766199 .6211935 0
.7074702 .6203482 0
.7383842 .6195211 0
.7691154 .6180404 0
.7996013 .6168305 0
.8299459 .6158186 0
.8601608 .6147387 0
.8900065 .6137958 0
.9202284 .6130465 0
.9506593 .6113981 0
0 .6617455 0
0 .661734 0
0 .6617213 0
0 .6617029 0
0 .6616781 0
0 .6616467 0
0 .6616078 0
.02860302 .6615663 0
.1161358 .661525 0
.1731763 .6614063 0
.2205978 .6612834 0
.2630305 .6611476 0
.3024374 .6609986 0
.3401331 .6608526 0
.3768333 .6606507 0
.4129556 .6603855 0
.4484566 .6600823 0
.4834507 .6597098 0
.5163093 .6589421 0
.5494344 .6578953 0
.5822039 .6571991 0
.6144488 .6564617 0
.645268 .6558928 0
.6753899 .6552804 0
.7060193 .6541835 0
.7366988 .6529355 0
.767207 .6522135 0
.7982407 .6508698 0
.8289276 .6496437 0
.8594165 .6486373 0
.8896221 .6479594 0
.9197675 .6470872 0
.9499102 .6461914 0
0 .6949008 0
0 .6948895 0
0 .6948769 0
0 .6948589 0
0 .6948347 0
0 .6948087 0
0 .6947783 0
0 .6947418 0
.09195919 .6946991 0
.1556906 .6946497 0
.2065725 .694541 0
.2516457 .6944218 0
.2929026 .6942787 0
.331847 .6940835 0
.3696624 .6938154 0
.4064243 .6934738 0
.4419792 .6928856 0
.4780659 .6925032 0
.5132173 .6921428 0
.5452321 .6914917 0
.5779594 .6906773 0
.6105517 .6898243 0
.6430182 .6889781 0
.6737051 .6884756 0
.7040578 .6879783 0
.7347604 .6870819 0
.7657919 .6857147 0
.7958439 .6853772 0
.8271918 .6843488 0
.857783 .6833718 0
.8884691 .6822291 0
.9190497 .6811343 0
.9494235 .6802424 0
0 .7280055 0
0 .7279934 0
0 .7279798 0
0 .7279589 0
0 .7279287 0
0 .7278903 0
0 .7279042 0
0 .7278447 0
.05801389 .7277762 0
.1375898 .7276928 0
.1918214 .7275932 0
.2379798 .7272614 0
.2822612 .7270588 0
.3235686 .7268065 0
.3622664 .7264954 0
.4002091 .72617 0
.4369473 .7258106 0
.4731606 .725403 0
.5081425 .7250562 0
.5414587 .7246777 0
.5734146 .7240486 0
.6062333 .7232942 0
.6392271 .7223767 0
.6716211 .7214262 0
.70224 .7210918 0
.7329751 .7207855 0
.7639405 .7202813 0
.795157 .7188591 0
.8250867 .7184287 0
.8562748 .7176386 0
.8870279 .7165672 0
.9177215 .7154532 0
.9484568 .7142802 0
0 .7607473 0
0 .7607437 0
0 .7607336 0
0 .760717 0
0 .7606948 0
0 .7606568 0
0 .7606112 0
0 .7605608 0
.00407384 .7604836 0
.1146282 .760415 0
.1755418 .7602832 0
.2267425 .7601076 0
.271433 .7599691 0
.3147703 .7596832 0
.3554184 .7593687 0
.3941471 .7590278 0
.431329 .7586656 0
.467447 .7582777 0
.5023279 .7579597 0
.5367754 .7576995 0
.5697154 .7571619 0
.6020294 .7566694 0
.6349764 .7559246 0
.66814 .7550824 0
.7005557 .7544007 0
.7316123 .7541118 0
.762592 .7537901 0
.7936978 .7532851 0
.824415 .7520236 0
.8547958 .7512438 0
.8850997 .7509722 0
.9163754 .7498577 0
.9471769 .748867 0
0 .7937401 0
0 .7937262 0
0 .7937178 0
0 .7937054 0
0 .7936874 0
0 .7936621 0
0 .7936137 0
0 .7935564 0
0 .7934657 0
.08539418 .7933551 0
.1603672 .793222 0
.215217 .7930601 0
.2621912 .7928687 0
.3052997 .7926764 0
.3471344 .7923921 0
.3870566 .7920674 0
.4247932 .7917061 0
.4614938 .791405 0
.4965887 .7911081 0
.5314035 .7908278 0
.5660365 .7906434 0
.5988573 .7901195 0
.6311848 .7896589 0
.6640733 .7889938 0
.6975681 .7881732 0
.7300709 .7875302 0
.7615384 .786978 0
.7927276 .7864644 0
.8234978 .7861958 0
.8538671 .7851784 0
.8843467 .7843187 0
.9143347 .784343 0
.9464162 .7834017 0
0 .8268582 0
0 .8268499 0
0 .826836 0
0 .8268138 0
0 .8267843 0
0 .8267463 0
0 .8266999 0
0 .826643 0
0 .8265514 0
.03490234 .826377 0
.1397579 .8262818 0
.201061 .8261778 0
.251021 .8260136 0
.2956285 .8258328 0
.3373158 .8256516 0
.378011 .8253936 0
.4174002 .8251086 0
.455447 .8248001 0
.4916998 .8245322 0
.5267963 .824299 0
.5612047 .8240919 0
.5953313 .823866 0
.6281461 .8233096 0
.6607223 .8228351 0
.6937503 .8221865 0
.7272344 .8213482 0
.7594883 .8208012 0
.7908331 .8203464 0
.8221264 .8198739 0
.8530039 .8196484 0
.8838372 .8186951 0
.9145247 .817862 0
.9449322 .8177236 0
0 .8599048 0
0 .8598939 0
0 .8598815 0
0 .8598637 0
0 .8598397 0
0 .8598094 0
0 .8597721 0
0 .8597272 0
0 .8596786 0
0 .859621 0
.1108832 .8595244 0
.1839464 .8594087 0
.2392264 .8592762 0
.285892 .8591206 0
.32879 .8589582 0
.3693486 .8587939 0
.4092892 .8585559 0
.448343 .8582632 0
.4859292 .8579576 0
.5223105 .8576437 0
.5576833 .8574147 0
.5920464 .8572615 0
.6253666 .8569348 0
.6581437 .856389 0
.6906991 .8559137 0
.7236595 .8553073 0
.7571878 .8545755 0
.7893231 .8542309 0
.8209509 .8537618 0
.8525191 .8533104 0
.8831913 .8531328 0
.9142159 .8523417 0
.9453394 .85127 0
0 .8933787 0
0 .8933676 0
0 .8933551 0
0 .8933372 0
0 .8933132 0
0 .8932825 0
0 .8932447 0
0 .8931903 0
0 .8931234 0
