luts/Timeless_49.cube
# 3D LUT of size 33x33x33 converted by Filestar.
#   Input:
#     color space: sRGB
#     white point: default (D65)
#     transfer function: default (sRGB)
#   Output:
#     color space: sRGB
#     white point: default (D65)
#     transfer function: default (sRGB)
#   Exposure: +0.42
#   Contrast: -100
#   Whites: -44
#   Blacks: -12
#   Vibrance: +51
LUT_3D_SIZE 9
0 .03472406 .02851331
.1280266 .00432059 .02044349
.2826714 .00712412 0
.4326312 0 0
.5684662 0 0
.6896443 0 0
.799115 0 0
.8970241 0 0
.9805166 0 0
0 .141369 .0416441
.1399498 .1380239 .02457688
.2895689 .1469181 0
.4364795 .1391758 0
.5705947 .1278102 0
.6896666 .111777 0
.7991034 .09371281 0
.8971494 .06205507 0
.9809172 .01971542 0
0 .2981406 0
.1396416 .2975471 0
.2900676 .2968775 0
.436829 .2907948 0
.5666292 .2880346 0
.6888307 .2803257 0
.7974556 .270106 0
.8959854 .2599494 0
.980857 .2433988 0
0 .4402641 0
.09464809 .4394495 0
.2916561 .4371107 0
.4295786 .4334342 0
.564196 .4298551 0
.684881 .4261518 0
.7946646 .4200118 0
.8945739 .4080977 0
.9788938 .3995857 0
0 .5678635 0
0 .5674109 0
.2496203 .565783 0
.4220982 .561425 0
.5559255 .5587069 0
.6815506 .5572062 0
.792675 .5495046 0
.8895115 .5446658 0
.9736928 .537737 0
0 .6851193 0
0 .6852205 0
.1957991 .685412 0
.3898111 .6840487 0
.546544 .6778447 0
.6717896 .6753376 0
.78651 .671391 0
.8874763 .6662375 0
.9727214 .6623238 0
0 .7912529 0
0 .791117 0
.1376036 .7896724 0
.3731185 .7889911 0
.5296841 .7859371 0
.663929 .783157 0
.7796742 .7797273 0
.8808886 .7774536 0
.9687203 .7732443 0
0 .8856567 0
0 .8856688 0
0 .8855521 0
.3380387 .8854496 0
.5081239 .8840336 0
.6548069 .8815711 0
.7741632 .8791238 0
.8762293 .8768957 0
.9648687 .8759464 0
0 .9732639 0
0 .9733457 0
0 .9731866 0
.2880487 .9727326 0
.4817637 .9720866 0
.6387253 .9708006 0
.7697278 .969857 0
.879585 .9695734 0
.9726714 .9724639 0
0 .0284777 .1420361
.1438887 0 .1420034
.2948661 0 .1337022
.4396871 0 .1283519
.5726969 0 .1163883
.6944411 0 .08832034
.8037398 0 .0472694
.90065 0 .00766304
.9843197 0 0
0 .139316 .1451348
.1281018 .1419788 .1486734
.2888735 .1403417 .1460156
.4380075 .1197034 .1289337
.5732094 .09952108 .1004081
.6938189 .0792435 .07718105
.8033669 .03284363 .0231797
.9000534 0 0
.9838529 0 0
0 .3004398 .1215164
.07415967 .3025327 .1027597
.2959767 .2977461 .08829724
.4446452 .2889417 .09036651
.5704135 .2803135 .08413639
.6914991 .2709688 .04735957
.8010597 .2578863 0
.8987858 .24519 0
.9824029 .2286231 0
0 .4423633 .02678245
0 .4414553 .01279917
.2750717 .4390458 .00933077
.4312029 .4367866 .00036625
.5693386 .4286082 0
.6877361 .4214841 0
.7963177 .4165519 0
.8959348 .404585 0
.9803562 .3935054 0
0 .5695702 0
0 .5692458 0
.2297415 .5674933 0
.4182098 .5639186 0
.5571678 .5614027 0
.682233 .5578516 0
.7950784 .5475164 0
.8912913 .5411332 0
.9748941 .5354528 0
0 .6862108 0
0 .6863423 0
.1648192 .6867304 0
.3890229 .6855734 0
.5451394 .6793165 0
.6715666 .6766115 0
.7885917 .6712165 0
.8899217 .6660733 0
.9759807 .6599479 0
0 .7921665 0
0 .7920216 0
.07870091 .7905412 0
.3615877 .790093 0
.5290036 .787083 0
.6632385 .7841399 0
.7796092 .7806975 0
.8830694 .7774641 0
.9706593 .7727763 0
0 .8865812 0
0 .8866127 0
0 .8866426 0
.3176497 .8864726 0
.5022981 .8850343 0
.6519681 .8827138 0
.7737886 .8801768 0
.8766525 .8775344 0
.9670187 .8759128 0
0 .9744743 0
0 .9745556 0
0 .9743692 0
.2616299 .9737944 0
.4728462 .9733605 0
.633858 .9717945 0
.7688035 .9710491 0
.8807118 .9701262 0
.9736716 .9731143 0
0 0 .2944511
.1387979 0 .2964911
.2908416 0 .2947602
.4432756 0 .291104
.5799473 0 .2780063
.6960166 0 .2688592
.8047251 0 .2554229
.9037636 0 .242715
.9866647 0 .2212922
0 .1454956 .3002917
.09546476 .1313102 .3010441
.3009276 .1021897 .3001507
.4462445 .09245326 .2891742
.57794 .05824136 .272274
.6936654 .02300749 .2653595
.8048351 0 .2516738
.9036484 0 .2350774
.986941 0 .2113802
0 .2965499 .2959093
0 .2945088 .29362
.2757245 .2893384 .2883803
.4332671 .2836197 .2846701
.5686503 .2683472 .2725553
.6911505 .254667 .2584774
.8040426 .2371975 .2408985
.9020177 .2215666 .2244908
.9866119 .1971593 .1948667
0 .4437856 .2647254
0 .4431525 .2565125
.2355118 .4400113 .2433368
.4269213 .4362605 .2337096
.569986 .4235806 .2404714
.6867041 .417339 .2478561
.7983931 .4062465 .2327926
.8981979 .3917747 .2067385
.9845671 .3783112 .1729904
0 .5701967 .2015533
0 .5695468 .1993955
.1691642 .5678757 .1938626
.402202 .5657882 .1926365
.5604835 .5614508 .1953608
.6908309 .5521707 .1749604
.7986321 .54132 .1833237
.8934956 .5372401 .1853411
.9797732 .5285393 .1496381
0 .6872181 .1205525
0 .6872799 .1139583
.08266231 .6875399 .09951041
.3703553 .6868243 .09296688
.5429572 .6826019 .1145555
.6728231 .6779795 .1145848
.79234 .6705942 .09306157
.896045 .6625762 0
.9808338 .6555111 0
0 .7942302 0
0 .7941684 0
0 .7925744 0
.3264782 .7917204 0
.5162807 .7903001 0
.6601191 .787077 0
.7802175 .7830135 0
.8876098 .7772848 0
.9748346 .7727493 0
0 .8887564 0
0 .8887668 0
0 .888789 0
.2531114 .8887669 0
.4840894 .88779 0
.6415218 .8855182 0
.7701256 .8826756 0
.8785284 .8788221 0
.972111 .876395 0
0 .9767086 0
0 .9767796 0
0 .9768718 0
.1737097 .9764791 0
.450624 .9757859 0
.6224723 .9744427 0
.7633543 .9736934 0
.8799115 .9730056 0
.9758173 .9747518 0
0 0 .4381572
.1146733 0 .4398918
.2819057 0 .4420059
.4371388 0 .4411517
.5778725 0 .4366178
.697747 0 .4264175
.807577 0 .4141157
.9060323 0 .399276
.9908161 0 .3884771
0 .09024218 .442017
.07538199 .07053862 .4436326
.2778862 .01507341 .4461045
.4412712 0 .4449795
.5806519 0 .4349187
.6973858 0 .4222743
.8069625 0 .4094538
.9056811 0 .395015
.9904805 0 .3839448
0 .2661156 .4428042
0 .2600891 .4424409
.2383626 .2467206 .4419406
.437697 .2358402 .4430207
.573705 .2537573 .425797
.6931251 .2393742 .4133651
.8041117 .215418 .3989549
.9030182 .1894601 .3871887
.9909729 .1469844 .3721247
0 .433573 .4351763
0 .4324042 .4338216
.1929117 .426972 .4285023
.4170159 .4186559 .4165495
.5558598 .4161042 .4207648
.6842752 .4026907 .407855
.8000408 .3882427 .3921864
.9035069 .3699268 .3761719
.9900091 .35048 .356777
0 .5715211 .3969579
0 .5702189 .3929459
.04593014 .5661541 .3820271
.3636563 .5630629 .3729426
.5511861 .5585721 .3671224
.6913566 .5451472 .3616448
.7942917 .5387054 .3782886
.8957421 .5262111 .3610127
.986128 .513333 .3388104
0 .6877177 .3454804
0 .6872557 .3392897
0 .687438 .3277723
.302729 .6866005 .3161796
.5207696 .6834968 .3148006
.6729277 .6794054 .3169421
.8017937 .6658061 .2989819
.9011623 .6551306 .2966759
.9851708 .646039 .2955577
0 .7966992 .282097
0 .7962782 .277289
0 .794728 .2633936
.2414508 .7942163 .2518127
.4751379 .7933553 .2452688
.6483968 .7909954 .2497751
.7820753 .7854006 .2489433
.8939183 .7758961 .2353112
.9846087 .7688206 .204162
0 .8916479 .1829522
0 .8917596 .1740123
0 .8918937 .1533712
.109497 .8916858 .1387583
.4390024 .8909418 .1289876
.6243351 .8893601 .1289829
.7644729 .8865029 .1534428
.8806797 .8811709 .1644731
.9803535 .8761523 .162386
0 .9804097 0
0 .9804851 0
0 .9805394 0
0 .980562 0
.3967764 .9793487 0
.6042866 .9783546 0
.7511589 .9771987 0
.8748194 .9778722 0
.9782639 .9781416 0
0 0 .5684612
.08326568 0 .5688285
.2679142 0 .5702889
.4221317 0 .5710648
.5703482 0 .5707093
.693118 0 .564381
.8063611 0 .5564086
.9056775 0 .5466344
.9920992 0 .5355123
0 .0367209 .5707731
0 .00763411 .5711901
.251741 0 .5726692
.4226872 0 .5734625
.5693491 0 .5713825
.6966945 0 .5638202
.8080367 0 .5539338
.9071054 0 .5440176
.9939435 0 .53241
0 .2349662 .5715207
0 .2273673 .5709092
.2118111 .2086687 .5709128
.4064988 .1915152 .5732537
.568142 .1946148 .5712549
.6990544 .1959526 .5601644
.8101577 .1659324 .5471834
.9101146 .1183658 .5366864
.9958916 .02467372 .5226341
0 .4015507 .5703194
0 .3973702 .5696629
.1092271 .3860416 .568641
.3769239 .3735801 .5662326
.5633981 .3735519 .5663844
.6910011 .3846316 .5486448
.8037322 .3708048 .5363994
.9060013 .351324 .5233939
.991704 .3270549 .5097933
0 .5623176 .5616198
0 .5617967 .5605317
0 .5590433 .558446
.3331007 .5515202 .5542225
.536871 .5422593 .5435157
.6722437 .5342718 .5393059
.792528 .5269285 .5278718
.8976787 .5126747 .5135285
.9890648 .4963605 .4985679
0 .6893486 .5273523
0 .6891013 .5240828
0 .688179 .5160426
.229199 .6844116 .5027542
.4856009 .6799617 .4935775
.6689858 .6738261 .4861764
.8039721 .657877 .4753347
.8923536 .6532622 .4978758
.9832163 .6406299 .4843956
0 .797383 .4826058
0 .7965778 .4774688
0 .7963279 .4668646
0 .7943611 .4450337
.438689 .793818 .4358326
.6363877 .7911475 .4358301
.7802753 .7867609 .433396
.9037144 .7709848 .420282
.9930939 .7604217 .4104316
0 .8937649 .4217014
0 .8937174 .4169403
0 .8927172 .4029012
0 .8921503 .3904851
.37576 .891733 .3823053
.5949767 .8905813 .3807589
.7575371 .8890622 .3842009
.8855199 .882234 .3809909
.9889947 .8756589 .3687742
0 .9827775 .3606194
0 .9828337 .3568076
0 .9829438 .3467596
0 .98276 .331752
.309934 .9827959 .3197814
.5653411 .9821258 .3126427
.7385167 .9811237 .31822
.8718355 .9821573 .3276575
.9819592 .9819584 .3336628
0 0 .6891164
.07512269 0 .6895818
.2623556 0 .6896244
.4145338 0 .6904206
.5563338 0 .6902667
.6879026 0 .6889479
.8007209 0 .6846673
.9024194 0 .6779317
.9905197 0 .6702643
0 0 .6911008
0 0 .691431
.2333398 0 .6916206
.400417 0 .6917778
.5547727 0 .6909389
.6873881 0 .6897454
.8026429 0 .6849138
.9052431 0 .6765078
.9921691 0 .6684707
0 .2016819 .6910375
0 .191888 .6909701
.1855235 .172986 .6920207
.3800891 .1430939 .6922088
.5489105 .1163882 .6935569
.6897142 .1132879 .6907787
.8088768 .09418241 .6841425
.9108315 0 .6735556
.9958928 0 .6613096
0 .370788 .6908185
0 .3656201 .6907939
0 .3527732 .6902555
.3310023 .33211 .6899005
.5297859 .3270541 .6917247
.6905951 .3226038 .6899229
.8129604 .3167995 .6809167
.9131922 .3023471 .665572
.9997138 .2733028 .6522465
0 .532244 .687022
0 .5296426 .687304
0 .5222634 .6877455
.2656637 .5079451 .6860031
.4999425 .495011 .6820635
.6803969 .4913262 .6819257
.8018574 .4990789 .6660461
.9034654 .4915556 .6521867
.9914473 .4763207 .6408421
0 .678031 .6806743
0 .6782293 .6801214
0 .6774391 .6785218
.1983252 .675818 .677081
.4647868 .6685551 .6722071
.6561266 .6582637 .6614006
.7793657 .6513689 .6546874
.8860878 .6435529 .6459701
.9824973 .6307187 .6313362
0 .7966207 .6518775
0 .7969086 .6505262
0 .7966356 .6445256
0 .7955035 .6357085
.3938389 .7921805 .6251713
.6120191 .7865205 .611082
.7755783 .7814058 .6041835
.9008299 .7643487 .5960215
.9820762 .7603739 .61077
0 .8961788 .6089602
0 .8959805 .6060606
0 .8954968 .5994503
0 .8942789 .5881462
.3318523 .8903921 .5752961
.5702993 .8887162 .568979
.746533 .8880056 .5636885
.8824559 .8857728 .5590581
.9940816 .8732176 .5509029
0 .9841929 .5664536
0 .9842034 .5628307
0 .9843208 .5543498
0 .9841835 .5427636
.1889443 .9845031 .532006
.526632 .9853423 .5248761
.7198169 .9843672 .5292575
.8668313 .9844555 .5339158
.9856462 .9855511 .5318183
0 0 .7977082
.02643533 0 .797821
.2506378 0 .7981352
.4021974 0 .7986839
.5455584 0 .7992601
.6751515 0 .7972394
.7939853 0 .7955191
.896299 0 .7922813
.983563 0 .7865816
0 0 .7993273
0 0 .7993456
.2163465 0 .7991939
.3828052 0 .7993892
.5414913 0 .7998877
.6741182 0 .7976944
.794025 0 .796118
.8986193 0 .7928723
.9862095 0 .786413
0 .1718404 .7992041
0 .1624869 .7993366
.146705 .1400556 .7995527
.3578438 .09821945 .7999085
.5267648 .02737596 .8009659
.6693447 0 .7993583
.7949087 0 .797761
.9036249 0 .793792
.9923657 0 .7859999
0 .3411803 .799468
0 .3341695 .7997833
0 .3216028 .7995583
.3054604 .3021377 .8007112
.4969566 .2803595 .8015531
.6634999 .2637342 .8026556
.79823 .2563114 .7993189
.9111078 .2434754 .7933834
.9999999 .2319828 .7834746
0 .500289 .7968826
0 .496483 .797202
0 .4865084 .7972628
.2078351 .4696843 .7963457
.4543178 .4555216 .7954865
.6419692 .4484 .797054
.7925844 .4425009 .7962458
.9108734 .4442377 .7885662
.9999999 .4430021 .773186
0 .6504963 .7933685
0 .648902 .7936058
0 .6441093 .7940472
0 .6375414 .793525
.4126451 .6267521 .7907459
.6135283 .6176627 .7877217
.7817479 .614247 .7881622
.9009857 .6164294 .7741837
.9893656 .6094401 .7628964
0 .7839362 .7886755
0 .7838848 .7884032
0 .7837596 .7876918
0 .7840664 .7857901
.3853609 .7813345 .7841662
.5928092 .7765652 .7771644
.7659911 .7689852 .7681564
.8797423 .7622574 .7660616
.9775456 .7555589 .7583588
0 .8953019 .7652078
0 .8955048 .7643328
0 .8956794 .7623914
0 .8942639 .7562148
.3010988 .8913072 .748081
.5449203 .8877857 .7388316
.7296257 .8844982 .7335925
.8808091 .8814486 .7266541
.9951915 .8690168 .7168779
0 .9871873 .7373995
0 .9870803 .7357165
0 .9869373 .730849
0 .9867167 .7219394
.1424644 .9859946 .7149009
.5031502 .9844419 .702341
.7054541 .9849786 .7041061
.8600709 .9862408 .7033706
.9911367 .9897183 .7111788
0 0 .8936512
0 0 .8935394
.2393619 0 .893532
.3949309 0 .8936607
.5335225 0 .8943258
.664444 0 .8939532
.7832287 0 .8923104
.8896297 0 .8906495
.9793519 0 .8882063
0 0 .8948829
0 0 .8948763
.1940071 0 .8948181
.3717574 0 .8946675
.522836 0 .8956006
.6628764 0 .89482
.7821201 0 .8933088
.8906557 0 .8915667
.9819476 0 .8890476
0 .1194551 .8952877
0 .1030199 .8955103
.09961184 .05359656 .8957469
.3363153 0 .8961338
.5061185 0 .8967671
.6539741 0 .897011
.7817904 0 .8953775
.8920621 0 .8936793
.9874442 0 .8905908
0 .3126215 .8957431
0 .3051051 .8960649
0 .2916606 .8960416
.2629312 .2660583 .8972528
.4724737 .2396073 .8981056
.6351076 .209087 .8991746
.7772912 .1909912 .8984647
.8976926 .1706461 .8969472
.9939197 .1595458 .8927072
0 .4691439 .8957762
0 .464564 .8960883
0 .4537283 .896094
.1200635 .4336506 .8956417
.4239543 .4165983 .8962675
.6126424 .4049467 .8974893
.766302 .3982653 .8980194
.8976783 .3970914 .8964604
.9977298 .3882023 .8926805
0 .6218494 .8931357
0 .6188379 .8931085
0 .6112782 .892887
0 .6006992 .8934377
.363654 .5869038 .8930079
.5752211 .5767269 .8925691
.7554982 .5726199 .8948448
.8911456 .5723101 .8940111
.9969348 .5672551 .8871529
0 .7595963 .8910708
0 .7583598 .8911448
0 .7559871 .8912168
0 .7533579 .8914821
.3152165 .7475374 .8897338
.5530743 .739219 .8865544
.7315848 .7334772 .8841794
.886396 .7320625 .8856246
.9930338 .729823 .8774438
0 .8829465 .885792
0 .8829716 .886048
0 .883066 .8854758
0 .8833692 .8845445
.2787088 .8833902 .8848368
.537778 .8810675 .8826358
.7223192 .8783123 .8780808
.8698162 .8733367 .8735331
.978582 .8708599 .8747485
0 .9859962 .8732402
0 .9862592 .8727203
0 .9868866 .8715881
0 .9878417 .870887
.1503757 .987834 .8702285
.5006021 .9876241 .8644137
.7055376 .9865039 .8599168
.8543285 .986998 .8627529
.9917994 .9899777 .8691689
0 0 .9786506
0 0 .9786944
.2325344 0 .9786924
.388319 0 .9785982
.528762 0 .9786304
.6574708 0 .9789452
.7770849 0 .9779209
.8831394 0 .9761826
.9749781 0 .9751495
0 0 .9796198
0 0 .9797884
.1818892 0 .979717
.3646322 0 .9797944
.5151833 0 .9797894
.6504498 0 .9805763
.7751043 0 .9788695
.8824596 0 .9769525
.9765467 0 .9763102
0 .02793634 .9802131
0 0 .9804533
.01606065 0 .9809347
.3205963 0 .9811879
.488952 0 .9817196
.643939 0 .9823095
.7709351 0 .9810475
.8818712 0 .9792687
.9792631 0 .9791198
0 .2750416 .9817968
0 .2695509 .9816898
0 .2518487 .9823715
.2370308 .21835 .983041
.4490311 .1797973 .9835045
.6188884 .1330069 .9835463
.7560854 .05866989 .9836642
.8807197 .014978 .9830329
.9836451 .0035072 .9827022
0 .439676 .9841262
0 .4341156 .9845363
0 .4194688 .9852152
0 .399976 .9848315
.3837176 .3779065 .9857146
.5792074 .3599454 .9859083
.7452785 .344455 .9858256
.8750973 .3396717 .9855697
.9852962 .3389054 .9851279
0 .5908841 .9826317
0 .5877447 .9828934
0 .5794698 .9836213
0 .5687681 .9848422
.286118 .5554913 .9860451
.5343148 .5431933 .985845
.7199387 .5364672 .9865049
.8704833 .5323085 .985761
.9853674 .5305936 .9851034
0 .7348616 .9831722
0 .7339626 .9832177
0 .7309837 .9833269
0 .7239556 .9835169
.1940093 .7138038 .9838942
.4974089 .7064214 .9849879
.6975989 .7009333 .9841945
.8553872 .7017319 .9858268
.9838182 .7011245 .9867409
0 .86641 .9831558
0 .8656757 .9833283
0 .8643258 .9835717
0 .8621885 .983736
.1171523 .8603674 .9845546
.4922358 .8562923 .9855174
.6923991 .8519641 .9850218
.8575073 .8517275 .9851869
.9891164 .8591447 .9863473
0 .9827256 .9852855
0 .9832017 .9857451
0 .9835256 .9860509
0 .984417 .9865947
.06022546 .9863136 .9877294
.4845039 .9879741 .989857
.7019624 .9878617 .9900764
.8670176 .9893519 .9925508
.9996601 .9947707 .9955176
