luts/Timeless_31.cube
# 3D LUT of size 33x33x33 converted by Filestar.
#   Input:
#     color space: sRGB
#     white point: default (D65)
#     transfer function: default (sRGB)
#   Output:
#     color space: sRGB
#     white point: default (D65)
#     transfer function: default (sRGB)
#   Exposure: +0.25
#   Contrast: -61
#   Whites: -57
#   Blacks: +30
#   Vibrance: -10
#   Saturation: -11
LUT_3D_SIZE 5
.04183792 .04042311 .00616885
.3032412 .02586052 .01460997
.5496933 .1003856 .09066258
.7695584 .1633302 .1600187
.9526291 .2181037 .2139945
.1052782 .2860627 .07612509
.2992255 .2898875 .08451351
.5414444 .2968667 .1290956
.7603137 .3237624 .1836109
.9468938 .3460079 .2361844
.1828 .5365676 .1887349
.322308 .5346321 .1900712
.5383384 .5342645 .1900713
.7472395 .5397159 .2154829
.9316022 .5551003 .2647827
.271508 .747148 .2704742
.3694148 .7462522 .2716572
.5500019 .7445841 .2758557
.7443758 .7456138 .2803971
.9244089 .7547073 .322129
.3871686 .9396414 .3878228
.4544942 .9389893 .390333
.6057768 .9385882 .3964801
.7813014 .9390091 .4116984
.9559187 .9520952 .4592496
.06955934 .02651048 .2854576
.2920881 .05024529 .2810668
.535148 .1277911 .2935553
.7540336 .1901751 .3214682
.9452046 .2374353 .3477455
.0823173 .2903241 .2877192
.2969 .2931596 .2952726
.5256062 .3057986 .307342
.7479488 .3294112 .3301082
.9401585 .3552335 .358666
.211027 .5296006 .3224224
.3300605 .5290321 .3247218
.5304407 .5277843 .3299643
.7405144 .5372007 .3460908
.9274548 .5555401 .3757522
.2773875 .7439443 .3736304
.3709571 .7430425 .3747988
.550199 .7411746 .3745599
.7418609 .7424632 .3767153
.9220286 .7552709 .409258
.3871089 .9403449 .4529932
.4549214 .9394026 .4559736
.6067014 .9387046 .4610571
.7806284 .9402974 .4736834
.9534194 .9536061 .5177789
.1037782 .1042624 .5327913
.2964754 .1159821 .532215
.5304715 .147157 .5297011
.7441919 .1938838 .5314021
.9340971 .25144 .5487791
.1662805 .3044836 .5282632
.3104875 .3093278 .5258179
.5256895 .316296 .5230711
.7362078 .3342714 .5342171
.9322953 .3664412 .550571
.2220427 .522287 .5235456
.3416775 .5239007 .5246401
.5337865 .5341179 .532366
.7354284 .539535 .5395615
.92822 .5571455 .5537456
.2843782 .7384461 .5436552
.3746675 .7379977 .5442907
.5505465 .7381415 .5457711
.7385358 .7386966 .5508414
.9235798 .7533498 .5668688
.3744533 .9409246 .5952297
.4451352 .9409387 .5958681
.5993792 .9415174 .5987469
.7799073 .9442368 .6048038
.9583762 .9573045 .6326291
.1517517 .1585461 .7561682
.3099451 .1704443 .7532629
.5331161 .1933973 .7471969
.7423273 .2112086 .7419495
.9246013 .2400606 .7421615
.1946738 .3245648 .7502258
.3280899 .3276697 .7482133
.532767 .3344061 .7428668
.7371641 .3411194 .7368836
.9236478 .350378 .7397833
.2486219 .5379506 .7422655
.3503288 .5381136 .7412502
.5447255 .5390192 .7386033
.7315073 .5392872 .7343839
.9232192 .5459394 .7443607
.2756656 .7347261 .7330785
.3656909 .7338069 .7330291
.5486197 .7338716 .7337381
.7406125 .7405251 .7404949
.933046 .7506237 .7488423
.340142 .9362854 .7609191
.4138572 .9383959 .7616315
.5738268 .9466395 .7651214
.773517 .9532914 .7708302
.969729 .970017 .7983508
.2146723 .204825 .9561669
.3372747 .2112542 .9549926
.5482636 .2288554 .9495646
.7562575 .2490257 .9410682
.9363179 .2619753 .9371913
.2370293 .3404019 .9532186
.3482213 .3426528 .952269
.5490992 .349849 .9466313
.7569582 .3668403 .9403407
.9367684 .3695251 .9361897
.2493342 .5532098 .9491753
.3521923 .5523633 .9493448
.5505542 .5482694 .9469211
.7575405 .546157 .9424105
.9367561 .550829 .9366974
.2617363 .7601379 .9429106
.3595443 .7601456 .943426
.5527764 .757001 .9448417
.7538747 .7509224 .9471495
.9481102 .7531786 .9450207
.3641675 .9560766 .9554296
.4329183 .9570488 .9567924
.5958439 .9605066 .9624282
.7852031 .9740233 .9731905
.9959334 .9984626 .9999999
