luts/Timeless 42.cube
# 3D LUT of size 33x33x33 converted by Filestar.
#   Input:
#     color space: sRGB
#     white point: default (D65)
#     transfer function: default (sRGB)
#   Output:
#     color space: sRGB
#     white point: default (D65)
#     transfer function: default (sRGB)
#   Exposure: +0.25
#   Contrast: +2
#   Whites: +3
#   Blacks: -11
#   Vibrance: +6
LUT_3D_SIZE 5
.00689957 .0046586 .02477115
.2661107 0 .00220502
.540001 0 0
.7871724 0 0
.9999999 0 0
0 .2765885 0
.2697153 .2766319 0
.5410711 .2768541 0
.7880688 .2756527 0
.9999999 .2684987 0
0 .5437266 0
.2759408 .5439699 0
.544167 .5436534 0
.7885756 .5437201 0
.9999999 .5422609 0
0 .7906578 0
.2685839 .7906207 0
.5434195 .7899666 0
.790333 .7896186 0
.9999999 .788399 0
0 .9999999 0
.2523231 .9999999 0
.5396488 .9999999 0
.7873145 .9999999 0
.9998154 .9993352 0
0 .00479087 .2725326
.2700535 0 .2748632
.5416428 0 .2742095
.7876782 0 .2742743
.9999999 0 .271508
0 .2771827 .2760313
.2727222 .2749479 .2754487
.5412919 .274585 .2743546
.7885851 .2717414 .2725351
.9999999 .2645718 .2703541
0 .5436972 .2680156
.2703088 .5442351 .2680501
.5439359 .544411 .2681843
.7887506 .5431859 .2702151
.9999999 .5415504 .2651424
0 .7908662 .2568824
.2562543 .7910874 .2546292
.5403557 .7906574 .2553973
.7921602 .7899081 .2541936
.9999999 .7880677 .2536079
0 .9999999 .2442679
.2424661 .9999999 .2443517
.5341676 .9999999 .242424
.7852917 .9999999 .2408951
.9999999 .9990875 .2455179
0 0 .5435684
.2719472 0 .5441892
.5432357 0 .5439161
.7891991 0 .5448415
.9999999 0 .5415678
0 .2723753 .5441375
.2667687 .2701298 .5445479
.5440286 .2691815 .5447037
.7895133 .2677347 .5434387
.9999999 .2613319 .5405771
0 .5441124 .5448163
.2617958 .5441765 .5441706
.542399 .5442069 .5439011
.7884904 .5429658 .5432117
.9999999 .5398336 .5407073
0 .790966 .5380409
.2445224 .7908219 .5374683
.5363451 .7909054 .5360698
.7916931 .7898756 .5355124
.9999999 .7877624 .5355102
0 .9999999 .5317729
.2329639 .9999999 .531549
.5335214 .9999999 .5317048
.7841986 .9999999 .5330291
.9999999 .9990222 .5312533
0 0 .7899491
.2576743 0 .790114
.5418128 0 .7908742
.7886935 0 .7911791
.9999999 0 .7896441
0 .26676 .7902658
.2569658 .264384 .7905028
.5405006 .259473 .7911331
.7894668 .2569081 .7915424
.9999999 .2537581 .7897882
0 .539268 .7912201
.242587 .5388029 .7912869
.5344234 .5361104 .7910817
.7904349 .5359995 .7911667
.9999999 .5371604 .7892082
0 .7896779 .7908462
.2418362 .7898997 .7905664
.5344504 .7899649 .7902054
.7889233 .7887498 .7897794
.9995154 .787199 .7889507
0 .9999999 .7860618
.2302485 .9999999 .7854696
.5277808 .9999999 .7836576
.784216 .9999374 .7844197
.9975621 .9999999 .7841291
0 0 .9999999
.2604531 0 .9999999
.5396417 0 .9999999
.786718 0 .9999999
.9999999 0 .9999999
0 .2572781 .9999999
.2522432 .2567515 .9999999
.5369042 .2532033 .9999999
.7858504 .2493314 .9999999
.9999999 .2450048 .9999999
0 .5331863 .9999999
.2244232 .5316209 .9999999
.527817 .531217 .9999999
.7841349 .5313444 .9999999
.9999999 .5304248 .9999999
0 .7841925 .9999999
.2150962 .784141 .9999999
.5268144 .7835056 .9999999
.7834871 .7830994 .9999999
.9991925 .7840378 .9999999
0 .9992477 .9999999
.2230872 .9992877 .9999364
.5275493 .9995422 .9995791
.7834082 .9998463 .9993857
.9999999 .9954923 .9984644
