luts/Timeless_34.cube
# 3D LUT of size 33x33x33 converted by Filestar.
#   Input:
#     color space: sRGB
#     white point: default (D65)
#     transfer function: default (sRGB)
#   Output:
#     color space: sRGB
#     white point: default (D65)
#     transfer function: default (sRGB)
#   Exposure: +0.25
#   Contrast: -40
#   Blacks: -21
#   Vibrance: +26
LUT_3D_SIZE 33
.02097418 .01488591 .03060538
.01900041 .01846259 .02904187
.01873379 .01912588 .02898829
.02876579 .00858722 .03536266
.08180728 .00122139 .03711349
.1288025 0 .03441837
.1703171 0 .03301344
.2096207 0 .03287498
.2479393 0 .03126928
.2862513 0 .02263404
.3233064 0 .01323425
.3597921 0 .00352739
.3979878 0 .00442573
.4337687 0 0
.4682673 0 0
.5016823 0 0
.5349846 0 0
.5680968 0 0
.6006758 0 0
.6326441 0 0
.6642857 0 0
.6957788 0 0
.7267826 0 0
.7572093 0 0
.7871464 0 0
.8164974 0 0
.8451613 0 0
.8735935 0 0
.9009534 0 0
.9277727 0 0
.9537191 0 0
.9791262 0 0
.9999999 0 0
.01632695 .02985662 .02947184
.01595919 .02952882 .02904208
.01592293 .03174233 .02934224
.03084493 .01857613 .03563211
.08434557 .01397121 .03514756
.1305957 .00621494 .03541231
.1703495 .00143915 .03517941
.2080982 0 .03482058
.2467246 0 .03087684
.2859276 0 .02010093
.3232879 0 .0099925
.3609512 0 .0027078
.3985934 0 .00117742
.4343251 0 0
.4686624 0 0
.5020345 0 0
.535496 0 0
.5685622 0 0
.6009729 0 0
.6329054 0 0
.6645272 0 0
.6959695 0 0
.7269029 0 0
.7573193 0 0
.7872272 0 0
.8165605 0 0
.8452193 0 0
.8736585 0 0
.9010202 0 0
.9278771 0 0
.9539184 0 0
.9793192 0 0
.9999999 0 0
.00811046 .05420842 .02854441
.00686673 .05700897 .02883313
.00906955 .05909901 .02798446
.0270399 .04656971 .03493868
.08018876 .04502634 .03614358
.1293328 .03482325 .03733488
.1702196 .03481763 .0342621
.2088462 .03694702 .02981304
.2470089 .0392889 .02631262
.2849432 .0403781 .01900269
.323028 .03773161 .00814814
.3625864 .03880863 .00412846
.399264 .03703185 0
.4348071 .03547993 0
.4690798 .03227499 0
.5024102 .03031414 0
.5358306 .02477748 0
.5687612 .0173275 0
.6012343 .0087149 0
.6332335 0 0
.6648524 0 0
.6961277 0 0
.7270629 0 0
.7574648 0 0
.7873486 0 0
.8166556 0 0
.8453103 0 0
.8737326 0 0
.9011765 0 0
.9280678 0 0
.9541441 0 0
.9795372 0 0
.9999999 0 0
0 .09226459 .02329381
0 .09360304 .02233768
0 .08695693 .02736547
.02772858 .08425348 .02969659
.08375409 .08325838 .03005659
.1297593 .081124 .02926975
.1711453 .08031587 .02608334
.2100492 .08193103 .02216529
.2475314 .08497602 .01889386
.284509 .08677668 .01566536
.3239408 .08729755 .00938988
.3633662 .08426689 .00021704
.4000206 .08240595 0
.4352444 .08132846 0
.4693099 .07913894 0
.5026826 .0766561 0
.536185 .07297536 0
.569216 .06801058 0
.6017022 .06179543 0
.6337353 .05229076 0
.6651214 .03965974 0
.6963706 .03139547 0
.7272872 .02260283 0
.7576363 .01432952 0
.7875236 .00607198 0
.8167959 0 0
.8454432 0 0
.8738591 0 0
.9014602 0 0
.9283407 0 0
.9544669 0 0
.9798493 0 0
.9999999 0 0
0 .1285058 .01108133
0 .1277532 .01464402
0 .1270767 .0156919
.03157775 .126105 .01548341
.08828712 .1250357 .01234288
.1319623 .1250781 .0077598
.1722073 .126022 .00496571
.211336 .1272298 .00089912
.2495263 .1281365 0
.2877864 .1289434 0
.3252838 .1280364 0
.3630215 .1240245 0
.4000526 .1211232 0
.4353566 .1202693 0
.4694781 .1188113 0
.5032822 .1158198 0
.5368724 .1132766 0
.5698876 .1100734 0
.6023279 .1060314 0
.6340412 .1009523 0
.6654193 .09465382 0
.6967111 .09070729 0
.7275231 .08723921 0
.7578766 .08279582 0
.7877541 .07814387 0
.81698 .07318767 0
.8456262 .06783261 0
.8740281 .06070156 0
.9016245 .05352107 0
.9285601 .04414658 0
.9548704 .03450999 0
.9802666 .03142972 0
.9999999 .01843262 0
0 .1628157 0
0 .1627262 0
0 .1623266 0
.04898273 .1617052 0
.09804518 .1619416 0
.1391371 .1619845 0
.1782908 .1620269 0
.2171217 .1613997 0
.2530556 .1614318 0
.2901057 .1614345 0
.3273256 .1608265 0
.3641303 .1601913 0
.4001507 .1578301 0
.4358192 .156423 0
.4703428 .1546766 0
.5042377 .1522276 0
.5377568 .1504281 0
.5704815 .1491034 0
.6025314 .1470383 0
.634205 .1434753 0
.6656674 .1402538 0
.6969603 .137881 0
.7278003 .1353607 0
.758172 .1326424 0
.788031 .1295951 0
.817214 .1265217 0
.8461047 .123178 0
.8742431 .1189907 0
.9018137 .1154457 0
.928734 .1106315 0
.9550137 .1065859 0
.9806654 .1021322 0
.9999999 .09737093 0
0 .1935672 0
0 .1938305 0
.02663141 .1937184 0
.0730224 .193643 0
.1123595 .1936714 0
.1503479 .1935672 0
.1866534 .1933974 0
.2203241 .1954076 0
.256043 .1958484 0
.2919156 .1958196 0
.3292664 .1955154 0
.3664485 .1957168 0
.4011214 .1948965 0
.4368615 .1927556 0
.4715282 .1909081 0
.5049061 .1902567 0
.5380409 .1898284 0
.5705498 .1889714 0
.6025982 .1873157 0
.6342728 .184888 0
.6658598 .1825419 0
.6971892 .180517 0
.7280307 .1783794 0
.7584329 .176181 0
.7882372 .1738421 0
.8174585 .1713124 0
.8463548 .1687045 0
.8744761 .165842 0
.9019444 .1639483 0
.9288411 .1606176 0
.9551166 .1578434 0
.9808068 .1546854 0
.9999999 .1516906 0
0 .2283341 0
0 .2284641 0
.03771138 .2285094 0
.08246974 .228517 0
.1210997 .2286476 0
.1576315 .2284539 0
.1928675 .2282135 0
.2261077 .2290031 0
.2590759 .2302238 0
.2946353 .2304707 0
.3313155 .2315248 0
.3681608 .232045 0
.4028349 .2316959 0
.4374675 .2305985 0
.4719801 .229058 0
.5051622 .2284845 0
.5380981 .2284625 0
.5705396 .2277615 0
.6026353 .225956 0
.6343486 .2239421 0
.6660655 .2223843 0
.697423 .2207562 0
.7282873 .2190425 0
.7586707 .2173199 0
.7884064 .2155147 0
.8175937 .2136308 0
.8465139 .210976 0
.8746459 .2085592 0
.9020538 .2072251 0
.9289696 .2044272 0
.9552616 .2021518 0
.980975 .1997445 0
.9999999 .1972325 0
0 .2635503 0
0 .2635242 0
.03792519 .2633259 0
.08877137 .2628707 0
.128766 .2626023 0
.1652478 .2625683 0
.1982339 .2630452 0
.2310785 .2631431 0
.26287 .2642453 0
.2953409 .2661 0
.3323816 .2676376 0
.3697139 .2683598 0
.4046494 .2687171 0
.4385507 .2681629 0
.4725602 .2673058 0
.5059449 .2664543 0
.5386109 .2655386 0
.5705862 .2647605 0
.6026787 .2632425 0
.6345354 .2619606 0
.6663356 .2605922 0
.6976861 .2592921 0
.7285612 .2579722 0
.7588588 .2565438 0
.7885898 .255015 0
.8180187 .2534617 0
.8466359 .2515391 0
.8747559 .2495621 0
.9021692 .2477649 0
.9291411 .2449707 0
.9554324 .2430771 0
.9811433 .241066 0
.9999999 .2396283 0
0 .2994566 0
0 .2994199 0
.02990229 .2993782 0
.08229781 .2994447 0
.126411 .2992855 0
.1646087 .29915 0
.1991152 .2993333 0
.2331189 .2993152 0
.2644642 .3008316 0
.2973186 .3023336 0
.3328735 .303805 0
.3702365 .304377 0
.4062098 .3049009 0
.4402497 .3050216 0
.4738101 .3040751 0
.506836 .3034939 0
.5394045 .3022826 0
.5716828 .3005219 0
.6027983 .2999798 0
.6347819 .2989786 0
.6666103 .2978745 0
.6979924 .296784 0
.7288109 .2956 0
.7590743 .2943482 0
.7887947 .293047 0
.8182247 .2916079 0
.846819 .2901834 0
.8748748 .288848 0
.9022561 .2874312 0
.9293261 .2839008 0
.9556051 .2820545 0
.9812456 .2807624 0
.9999999 .2795694 0
0 .3361807 0
0 .3360962 0
.01187489 .3360533 0
.07148511 .3361199 0
.1185067 .3361549 0
.1603718 .3361508 0
.1969967 .3360897 0
.2312274 .3363317 0
.2654876 .336771 0
.3005292 .3376019 0
.3357299 .338681 0
.3708058 .3401169 0
.4069699 .3406447 0
.4413687 .3406446 0
.4756152 .3405812 0
.508323 .3391592 0
.5406225 .3381385 0
.5724541 .3369666 0
.6043184 .3358031 0
.635775 .334962 0
.6668411 .3345486 0
.6982617 .333409 0
.7290803 .3323097 0
.7593336 .3312523 0
.7890456 .3301548 0
.8184627 .3288155 0
.8470591 .3276141 0
.8750714 .3263797 0
.90237 .32552 0
.9293662 .3228928 0
.9556242 .3212579 0
.9813117 .3195424 0
.9999999 .3181771 0
0 .37241 0
0 .3723812 0
0 .3724214 0
.05367179 .3724765 0
.1069555 .3725397 0
.1504946 .3727562 0
.1910327 .3728648 0
.2274294 .3728904 0
.2635431 .3729034 0
.3002657 .3728596 0
.3374704 .372864 0
.3725521 .3736038 0
.4070381 .3748006 0
.4417052 .3749878 0
.4759531 .3751156 0
.5097784 .3744772 0
.5421714 .373255 0
.5740729 .372569 0
.605655 .3716294 0
.6373666 .3704912 0
.6686826 .369558 0
.6990285 .3690336 0
.7291987 .3686562 0
.7595264 .3675689 0
.7895881 .3663197 0
.8187221 .3651762 0
.847266 .3644987 0
.8750386 .3639019 0
.9023498 .3630257 0
.929336 .3605538 0
.9555367 .3594984 0
.9811701 .3582616 0
.9999999 .3569019 0
0 .4077514 0
0 .4078149 0
0 .4078602 0
.02782505 .4079247 0
.09306639 .4080275 0
.1412056 .408175 0
.1837049 .4083314 0
.2253325 .4081955 0
.2622666 .4079535 0
.2991575 .4079318 0
.3359289 .4079448 0
.3727189 .4079457 0
.4080866 .4083577 0
.4415648 .4090235 0
.4758041 .4088098 0
.5095945 .4083206 0
.5427607 .4077218 0
.5756618 .407119 0
.6078768 .406692 0
.6393712 .4058239 0
.6704552 .40476 0
.7009899 .4037867 0
.7307778 .4034875 0
.7598802 .4037037 0
.7894757 .4029759 0
.8186619 .4020529 0
.8470189 .4013759 0
.8748879 .4006237 0
.9022124 .3998502 0
.9292158 .3975617 0
.9554051 .3966443 0
.9810278 .3955823 0
.9999999 .3944219 0
0 .4429586 0
0 .443011 0
0 .4430648 0
0 .4431359 0
.07539112 .4432194 0
.1299948 .4432803 0
.1768658 .4432936 0
.2207168 .4432958 0
.2628333 .4430326 0
.299802 .4428636 0
.3363163 .4427898 0
.3721303 .4427916 0
.4081351 .4428139 0
.4435457 .4429966 0
.4768031 .4430028 0
.5105891 .4426596 0
.5435159 .4420601 0
.5762413 .4412404 0
.6092793 .4404503 0
.6411614 .4400097 0
.6724818 .4395916 0
.7032351 .4389054 0
.7329178 .4383315 0
.7623575 .438188 0
.7907916 .4380473 0
.8181593 .4386202 0
.8464925 .4379165 0
.8745202 .4370006 0
.901993 .4360299 0
.9290142 .4337395 0
.9552067 .4327179 0
.9808391 .4316741 0
.9999999 .4306327 0
0 .4773725 0
0 .477415 0
0 .4774522 0
0 .4774824 0
.05914485 .4774835 0
.1229832 .4774525 0
.1725486 .4774147 0
.2167282 .4773694 0
.2587489 .4772608 0
.2989522 .4769599 0
.3345033 .4768867 0
.3703352 .4768023 0
.4066604 .4767796 0
.4422967 .4766735 0
.4770436 .4765243 0
.510765 .4769212 0
.5442432 .476355 0
.5767908 .4756723 0
.6092328 .474954 0
.6416346 .4743549 0
.6733756 .4737931 0
.7043014 .4732566 0
.7346464 .4732968 0
.764007 .4732089 0
.7924982 .4728541 0
.820266 .472613 0
.8475385 .4723135 0
.874078 .472445 0
.9015377 .4713061 0
.9287336 .4689713 0
.955 .4679251 0
.9806332 .4669999 0
.9999999 .4659331 0
0 .5111284 0
0 .5111293 0
0 .5111177 0
0 .511101 0
.04211854 .5110787 0
.1144953 .5110503 0
.1666234 .5110154 0
.2121449 .5109761 0
.2543173 .5109345 0
.2950231 .5108642 0
.3328633 .5106768 0
.3684565 .5106144 0
.4043171 .5106165 0
.4403842 .5106601 0
.475612 .5106288 0
.5100183 .5105031 0
.5438265 .5107083 0
.5770935 .5103104 0
.6094462 .5095406 0
.6414886 .5086725 0
.6733283 .5081355 0
.7048311 .5078611 0
.7348056 .5074729 0
.7639844 .5070776 0
.7928857 .5064957 0
.8213714 .5058103 0
.8493844 .5051371 0
.8763533 .5043758 0
.9027628 .5035766 0
.9282533 .5038375 0
.9546449 .5026417 0
.9804539 .5013343 0
.9999999 .5004649 0
0 .5444974 0
0 .5444906 0
0 .5444829 0
0 .5444719 0
.02243426 .5444571 0
.1054918 .5444383 0
.1605622 .5444153 0
.2075022 .5443851 0
.2505527 .5443392 0
.2903677 .5444162 0
.3305176 .5443386 0
.3670954 .5442277 0
.4028671 .5441919 0
.4387669 .5442094 0
.4741632 .5442883 0
.5087256 .5442504 0
.5431025 .5441602 0
.5767888 .5441515 0
.6092823 .5435964 0
.6412895 .542722 0
.6733216 .5415038 0
.704264 .5407992 0
.7346192 .5402048 0
.7642276 .53972 0
.7929476 .5392495 0
.8214995 .5384992 0
.8495616 .5375914 0
.8770887 .5368124 0
.9040045 .5362518 0
.9303375 .5357926 0
.9556072 .5355231 0
.9801154 .5357889 0
.9999999 .5347311 0
0 .5772628 0
0 .5772837 0
0 .5773073 0
0 .5773411 0
.0025915 .5773732 0
.09599776 .5773734 0
.1547416 .5773697 0
.2034314 .5773592 0
.2469657 .5773818 0
.2874824 .5773786 0
.3266555 .5773992 0
.3659921 .5771504 0
.4016024 .5769727 0
.4368721 .5768792 0
.4725438 .5768619 0
.5075307 .5767348 0
.5418729 .5765373 0
.5756512 .5763268 0
.608466 .5761645 0
.6409879 .5756054 0
.6724709 .5749577 0
.7035573 .5738595 0
.7338978 .5731474 0
.7637665 .572589 0
.7931761 .5719893 0
.8215852 .5715979 0
.8496669 .5708513 0
.8772283 .570085 0
.9042535 .5693099 0
.9307225 .5685207 0
.9565207 .5682338 0
.9818047 .5678241 0
.9999999 .567468 0
0 .6093186 0
0 .6093254 0
0 .6093331 0
0 .6093442 0
0 .6093591 0
.08524609 .6093782 0
.1479907 .6093826 0
.198381 .6093323 0
.24322 .6092999 0
.2843019 .6093066 0
.3236156 .6093141 0
.3626709 .6092207 0
.4001159 .6090124 0
.4356885 .6089142 0
.4706599 .6088974 0
.5061461 .6088494 0
.5406204 .6086818 0
.5745744 .608466 0
.6082728 .6082757 0
.6402515 .6081801 0
.6717592 .607576 0
.7028199 .6070476 0
.7333706 .6060167 0
.7633383 .6051033 0
.7925949 .6045394 0
.821582 .603951 0
.8498734 .6034604 0
.8774034 .6028315 0
.9044486 .6021708 0
.9309419 .6015129 0
.9568946 .6008431 0
.9823056 .60013 0
.9999999 .5998324 0
0 .6409059 0
0 .6409024 0
0 .6409028 0
0 .6409132 0
0 .6409275 0
.07066906 .6409458 0
.1398232 .6409726 0
.1925842 .640942 0
.2389527 .6408979 0
.2810269 .6408908 0
.3208107 .6409162 0
.3591976 .640952 0
.3978488 .6408274 0
.4345896 .6406233 0
.4698983 .6405827 0
.5046604 .6405609 0
.5394817 .6404042 0
.5738761 .6402384 0
.6071498 .6400639 0
.6393765 .6399776 0
.6709857 .639871 0
.7021025 .6391361 0
.7326213 .6386446 0
.7627095 .637789 0
.7925205 .6367314 0
.821263 .6362271 0
.8495165 .635711 0
.877703 .6349878 0
.9047278 .6345807 0
.9312106 .6339658 0
.9571266 .6333201 0
.9824346 .6326495 0
.9999999 .6320305 0
0 .6721441 0
0 .672142 0
0 .6721406 0
0 .6721416 0
0 .6721601 0
.0517929 .6721837 0
.1303172 .6722125 0
.1858242 .6722231 0
.2336864 .6721969 0
.2772579 .6721842 0
.3175941 .6722143 0
.3564438 .6722375 0
.394681 .6721961 0
.4331809 .6720448 0
.4689572 .6719032 0
.5038182 .671817 0
.5385373 .671751 0
.572494 .6715794 0
.605866 .6713938 0
.6386411 .6712249 0
.6700927 .6712154 0
.7013666 .6711073 0
.7321768 .6702796 0
.7622335 .6698434 0
.7918467 .6691972 0
.8211418 .6681727 0
.8494762 .667567 0
.8771675 .6670711 0
.9046573 .66636 0
.931464 .6657816 0
.9572994 .665206 0
.9825543 .6645898 0
.9999999 .6640364 0
0 .702947 0
0 .7029462 0
0 .7029477 0
0 .7029502 0
0 .7029608 0
.0263046 .7029901 0
.1195474 .7030258 0
.1784661 .7030685 0
.2280303 .7030461 0
.2728847 .7030234 0
.3142731 .7030062 0
.3538125 .7029993 0
.3921421 .7030236 0
.4304524 .7029746 0
.4681994 .7028366 0
.5028548 .7027575 0
.5368942 .7027015 0
.5710371 .7025469 0
.6046535 .702345 0
.6376269 .7021575 0
.6695321 .7020737 0
.7006094 .702039 0
.731473 .7019328 0
.7620391 .700999 0
.7915242 .700567 0
.8205499 .7000454 0
.849239 .6991348 0
.877116 .6984082 0
.9042879 .6978683 0
.9311158 .697172 0
.9573806 .6964642 0
.9826707 .6960268 0
.9999999 .6954491 0
0 .7332411 0
0 .733245 0
0 .73325 0
0 .7332571 0
0 .7332664 0
.00042845 .7332944 0
.1081509 .7333377 0
.1701761 .7334536 0
.2217696 .7334551 0
.2681458 .7333969 0
.3112921 .7333511 0
.3513793 .7333522 0
.3905039 .7333937 0
.4277829 .7334329 0
.465593 .7333034 0
.5015107 .733205 0
.5356945 .733161 0
.5694541 .7330816 0
.6031826 .7328905 0
.6363108 .732689 0
.6688529 .7324773 0
.6999996 .7324321 0
.7308022 .7323737 0
.7612117 .7322696 0
.7913575 .73128 0
.8203266 .730758 0
.8488237 .7301838 0
.8767075 .7297221 0
.9040101 .7290319 0
.9307274 .7284569 0
.9568499 .7277935 0
.9824404 .7271374 0
.9999999 .7265149 0
0 .7633589 0
0 .763359 0
0 .7633596 0
0 .7633601 0
0 .7633608 0
0 .7633654 0
.08716006 .7633893 0
.1592653 .7633805 0
.2143907 .763382 0
.2637487 .7633415 0
.3081884 .7632731 0
.3484813 .7633216 0
.3873537 .7633279 0
.4251038 .7633317 0
.4623579 .7633172 0
.4996759 .7632198 0
.5345517 .7631205 0
.5682556 .7630684 0
.6017438 .7629138 0
.6349779 .762714 0
.6676129 .7625045 0
.6994386 .7623404 0
.7302336 .7622586 0
.760663 .7620873 0
.7905544 .7619139 0
.8201708 .7609169 0
.8487549 .760247 0
.8767127 .7596818 0
.9041047 .7590643 0
.9305136 .758528 0
.9565067 .7580089 0
.9820945 .7573574 0
.9999999 .7567552 0
0 .792522 0
0 .7925169 0
0 .7925158 0
0 .7925143 0
0 .7925122 0
0 .7925126 0
.06743224 .7925059 0
.1492702 .7925032 0
.2074571 .7924998 0
.2573557 .7924762 0
.3029014 .7924066 0
.3446036 .7923791 0
.3841949 .7923697 0
.4224027 .7923692 0
.4592761 .7924252 0
.4965461 .7923626 0
.5330161 .792282 0
.5672114 .792163 0
.6006247 .7920243 0
.6337281 .7918347 0
.6664724 .7916028 0
.6986656 .7913308 0
.7295454 .7911797 0
.7597889 .7910411 0
.7897781 .7908232 0
.819106 .7906517 0
.848128 .7897347 0
.8763498 .7890067 0
.9035802 .7884731 0
.9303218 .7880075 0
.9563467 .7875823 0
.9818549 .786964 0
.9999999 .7863122 0
0 .8210481 0
0 .8210371 0
0 .8210278 0
0 .8210181 0
0 .8210053 0
0 .820989 0
.03714995 .8209798 0
.136396 .8209861 0
.1988232 .8209919 0
.2508842 .820972 0
.2978096 .8208899 0
.3398283 .8208797 0
.3799307 .8208694 0
.4186457 .8208627 0
.456251 .8208605 0
.4929393 .8208548 0
.5300412 .8207932 0
.5652997 .8206989 0
.5990124 .8205559 0
.631815 .8203691 0
.664506 .820134 0
.6968369 .8198842 0
.7283028 .8196686 0
.758609 .8195504 0
.7884349 .8194119 0
.8179256 .8192045 0
.8467442 .8189519 0
.8752256 .8183388 0
.9031888 .8175182 0
.9299511 .8169855 0
.9561424 .8164281 0
.9818224 .8157665 0
.9999999 .8151832 0
0 .848963 0
0 .8489547 0
0 .8489492 0
0 .8489444 0
0 .8489379 0
0 .8489295 0
.00244558 .8489221 0
.1230788 .8489364 0
.1900046 .8489529 0
.2439288 .8489309 0
.2915354 .8488834 0
.334472 .8488832 0
.3753274 .848888 0
.4145867 .8488938 0
.4526607 .8488708 0
.489687 .8488432 0
.5264717 .8487695 0
.5632036 .8486502 0
.5973241 .8485424 0
.630349 .8484164 0
.6627372 .8481972 0
.6947516 .8479685 0
.7266102 .8477241 0
.7572508 .8475766 0
.7870746 .8476408 0
.8164273 .8474393 0
.8454866 .8471872 0
.8739021 .846932 0
.9020732 .8462034 0
.9296566 .8451937 0
.9558588 .8446817 0
.9815015 .8441619 0
.9999999 .8436843 0
0 .8764592 0
0 .8764518 0
0 .8764486 0
0 .8764437 0
0 .8764455 0
0 .8764483 0
0 .8764564 0
.1065146 .8764752 0
.1795547 .8764843 0
