luts/Timeless_49.cube
# 3D LUT of size 33x33x33 converted by Filestar.
#   Input:
#     color space: sRGB
#     white point: default (D65)
#     transfer function: default (sRGB)
#   Output:
#     color space: sRGB
#     white point: default (D65)
#     transfer function: default (sRGB)
#   Exposure: +0.42
#   Contrast: -100
#   Whites: -44
#   Blacks: -12
#   Vibrance: +51
LUT_3D_SIZE 33
0 .03472406 .02851331
0 .03363298 .02774401
.02584045 .02405876 .03074335
.08188445 .0151604 .0276771
.1280266 .00432059 .02044349
.1686369 0 .00923355
.2077695 .0005772 .00173788
.2450137 .00465143 0
.2826714 .00712412 0
.320384 0 0
.3582858 0 0
.3956662 0 0
.4326312 0 0
.4681937 0 0
.5026767 0 0
.5360371 0 0
.5684662 0 0
.6004501 0 0
.6317859 0 0
.6613162 0 0
.6896443 0 0
.7173597 0 0
.7449468 0 0
.7725301 0 0
.799115 0 0
.8247306 0 0
.8495522 0 0
.8737144 0 0
.8970241 0 0
.9194959 0 0
.9413349 0 0
.9622985 0 0
.9805166 0 0
0 .05327199 .02825068
0 .05233894 .02859486
.02659616 .04737063 .02902394
.08344831 .0410652 .02743045
.1311163 .03365685 .02011484
.1730566 .02779196 .01222757
.2096038 .03121671 .00189407
.2458413 .03680383 0
.2815926 .04117955 0
.3205891 .03421822 0
.3605955 .02075351 0
.3978195 .00955015 0
.4345012 .00005386 0
.4695219 0 0
.503524 0 0
.5368406 0 0
.5692612 0 0
.6010616 0 0
.6322947 0 0
.6613883 0 0
.6896892 0 0
.7172439 0 0
.7450074 0 0
.7725701 0 0
.7991648 0 0
.8247356 0 0
.8495391 0 0
.8736998 0 0
.8970731 0 0
.9195433 0 0
.9414142 0 0
.9623587 0 0
.9805544 0 0
0 .08019856 .02545437
0 .07874779 .0243241
.03793873 .07552139 .02218888
.09188842 .07065014 .0187252
.1356487 .06555766 .01881477
.1770349 .06065375 .018132
.2080497 .06702758 .01318053
.2447515 .0703708 .00300179
.2819575 .0783033 0
.321439 .07659144 0
.3615166 .06764547 0
.3996437 .05708903 0
.4358146 .05068202 0
.4703618 .04415903 0
.5043602 .03453667 0
.5375654 .02678274 0
.5699944 .02058495 0
.6016957 .0168481 0
.6325406 .00525756 0
.6614186 0 0
.6898211 0 0
.7176204 0 0
.7451164 0 0
.7726209 0 0
.799211 0 0
.8247273 0 0
.849522 0 0
.8736984 0 0
.8970932 0 0
.9195963 0 0
.941511 0 0
.9624262 0 0
.9805973 0 0
0 .1050221 .0370771
0 .1027151 .03056625
.04663569 .1004012 .02411697
.09793446 .09915159 .02059888
.141479 .09767018 .02145991
.1818093 .09623639 .02437517
.2172861 .09836564 .0171417
.2472777 .1066304 .00254953
.2830403 .1143812 0
.3232178 .1134511 0
.3629017 .1081232 0
.4007033 .1015285 0
.4365307 .0983124 0
.4711053 .09496015 0
.5052192 .0890877 0
.5381203 .0858966 0
.5704644 .08320092 0
.6018438 .07654292 0
.6323696 .06731749 0
.6612743 .05582212 0
.689961 .05433769 0
.7175709 .05301898 0
.7453296 .04979563 0
.7727845 .03774096 0
.7993068 .02544384 0
.8247593 .01458612 0
.8495133 .00428267 0
.8736989 0 0
.8970858 0 0
.9196918 0 0
.9416263 0 0
.9625029 0 0
.980712 0 0
0 .141369 .0416441
0 .1401647 .03944675
.04196443 .1391701 .03649715
.09654271 .1386674 .03351528
.1399498 .1380239 .02457688
.1813756 .1377354 .01510091
.2215956 .1390396 .00915807
.258487 .1415468 0
.2895689 .1469181 0
.3249522 .1479901 0
.3636738 .1447656 0
.4007124 .1417776 0
.4364795 .1391758 0
.4707879 .1379496 0
.504669 .137217 0
.537918 .1331891 0
.5705947 .1278102 0
.6017009 .1235999 0
.6319913 .1187056 0
.6607024 .11298 0
.6896666 .111777 0
.7173762 .1085004 0
.7456201 .1027824 0
.7726339 .1008321 0
.7991034 .09371281 0
.8246249 .08637787 0
.8495324 .07668532 0
.8737961 .06754628 0
.8971494 .06205507 0
.9198256 .05405765 0
.9417645 .03900466 0
.9626077 .03089556 0
.9809172 .01971542 0
0 .181333 .02215279
0 .1814369 .02073697
.01308397 .1814462 .01968335
.08250812 .1799845 .02089283
.1349179 .1787427 .01900399
.1794309 .178155 .01632032
.2202689 .17872 .00887879
.259826 .1804957 0
.2955797 .1831686 0
.330453 .1824337 0
.3632848 .1824645 0
.4000956 .1801072 0
.4359667 .1780245 0
.470547 .1762585 0
.504711 .1736262 0
.537844 .1725577 0
.5704008 .1688078 0
.6015479 .1653914 0
.6311379 .1622543 0
.6601851 .1590586 0
.6892789 .1585027 0
.7171088 .1555462 0
.74523 .1515868 0
.7725542 .1482573 0
.7985206 .1466489 0
.8241168 .1410881 0
.8490905 .1344961 0
.8734396 .128847 0
.896977 .1243439 0
.9199083 .1154543 0
.9419581 .1052014 0
.9628206 .1011005 0
.9811381 .09644724 0
0 .2218571 0
0 .2219315 0
.00742314 .2220665 0
.07493906 .2222133 .00195269
.1242243 .2223602 .0050093
.1719708 .2210059 .00514748
.2146834 .2216643 0
.2548453 .2225008 0
.2945915 .2221544 0
.3318465 .2194507 0
.3691044 .2169962 0
.4019818 .216813 0
.4345829 .2166362 0
.4695192 .2145243 0
.5038072 .2121451 0
.5374809 .2095459 0
.5698223 .2086109 0
.600766 .2059585 0
.6303383 .2037679 0
.659963 .2012575 0
.689149 .2004159 0
.7170438 .1976998 0
.7449633 .1955626 0
.7719902 .1933205 0
.7982224 .1899778 0
.8235354 .1872859 0
.8484767 .1829314 0
.8729786 .1788288 0
.8967452 .1741259 0
.9197049 .167121 0
.9418178 .1600291 0
.9628194 .1553217 0
.9811968 .1508332 0
0 .2610611 0
0 .26098 0
.01996209 .2609207 0
.08406734 .26088 0
.1331601 .2609056 0
.1747034 .2609471 0
.2135997 .2603103 0
.2528182 .2604989 0
.2924939 .2599392 0
.3311019 .2585031 0
.3670872 .2561066 0
.4034889 .2539385 0
.4397556 .2509868 0
.4704821 .2516308 0
.5024912 .2514526 0
.5359843 .2501238 0
.5683752 .2487966 0
.5995793 .24721 0
.6293578 .2449833 0
.6599911 .2417691 0
.6895568 .240537 0
.717091 .238254 0
.7447187 .2364607 0
.7715585 .2340131 0
.7977976 .2310732 0
.8233426 .2279711 0
.8480897 .2263827 0
.8725907 .2231915 0
.8964058 .2184555 0
.919434 .2124298 0
.9415956 .2071795 0
.9626456 .202912 0
.981028 .1996934 0
0 .2981406 0
0 .2980368 0
.02908828 .2979049 0
.09101958 .2977165 0
.1396416 .2975471 0
.1817843 .2975464 0
.2185192 .2976389 0
.2529913 .2979838 0
.2900676 .2968775 0
.3286413 .29573 0
.3664736 .2945755 0
.4024242 .2930368 0
.436829 .2907948 0
.4727705 .2884189 0
.5066615 .2866002 0
.5358762 .2882115 0
.5666292 .2880346 0
.5977662 .2870114 0
.6278815 .2856517 0
.6589573 .2835747 0
.6888307 .2803257 0
.7171546 .2773323 0
.74447 .2747658 0
.7712226 .2723995 0
.7974556 .270106 0
.8230786 .2679005 0
.8481005 .265801 0
.872188 .2643242 0
.8959854 .2599494 0
.9192411 .2542664 0
.941206 .2505908 0
.9623409 .2466956 0
.980857 .2433988 0
0 .3341195 0
0 .3340663 0
.02007211 .3340065 0
.08561697 .3339208 0
.1355934 .3338062 0
.1802103 .3336612 0
.2224135 .333497 0
.2590084 .333254 0
.2916254 .3329509 0
.3263852 .3321931 0
.3638462 .3314114 0
.400773 .3304959 0
.4360927 .3297634 0
.4703169 .3275076 0
.5050455 .3254302 0
.5382802 .3234634 0
.5690127 .3231797 0
.596397 .3252416 0
.626528 .3243036 0
.6577695 .3223378 0
.6878409 .3183511 0
.7166069 .3158202 0
.7444164 .3134337 0
.7712019 .311223 0
.7972853 .308834 0
.822766 .3068208 0
.8478373 .3047157 0
.8723073 .3014948 0
.89607 .2979051 0
.9188232 .2946663 0
.9407634 .2911501 0
.9619555 .2879881 0
.9803229 .2852441 0
0 .3701953 0
0 .3699491 0
.00411453 .3697328 0
.07783986 .3696122 0
.1312389 .3695019 0
.1780028 .3692293 0
.2208229 .3688967 0
.2591812 .3684976 0
.2931464 .3680766 0
.3273489 .3678484 0
.3619351 .3671371 0
.3977947 .3668624 0
.4346937 .3657583 0
.4693453 .3652148 0
.5034389 .3636213 0
.5362275 .3608947 0
.5685269 .3593979 0
.5983044 .3587268 0
.6287159 .3582766 0
.6562513 .359441 0
.68638 .3557641 0
.7152647 .3535924 0
.7434921 .3512635 0
.770889 .3488975 0
.7972763 .3470539 0
.8226595 .3455165 0
.8476501 .3430672 0
.8723906 .3391151 0
.8959938 .3354111 0
.9186495 .3324391 0
.9402462 .3305181 0
.9614894 .3276806 0
.9799427 .325105 0
0 .4058619 0
0 .4058336 0
0 .4057661 0
.04971246 .405251 0
.1214845 .4045459 0
.1726871 .4041537 0
.216077 .404013 0
.2565687 .4037595 0
.2933293 .4032154 0
.3272902 .4026972 0
.3605127 .4024857 0
.395836 .4014127 0
.4311072 .4010598 0
.4675587 .3997386 0
.5019646 .3986437 0
.5345941 .3974028 0
.5660775 .3943719 0
.5977277 .3932381 0
.6282794 .3933572 0
.6571698 .3924197 0
.6861131 .3912618 0
.7134869 .3906193 0
.7416901 .3883699 0
.7692766 .3863395 0
.796033 .3843313 0
.8222587 .3815894 0
.8477091 .3782241 0
.8721414 .3751411 0
.8955707 .3724164 0
.9180934 .3703327 0
.9399762 .3679579 0
.9609663 .3653859 0
.9794351 .363793 0
0 .4402641 0
0 .4402069 0
0 .4401251 0
0 .4399883 0
.09464809 .4394495 0
.1582818 .4386317 0
.2098423 .4377945 0
.2528088 .4373667 0
.2916561 .4371107 0
.326941 .4366446 0
.3601531 .4359982 0
.3944198 .4351065 0
.4295786 .4334342 0
.4633556 .4333582 0
.4989455 .4319063 0
.5320426 .4305936 0
.564196 .4298551 0
.5962145 .4281698 0
.626412 .4275178 0
.6560051 .4269854 0
.684881 .4261518 0
.713462 .4243931 0
.7414344 .422571 0
.767607 .4224132 0
.7946646 .4200118 0
.8211666 .4168876 0
.8467302 .4139379 0
.8711266 .4110067 0
.8945739 .4080977 0
.9168857 .4060723 0
.9387821 .4039024 0
.9600945 .4016029 0
.9788938 .3995857 0
0 .4731489 0
0 .4730461 0
0 .47293 0
0 .4727641 0
.05894723 .4725195 0
.1379936 .4718 0
.1956246 .4708686 0
.2444603 .4698884 0
.2854158 .4689961 0
.3242706 .4685993 0
.3595173 .4682464 0
.3938816 .467318 0
.4278881 .4663323 0
.461268 .4653623 0
.4946724 .4647055 0
.5286943 .4636003 0
.5630156 .4623323 0
.5944072 .4620326 0
.6252728 .4609215 0
.6548848 .4598591 0
.6834222 .4592067 0
.7122493 .4588021 0
.7402808 .4578475 0
.7678985 .4559771 0
.7948594 .4532773 0
.8202196 .4517744 0
.8454573 .4491422 0
.8698658 .4460641 0
.8930491 .4436632 0
.9155206 .4412934 0
.9370806 .4391944 0
.9584683 .437131 0
.9773765 .4352245 0
0 .5051941 0
0 .5051203 0
0 .5050371 0
0 .5049071 0
.00610087 .5046728 0
.1080155 .5043907 0
.1743364 .5036891 0
.2298084 .5023571 0
.2761592 .5011711 0
.3169428 .5001552 0
.3563243 .499645 0
.3924544 .4992129 0
.4269019 .4983621 0
.4600403 .4974241 0
.4922816 .4964151 0
.5258541 .4956813 0
.5597174 .494902 0
.5935885 .4940463 0
.6242915 .4927101 0
.6545828 .4928603 0
.6837929 .4926397 0
.711588 .491389 0
.7399453 .4902384 0
.7674475 .4886934 0
.7943108 .4866796 0
.8200074 .4844937 0
.8447471 .4823017 0
.8684056 .4803715 0
.8910978 .478714 0
.9136335 .4763343 0
.9356272 .473881 0
.957334 .4715041 0
.9763101 .4696099 0
0 .5364229 0
0 .5363575 0
0 .5362839 0
0 .5361648 0
0 .5359637 0
.0723893 .5356848 0
.1504047 .5353167 0
.2109613 .5346841 0
.2642703 .5333477 0
.3072836 .5323541 0
.348433 .5312526 0
.3891771 .5303907 0
.4250964 .5300122 0
.458829 .5292776 0
.4922009 .5282042 0
.524783 .5273727 0
.5570414 .5272191 0
.5899888 .525952 0
.6229945 .5255157 0
.6534988 .5257825 0
.6828521 .5256582 0
.7114952 .5249456 0
.7399766 .5219816 0
.7671192 .5199813 0
.7936188 .5183908 0
.8192214 .5168223 0
.8436782 .5149146 0
.8673136 .5133293 0
.8901596 .5117543 0
.9124115 .5097573 0
.9340693 .5085394 0
.9559954 .5059972 0
.9752164 .5038126 0
0 .5678635 0
0 .5678076 0
0 .5677161 0
0 .5675855 0
0 .5674109 0
.01779287 .5671766 0
.1270781 .5668728 0
.1930783 .5664445 0
.2496203 .565783 0
.2990432 .5647034 0
.3412614 .5636051 0
.3825702 .5622985 0
.4220982 .561425 0
.4583153 .5608149 0
.4922271 .5601699 0
.5241925 .5594492 0
.5559255 .5587069 0
.5870243 .5581239 0
.6195356 .5580823 0
.6516337 .5576525 0
.6815506 .5572062 0
.710472 .5561785 0
.7391118 .5541225 0
.7669966 .5517334 0
.792675 .5495046 0
.8183105 .5480776 0
.8430669 .5467203 0
.8667544 .545696 0
.8895115 .5446658 0
.9117991 .5431497 0
.933747 .5411193 0
.9551054 .539084 0
.9736928 .537737 0
0 .5984717 0
0 .5984645 0
0 .5984561 0
0 .5984445 0
0 .5983973 0
0 .5981899 0
.1003455 .5979095 0
.1756103 .5975768 0
.23558 .5970536 0
.2888002 .5963632 0
.3342488 .5954736 0
.3753384 .5941511 0
.4166814 .5928228 0
.4549152 .5920375 0
.4893047 .5919101 0
.5227432 .5916193 0
.5540042 .5899501 0
.5854573 .5893728 0
.6167492 .5889855 0
.648084 .5884862 0
.6797174 .587587 0
.7088536 .5867437 0
.7369889 .5852072 0
.7649289 .583377 0
.7920719 .5814365 0
.8174279 .5795332 0
.8419174 .5776458 0
.8658609 .576673 0
.8892583 .5756599 0
.9119934 .5745271 0
.9336855 .5733112 0
.9549327 .5723416 0
.973391 .571084 0
0 .6281062 0
0 .6281015 0
0 .6280964 0
0 .6280891 0
0 .6280792 0
0 .6280667 0
.07284256 .6280571 0
.1573335 .6280597 0
.2195002 .6278051 0
.2745039 .627204 0
.3260687 .6262439 0
.368774 .6253043 0
.40868 .6241789 0
.4475356 .6232705 0
.4843027 .6225577 0
.5185894 .621218 0
.5524222 .6204808 0
.584902 .6193768 0
.615542 .6188617 0
.6461632 .618017 0
.6762009 .617707 0
.7062493 .6170405 0
.7349653 .6155552 0
.7629029 .6136639 0
.7899956 .6119564 0
.8165305 .6102849 0
.8416331 .6088554 0
.8651237 .6070089 0
.8886446 .6060024 0
.9116224 .6051431 0
.9335065 .6043283 0
.9546668 .603411 0
.9734427 .6024732 0
0 .6572157 0
0 .6572062 0
0 .6571955 0
0 .6571804 0
0 .65716 0
0 .6571343 0
.03864154 .657108 0
.1390666 .6571153 0
.204367 .6571038 0
.2589947 .657059 0
.312009 .6567802 0
.3573535 .6561173 0
.3977866 .6553866 0
.4373165 .6542915 0
.476985 .6523867 0
.5138757 .6512456 0
.5488243 .6501271 0
.5824039 .6490417 0
.6147979 .6480806 0
.6439381 .6477787 0
.6733263 .6471016 0
.7024705 .6466622 0
.7321854 .6455463 0
.7610129 .6435305 0
.7883963 .6417301 0
.8143219 .6405519 0
.8393758 .6392632 0
.8644834 .637884 0
.888657 .6366953 0
.9111722 .6353724 0
.933306 .6345164 0
.954564 .6336038 0
.9734395 .6328366 0
0 .6851193 0
0 .6851907 0
0 .6852006 0
0 .6852147 0
0 .6852205 0
0 .6852163 0
.00622201 .685232 0
.128918 .6852954 0
.1957991 .685412 0
.2499896 .6855234 0
.3018345 .68529 0
.3481803 .6848093 0
.3898111 .6840487 0
.4318123 .6816995 0
.4718552 .6803222 0
.5106707 .679071 0
.546544 .6778447 0
.5804657 .6768975 0
.6125026 .6760148 0
.6426602 .6756642 0
.6717896 .6753376 0
.7006817 .6747876 0
.7290415 .6747051 0
.7583264 .673388 0
.78651 .671391 0
.8124529 .6700208 0
.8381438 .6688158 0
.8633977 .6674692 0
.8874763 .6662375 0
.9103975 .6656933 0
.9329689 .6646929 0
.9540963 .6633918 0
.9727214 .6623238 0
0 .7122864 0
0 .712283 0
0 .7122908 0
0 .7123147 0
0 .7123467 0
0 .712385 0
0 .7122846 0
.1195611 .7122151 0
.1886531 .71235 0
.2440614 .7123325 0
.2953567 .7122291 0
.3442368 .7118052 0
.3874152 .7101333 0
.4282772 .7094691 0
.4679642 .7083595 0
.5063905 .7070091 0
.5429304 .7058488 0
.5773028 .7045773 0
.6099859 .7034147 0
.6405092 .702934 0
.6702794 .7025992 0
.6994728 .7024629 0
.7278801 .701747 0
.7555438 .7009889 0
.7831721 .6997939 0
.8104945 .6986054 0
.8363618 .6977215 0
.8610504 .6968633 0
.885648 .695739 0
.9093673 .6944116 0
.9315207 .6937922 0
.9527659 .6930779 0
.9718983 .691265 0
0 .739475 0
0 .7394534 0
0 .7394306 0
0 .7394 0
0 .7393589 0
0 .7393081 0
0 .7393036 0
.09643676 .739228 0
.1769879 .739127 0
.2363254 .7390198 0
.2930722 .7381167 0
.3407843 .7372702 0
.3840458 .736639 0
.4250984 .7359629 0
.4644877 .7352999 0
.501824 .7345929 0
.5385103 .7334116 0
.5733739 .732422 0
.6070877 .7313101 0
.6383408 .7304654 0
.6678352 .7298362 0
.6971571 .7295004 0
.7257435 .7291185 0
.7541308 .7282248 0
.7804413 .7277244 0
.8076821 .7264513 0
.8344916 .724995 0
.8602247 .7237757 0
.8841013 .7228697 0
.907555 .7219807 0
.930091 .7210984 0
.9514081 .7208114 0
.9700693 .7203746 0
0 .7656201 0
0 .7656028 0
0 .7655864 0
0 .7655665 0
0 .7655399 0
0 .765506 0
0 .7654467 0
.05831288 .7653882 0
.1582516 .7652942 0
.2243443 .7643382 0
.2825341 .7639003 0
.3339206 .7636091 0
.3793512 .7630923 0
.4217911 .762189 0
.4610722 .7615412 0
.4985655 .7608824 0
.5341136 .7602376 0
.5688488 .7592283 0
.6027226 .7581033 0
.6354631 .7573536 0
.6663749 .7567738 0
.6955458 .7563747 0
.7243639 .7556162 0
.7525048 .7549074 0
.7802153 .7540737 0
.8058976 .7540379 0
.8320886 .7528097 0
.8581068 .7512257 0
.8829437 .749919 0
.906227 .7490279 0
.9287675 .7478712 0
.9505118 .7467115 0
.9695221 .7463332 0
0 .7912529 0
0 .7912298 0
0 .791204 0
0 .7911668 0
0 .791117 0
0 .7910522 0
0 .79097 0
0 .7902349 0
.1376036 .7896724 0
.211567 .7895846 0
.2737052 .7895195 0
.32747 .7892869 0
.3731185 .7889911 0
.4147822 .7883087 0
.4547905 .7875771 0
.4929397 .7865568 0
.5296841 .7859371 0
.5651635 .78529 0
.5986592 .7847195 0
.6318693 .783916 0
.663929 .783157 0
.6942537 .7822611 0
.7231136 .7815204 0
.7518427 .7808515 0
.7796742 .7797273 0
.8062383 .7792002 0
.8306154 .7795379 0
.855692 .7787579 0
.8808886 .7774536 0
.9052157 .7761198 0
.9274938 .7750165 0
.9493751 .7739416 0
.9687203 .7732443 0
0 .8160189 0
0 .8160054 0
0 .8159902 0
0 .8158344 0
0 .8154554 0
0 .8149742 0
0 .8147189 0
0 .8146625 0
.1182249 .8146026 0
.2002634 .8145429 0
.2627302 .8144251 0
.3163269 .8141313 0
.3648235 .8137208 0
.407355 .8133298 0
.4479927 .8128049 0
.4874263 .8121623 0
.5252478 .8114848 0
.561555 .8106262 0
.5957138 .8101951 0
.6277255 .8099046 0
.6602219 .8088533 0
.6927755 .8077177 0
.7230349 .8066992 0
.7514101 .8059429 0
.7791164 .8050525 0
.805645 .8044513 0
.8307958 .8043298 0
.8546 .8047525 0
.8784519 .8041614 0
.9027383 .8028038 0
.9264451 .8014314 0
.9486856 .8004242 0
.9678854 .7996112 0
0 .83933 0
0 .8391498 0
0 .8391094 0
0 .8390712 0
0 .8390203 0
0 .8389555 0
0 .8388588 0
0 .8387367 0
.07706169 .8385905 0
.1789243 .8385217 0
.2490844 .8384732 0
.3061449 .8383645 0
.3566848 .8381172 0
.4000966 .8378218 0
.4414861 .8373629 0
.4816638 .836812 0
.5200467 .8361858 0
.5571581 .8355221 0
.5933415 .8348656 0
.6263298 .8345446 0
.6582358 .8339503 0
.6900521 .8330477 0
.7213888 .8318593 0
.7508447 .8307113 0
.778742 .8296717 0
.8051903 .8288962 0
.8301533 .8287167 0
.8544533 .82863 0
.8774025 .8292122 0
.9001983 .8288774 0
.923977 .8277202 0
.9471176 .8264778 0
.967091 .8254659 0
0 .8626339 0
0 .8626075 0
0 .8625778 0
0 .8625352 0
0 .8624925 0
0 .8624492 0
0 .8623962 0
0 .8623334 0
.01116592 .8622604 0
