luts/Timeless_46.cube
# 3D LUT of size 33x33x33 converted by Filestar.
#   Input:
#     color space: sRGB
#     white point: default (D65)
#     transfer function: default (sRGB)
#   Output:
#     color space: sRGB
#     white point: default (D65)
#     transfer function: default (sRGB)
#   Exposure: +0.34
#   Contrast: -65
#   Whites: -35
#   Blacks: +22
#   Vibrance: +26
LUT_3D_SIZE 33
.01524699 .01504351 .04726104
.05156966 .01100174 .04857206
.08738466 .00661164 .04720849
.1260626 .00240326 .04570815
.1635352 .00119877 .04000166
.2006938 .00074264 .03436104
.2377847 0 .03275642
.2763737 0 .02421077
.3149399 0 .01635738
.3530307 0 .01000075
.3925331 0 .00590321
.4293971 0 .00121613
.4633991 0 0
.4970984 0 0
.5301086 0 0
.5625237 0 0
.594485 0 0
.6265918 0 0
.6570576 0 0
.6863092 0 0
.7159252 0 0
.7435341 0 0
.7703934 0 0
.7969331 0 0
.8231229 0 0
.8483904 0 0
.8729374 0 0
.8965325 0 0
.9194579 0 0
.9422267 0 0
.9640793 0 0
.9853899 0 0
.9999999 0 0
.01187345 .05174182 .04268219
.05214906 .05213028 .04379951
.08582994 .05281846 .04348228
.1241966 .0515043 .04109666
.1621486 .05036508 .03692367
.1995293 .0499756 .03409487
.2368369 .0501393 .03129777
.2743676 .04872572 .02674356
.3134608 .04173522 .01750891
.353775 .03926978 .00962225
.3927317 .03854503 .00514177
.4291898 .03977281 .0010837
.4630358 .04156359 0
.4964696 .03590291 0
.5296478 .02869137 0
.5620443 .02304395 0
.5940209 .01757886 0
.6261047 .00861973 0
.6564628 .00084539 0
.6858545 0 0
.7154149 0 0
.7429926 0 0
.769855 0 0
.796412 0 0
.8227454 0 0
.8479537 0 0
.8725361 0 0
.8960822 0 0
.9191206 0 0
.9419389 0 0
.9637972 0 0
.9850672 0 0
.9999999 0 0
.00288175 .092735 .03845109
.04610399 .0925262 .03790601
.08287752 .09257299 .03703973
.1199371 .09239892 .03587725
.1594612 .09133451 .03157069
.1980906 .08999728 .03014616
.2358758 .08939662 .02814783
.273506 .08821139 .02556036
.3130342 .08711676 .0205043
.3539355 .08439504 .01122006
.3928127 .08193331 .00458175
.4286747 .08160349 .0011689
.4623286 .08139161 0
.4959021 .07668509 0
.5291246 .07205393 0
.5615023 .06827497 0
.5935445 .06488205 0
.6256237 .05830676 0
.6558008 .05093121 0
.6852978 .0438234 0
.7148315 .03277591 0
.7424262 .02940874 0
.7694395 .02767932 0
.7958802 .0278051 0
.8222966 .02154085 0
.8474492 .01340749 0
.8720275 .00424222 0
.8955511 0 0
.9187505 0 0
.9415936 0 0
.9634619 0 0
.984698 0 0
.9999999 0 0
0 .1334077 .0295891
.04179951 .1332629 .02874769
.08133481 .1333103 .02529589
.1192285 .1333776 .02036108
.1570162 .133273 .01557484
.1962295 .132468 .01376231
.235296 .1309325 .01213059
.2745043 .1299849 .01078583
.3132692 .1291275 .01018862
.3525486 .1251694 .01115828
.3917626 .1212632 .00266752
.4272598 .1204014 .00005714
.4611846 .1186974 0
.4949866 .1150027 0
.5283077 .111771 0
.5607569 .1094021 0
.5928262 .1073734 0
.6249194 .1026143 0
.654821 .09843472 0
.6844941 .09382022 0
.713996 .08783858 0
.7416252 .08595379 0
.7686008 .08514161 0
.7952023 .0851926 0
.8215612 .0816922 0
.8469825 .07632805 0
.8712395 .07013253 0
.8948572 .06407067 0
.9182231 .05847166 0
.9410915 .05250441 0
.9629782 .0482545 0
.9842514 .04044834 0
.9999999 .03090154 0
.00386504 .1684745 .0169247
.05025679 .1681874 .01525231
.08703377 .1679747 .01206743
.1236204 .1676698 .00751249
.1607375 .1672393 .00355205
.1989371 .1661465 .00063478
.2370086 .1652246 0
.2751929 .1645756 0
.313738 .16412 0
.3524804 .1639103 0
.3898293 .1594096 .00086252
.4256195 .1570497 0
.459716 .1557146 0
.4937502 .1525462 0
.5271755 .1500235 0
.5596805 .148525 0
.5917508 .147346 0
.6238127 .1428939 0
.6535608 .1405053 0
.6832762 .1372765 0
.7127768 .1333396 0
.7404761 .1322472 0
.7676744 .131191 0
.7945275 .1296937 0
.8205712 .1284178 0
.8460134 .1247662 0
.8701832 .1209089 0
.8940602 .1171726 0
.9175229 .1136115 0
.9403952 .1100571 0
.9623329 .1067163 0
.9836538 .1019943 0
.9999999 .09743906 0
.02217364 .2008989 .00744989
.06493953 .2007107 .00581169
.09712922 .2005613 .00292926
.1311528 .2005355 0
.1663765 .2006237 0
.201675 .2010818 0
.2367915 .2025208 0
.2744606 .2022184 0
.3130544 .2015539 0
.3519139 .2001003 0
.3891962 .197654 0
.4242354 .1944223 0
.4592705 .1919853 0
.4922415 .1912558 0
.5255814 .189784 0
.5582601 .1888153 0
.5904077 .1875776 0
.6222787 .1835315 0
.6519664 .1813916 0
.6818087 .1787426 0
.7111719 .1757731 0
.7391912 .1742246 0
.7665808 .1729241 0
.7935528 .1714984 0
.8195351 .1700085 0
.844779 .1678479 0
.8689427 .1651617 0
.8930759 .1622274 0
.9166064 .1594864 0
.9394643 .1564267 0
.9615013 .1529795 0
.9828606 .1496687 0
.9999999 .1467099 0
.00823089 .2393518 0
.05801859 .2394269 0
.09480873 .2394186 0
.1310137 .2394265 0
.167316 .2393689 0
.2032613 .2392835 0
.2381146 .2399056 0
.2731299 .2399986 0
.3115123 .2390921 0
.3509844 .2379937 0
.3883916 .2359954 0
.4227623 .2339103 0
.4570063 .2315984 0
.4905935 .230266 0
.5239273 .2288554 0
.5566028 .2275061 0
.5888652 .2260599 0
.6204395 .2227264 0
.6501607 .2209186 0
.6802289 .2186194 0
.7095523 .2162288 0
.7376713 .2148523 0
.7652286 .2135235 0
.7922909 .2120368 0
.8182648 .2099828 0
.843188 .2088458 0
.8675031 .2065752 0
.8918701 .2038392 0
.9154457 .2012747 0
.9383492 .1978033 0
.9604552 .1949706 0
.9818555 .1924221 0
.9999999 .1901423 0
.00127354 .2767715 0
.05261687 .2768734 0
.0925556 .276822 0
.1308595 .2767368 0
.167441 .2766059 0
.2037137 .2762424 0
.2388888 .2759725 0
.2734271 .2756228 0
.3098487 .2754576 0
.348995 .2745078 0
.387017 .273512 0
.4222498 .272008 0
.4567741 .2700699 0
.4900949 .2683082 0
.5230513 .2659335 0
.5548938 .2652711 0
.5872357 .2633233 0
.6185751 .260329 0
.6484523 .2588397 0
.6787832 .2568246 0
.7079847 .2549402 0
.7361115 .2536078 0
.7636713 .2525809 0
.7906534 .251094 0
.816533 .2494637 0
.841516 .2477049 0
.8659788 .246534 0
.8904199 .2431223 0
.9141141 .2399994 0
.9370208 .2371289 0
.9592397 .2345194 0
.9808338 .2319616 0
.9999865 .229611 0
0 .3131754 0
.04052918 .3131769 0
.08341528 .3131966 0
.1246938 .313033 0
.1644876 .3126297 0
.2014773 .3121709 0
.2379416 .3116069 0
.2734914 .3110356 0
.3103919 .3103377 0
.348664 .3098541 0
.3857439 .3097058 0
.4221861 .3091729 0
.4562933 .3073516 0
.4896631 .3054543 0
.522006 .3039585 0
.5548444 .3014107 0
.5855979 .2995199 0
.6162465 .297768 0
.646591 .2962442 0
.6770227 .2944109 0
.7060456 .2928976 0
.7343994 .2914789 0
.7619616 .2904496 0
.7885603 .2891999 0
.8145091 .2877927 0
.8395401 .2860785 0
.8645366 .2833062 0
.8888927 .2807263 0
.9126285 .2779149 0
.9356996 .2746032 0
.9580625 .2718444 0
.9798196 .2695127 0
.9991578 .2671079 0
0 .348916 0
.02630267 .3488516 0
.07509432 .3486722 0
.1179567 .3484273 0
.1595348 .3479726 0
.1986243 .3472778 0
.2354571 .3465421 0
.2732164 .3454822 0
.3122859 .3443696 0
.347975 .344522 0
.3834708 .3450854 0
.420212 .3449276 0
.455103 .3440505 0
.4889216 .3426723 0
.5212379 .3408771 0
.5535901 .3382487 0
.5849038 .3354633 0
.6149777 .3337609 0
.6444255 .3332763 0
.674611 .3318989 0
.7036386 .3305523 0
.7321714 .3291653 0
.7600725 .3272939 0
.7862878 .3261496 0
.8121808 .3243767 0
.8377837 .3219157 0
.8629775 .3192913 0
.8875195 .3167452 0
.9113975 .3139086 0
.934307 .3118089 0
.9567439 .3088809 0
.9788007 .3057643 0
.9981274 .3037187 0
0 .3832717 0
.00774293 .3831019 0
.06116624 .3828987 0
.1081405 .3826077 0
.1507688 .3822178 0
.1925384 .381465 0
.2319804 .3805751 0
.2701967 .3799039 0
.3083887 .3792342 0
.3453404 .3790166 0
.3815367 .3789587 0
.4173742 .3791845 0
.4528396 .3791132 0
.4871921 .3779513 0
.5210069 .376335 0
.552287 .3740956 0
.5837355 .3718165 0
.613764 .3703237 0
.6443313 .3685044 0
.6732155 .3676659 0
.700926 .3676523 0
.7294924 .3660537 0
.7572577 .363446 0
.7842575 .3611051 0
.8106622 .3587844 0
.8363364 .3565797 0
.8614658 .3544359 0
.8860457 .3521374 0
.9099468 .3496262 0
.9329605 .3473882 0
.9552696 .3455674 0
.9774699 .3424436 0
.9967796 .3405094 0
0 .4171675 0
0 .4170816 0
.03749474 .4169878 0
.09432248 .4167617 0
.1407363 .4164497 0
.1834801 .4160535 0
.2261704 .4152511 0
.2662308 .4143249 0
.3038646 .413951 0
.3408213 .4137422 0
.3783853 .4133834 0
.4149842 .4131949 0
.4501166 .4132717 0
.4847354 .4121082 0
.5183451 .4104418 0
.5509226 .409032 0
.5826693 .4073013 0
.613227 .4060385 0
.6435112 .4046076 0
.6729969 .402575 0
.70126 .40075 0
.7283456 .3992185 0
.7546871 .3980224 0
.7823071 .3957005 0
.8087165 .3935834 0
.834645 .3913398 0
.8599125 .3892394 0
.8844156 .3872337 0
.9081789 .3851155 0
.9310325 .3831915 0
.9537545 .3808383 0
.9759451 .3786601 0
.9949717 .3780659 0
0 .4510727 0
0 .450986 0
.01418096 .4508532 0
.08122448 .4506633 0
.1321389 .4504147 0
.1783783 .4500679 0
.2217736 .4495444 0
.2636977 .4490303 0
.3010628 .4486103 0
.3384111 .4480156 0
.3753852 .4475502 0
.4117398 .4470944 0
.4475832 .4465932 0
.4820145 .4463226 0
.515571 .4446636 0
.5484847 .4428532 0
.5805922 .440883 0
.6125025 .4390118 0
.6429338 .4378222 0
.6725924 .4360359 0
.70076 .4339745 0
.7284076 .4317753 0
.7553809 .4302124 0
.7810679 .4291811 0
.8065296 .4281004 0
.8325349 .4260764 0
.8579319 .424074 0
.8826068 .4219415 0
.9060793 .4199229 0
.9292951 .4180689 0
.9521449 .4159291 0
.974194 .4139771 0
.993499 .4124083 0
0 .4836083 0
0 .4835502 0
0 .4834844 0
.06995175 .4833126 0
.1264351 .4829935 0
.1739995 .4825581 0
.2179133 .4820248 0
.260035 .481474 0
.3003866 .4809124 0
.3363005 .4805109 0
.3714397 .4801253 0
.407654 .4795876 0
.443458 .4788418 0
.4787244 .4779822 0
.5128528 .4771144 0
.5461729 .4752875 0
.5786973 .4732431 0
.6105585 .4715139 0
.6412943 .4697179 0
.6707569 .4678483 0
.6998484 .4662625 0
.7278816 .4651101 0
.7549252 .4634003 0
.7812425 .4614173 0
.8067651 .4599533 0
.8311712 .4593889 0
.8556074 .458364 0
.8800402 .4564987 0
.9038718 .4545016 0
.9274326 .4521447 0
.9501672 .4502286 0
.9721565 .4485503 0
.9916875 .4470977 0
0 .5152794 0
0 .5151429 0
0 .514989 0
.0636014 .5147685 0
.121849 .5144478 0
.1706523 .513974 0
.2150088 .5134026 0
.2565936 .5128056 0
.2966114 .5122646 0
.3336236 .5117501 0
.3688184 .5112457 0
.4036975 .5106009 0
.4391177 .5098653 0
.4745389 .5090464 0
.5093192 .5080256 0
.5435348 .5065666 0
.5769631 .5048465 0
.608986 .5029275 0
.6392644 .5009891 0
.6691901 .4992316 0
.6981026 .4978942 0
.7258111 .4972051 0
.7527455 .4961528 0
.7796071 .4944589 0
.8058962 .4925691 0
.83092 .4915709 0
.8550928 .4906859 0
.8782702 .4899935 0
.9012505 .4887259 0
.9249709 .4865342 0
.9477692 .484679 0
.970226 .4827042 0
.9898352 .4812869 0
0 .5459104 0
0 .5458169 0
0 .5457112 0
.04974337 .5455598 0
.1132789 .5453478 0
.1634075 .5450469 0
.2079579 .5446957 0
.2499976 .5442777 0
.2892405 .5439911 0
.3277402 .5436046 0
.3642092 .5430052 0
.3990641 .5423988 0
.4342864 .5417406 0
.4694902 .5409648 0
.5050018 .5399304 0
.5400845 .5386197 0
.573653 .537235 0
.6051297 .5356475 0
.6355188 .5339674 0
.6654082 .5319225 0
.6947301 .5303375 0
.7228858 .5289959 0
.7500511 .528187 0
.7768022 .5270661 0
.803174 .5255663 0
.8290285 .5238004 0
.8540071 .5220793 0
.8781549 .5204257 0
.9014036 .5191 0
.9239165 .5182183 0
.9457476 .5176784 0
.9682307 .5155632 0
.9880298 .5137006 0
0 .576176 0
0 .576067 0
0 .5759441 0
.0470586 .5757682 0
.112105 .5755324 0
.1611799 .5752915 0
.2047231 .5750331 0
.2454701 .574707 0
.2844034 .5743124 0
.3227145 .5738196 0
.3613988 .5731075 0
.3969319 .5723767 0
.4316999 .5717108 0
.4669504 .5708526 0
.5020579 .5697575 0
.5359626 .5684995 0
.5691306 .5673732 0
.6010895 .5661061 0
.631991 .5645782 0
.6622987 .563002 0
.6914912 .5611296 0
.7203482 .5594918 0
.7482231 .5581965 0
.7752398 .5573142 0
.8012893 .5565721 0
.8265551 .5555229 0
.8515359 .5538982 0
.8762131 .5519565 0
.9003508 .5501171 0
.9237722 .548545 0
.9463444 .5471205 0
.9677897 .5459705 0
.9864874 .545593 0
0 .6050175 0
0 .6049212 0
0 .6048124 0
.03634174 .6046644 0
.1035558 .6044931 0
.1536208 .6042754 0
.1980888 .604009 0
.2397257 .6036921 0
.279069 .6033505 0
.3174673 .6028799 0
.3562743 .6022189 0
.3945207 .6014362 0
.4297703 .6005307 0
.4634686 .5997633 0
.4977241 .5989233 0
.5316649 .5980512 0
.5645394 .5969298 0
.5971318 .5959365 0
.6289167 .594874 0
.6596112 .5933515 0
.6887739 .5920954 0
.7175742 .5901942 0
.7457517 .5885232 0
.7729882 .5874456 0
.7993125 .5864777 0
.8247428 .5857033 0
.8498186 .5844727 0
.8744074 .5831552 0
.898657 .5813147 0
.9222689 .579355 0
.9450547 .5775644 0
.9670252 .5763933 0
.9862673 .5756358 0
0 .6331241 0
0 .6330245 0
0 .6329222 0
.012026 .6327758 0
.09132122 .63258 0
.145669 .6323313 0
.1922247 .6320269 0
.2351456 .6316646 0
.2758175 .6312639 0
.3143157 .6308361 0
.3524469 .6301907 0
.3906846 .6294276 0
.4260709 .6289305 0
.4602938 .6282996 0
.4944662 .627665 0
.5283667 .6270183 0
.5612863 .626232 0
.5939435 .6252482 0
.6253679 .6244667 0
.6560316 .6235521 0
.6861397 .6219199 0
.7148713 .6209068 0
.7430896 .6192831 0
.7704479 .6171961 0
.7967316 .6158711 0
.8228275 .614849 0
.8485852 .6135496 0
.8730346 .6125962 0
.8970922 .6112915 0
.920568 .6098005 0
.9433621 .6082761 0
.9653682 .6072071 0
.9847052 .6061827 0
0 .6603295 0
0 .6602424 0
0 .660148 0
0 .6600271 0
.0797439 .6598883 0
.1381215 .6597084 0
.1862516 .659478 0
.2300029 .6592085 0
.2714087 .6589023 0
.3098722 .6586292 0
.3466755 .6584143 0
.3833059 .6581321 0
.421121 .657576 0
.4566236 .6569727 0
.4907374 .656319 0
.5243446 .6556321 0
.5582911 .6549408 0
.590454 .6541355 0
.6221937 .6531413 0
.6527543 .6524547 0
.6824082 .651666 0
.7118881 .6498471 0
.7402288 .6485417 0
.7679408 .6470042 0
.7947921 .6451515 0
.8209091 .6437148 0
.8463079 .6426306 0
.8715305 .6413429 0
.8957981 .6402931 0
.9190592 .6393421 0
.941583 .638502 0
.963376 .6376051 0
.982648 .6367365 0
0 .6878085 0
0 .687767 0
0 .687703 0
0 .6876073 0
.05756174 .687479 0
.1258149 .6873392 0
.1764542 .6871361 0
.2216127 .6869027 0
.2633133 .6867126 0
.3029426 .6865301 0
.3402712 .6863804 0
.3768802 .6861683 0
.4148236 .6857213 0
.4524329 .6851377 0
.4869562 .6845649 0
.520017 .6839797 0
.5532905 .6832644 0
.5862926 .6824533 0
.618426 .6814964 0
.6492381 .6804895 0
.6784929 .6798769 0
.7079673 .6791857 0
.7374428 .6772111 0
.7652096 .6758428 0
.7925978 .674462 0
.8189715 .6727461 0
.8443774 .6712988 0
.8690845 .6703292 0
.8939896 .6689245 0
.9178699 .6678218 0
.9403244 .6674915 0
.9620951 .6669669 0
.981577 .666443 0
0 .7152753 0
0 .7152321 0
0 .7151834 0
0 .7151191 0
.01069441 .7149304 0
.1032552 .7146167 0
.1616113 .714254 0
.2101379 .7139217 0
.2550426 .7135882 0
.2957447 .7133179 0
.3351266 .7130682 0
.3729986 .7128124 0
.4098516 .7125206 0
.4480817 .7119637 0
.483849 .7113796 0
.5172484 .7107719 0
.5504081 .7100641 0
.583872 .7092705 0
.6159603 .7082985 0
.6470887 .7073963 0
.6770023 .7065094 0
.7058651 .7056351 0
.7349933 .7045732 0
.7632918 .703397 0
.7905093 .7025439 0
.8167731 .7013782 0
.842513 .6999556 0
.8677021 .6986825 0
.8920024 .6979057 0
.9156805 .6969734 0
.9384767 .6963384 0
.9608858 .6956421 0
.9810151 .6948715 0
0 .7414934 0
0 .7414507 0
0 .7414039 0
0 .7413379 0
0 .7412506 0
.08129454 .7411063 0
.1479877 .740904 0
.1996842 .7406304 0
.245979 .740318 0
.2900892 .7399518 0
.3317735 .7395577 0
.3711216 .7392196 0
.4076916 .7389025 0
.4441511 .7384967 0
.4809946 .7379538 0
.515141 .7373717 0
.548544 .7366847 0
.5815626 .735918 0
.6139093 .735059 0
.6448632 .7341253 0
.6750634 .7331761 0
.7036087 .7323493 0
.732092 .7314695 0
.7611514 .7302966 0
.789211 .728893 0
.8153732 .7286587 0
.8409224 .7280611 0
.8660093 .7271666 0
.8905439 .7258739 0
.9138827 .7253941 0
.9369535 .7246885 0
.9597939 .7237852 0
.9798562 .7230986 0
0 .7675871 0
0 .7675384 0
0 .7674882 0
0 .7674228 0
0 .7673341 0
.04615091 .7672253 0
.128742 .7670588 0
.1870857 .7668549 0
.2377305 .7666164 0
.283131 .766262 0
.3257913 .7658021 0
.3651514 .7653466 0
.4031307 .7649093 0
.4409077 .7643825 0
.4779996 .763959 0
.5134972 .7634048 0
.5465261 .7627516 0
.5789183 .7619606 0
.6111158 .7611063 0
.6418575 .7600818 0
.6719907 .7591081 0
.7015586 .7585279 0
.7300669 .7581992 0
.7581331 .7577459 0
.786736 .7567928 0
.8137062 .7554024 0
.8396245 .7542782 0
.8646702 .7533712 0
.8889362 .7526137 0
.9124362 .7517636 0
.9354329 .7516886 0
.958247 .7513024 0
.9786451 .7504386 0
0 .7927148 0
0 .7926618 0
0 .792602 0
0 .7925237 0
0 .7924309 0
.00882729 .7922985 0
.1154717 .7921233 0
.1785588 .7919071 0
.2304188 .7916884 0
.2766081 .7914332 0
.3199703 .7911238 0
.3601081 .7908208 0
.3986834 .790511 0
.4357758 .7901233 0
.4718267 .7896371 0
.5082199 .7889668 0
.5425981 .7882626 0
.5749199 .787588 0
.6067014 .7868702 0
.6381888 .7861845 0
.6693239 .7854899 0
.6996291 .7848073 0
.7283756 .784272 0
.7563697 .7836221 0
.7837359 .7829215 0
.8112592 .7820706 0
.8375691 .7807717 0
.8629095 .7797279 0
.8870782 .7790761 0
.9112632 .7784587 0
.9347095 .7778599 0
.9574193 .7775807 0
.9778705 .7771512 0
0 .8173308 0
0 .8172758 0
0 .8172168 0
0 .81714 0
0 .8170485 0
0 .8169497 0
.101683 .8168272 0
.1696187 .8166803 0
.2235959 .8164874 0
.2713352 .8162432 0
.3152319 .8160191 0
.3550383 .8158143 0
.3933142 .8155079 0
.4303129 .8151575 0
.4660742 .8147337 0
.5016305 .8142226 0
.5375533 .813722 0
.5710552 .8131396 0
.6032168 .812443 0
.6348088 .811819 0
.6659185 .8111703 0
.6962765 .810495 0
.7254464 .8097965 0
.7535028 .8091617 0
.780908 .8084395 0
.8085134 .8075194 0
.8346562 .8070415 0
.8603416 .8061455 0
.8858992 .8052871 0
.9101333 .8050175 0
.9340386 .8044814 0
.9572678 .8039343 0
.9776462 .8034248 0
0 .841793 0
0 .8417535 0
0 .8417119 0
0 .8416592 0
0 .8415887 0
0 .8415129 0
.08443046 .8414259 0
.1605891 .8413225 0
.2173313 .8411608 0
.2652497 .8409243 0
.3082039 .8406333 0
.3478891 .8403265 0
.3862914 .84003 0
.4242269 .8397232 0
.4610215 .8393891 0
.4968497 .8390039 0
.5329952 .8385016 0
.5678828 .837944 0
.6010541 .8373233 0
.6329116 .8365684 0
.663236 .8359624 0
.6934741 .8353103 0
.7229436 .8346412 0
.750991 .8342012 0
.7782444 .8338225 0
.8050006 .8334323 0
.8316163 .8331419 0
.8576348 .8327971 0
.8837545 .8319092 0
.9096445 .8306469 0
.933601 .8301133 0
.9570602 .8297464 0
.9777309 .829424 0
0 .8661842 0
0 .8661367 0
0 .866081 0
0 .8660009 0
0 .8658907 0
0 .8657132 0
.04440689 .8655239 0
.1406179 .8653714 0
.2025247 .8651857 0
