luts/Timeless_32.cube
# 3D LUT of size 33x33x33 converted by Filestar.
#   Input:
#     color space: sRGB
#     white point: default (D65)
#     transfer function: default (sRGB)
#   Output:
#     color space: sRGB
#     white point: default (D65)
#     transfer function: default (sRGB)
#   Exposure: +0.25
#   Whites: -18
#   Vibrance: -10
#   Saturation: -11
LUT_3D_SIZE 5
.0495285 .00320076 0
.2756706 .0053868 .00559394
.5100423 .08061823 .06196884
.7363538 .1501699 .1435462
.9408095 .2081091 .2069877
.09419247 .2605056 .05601379
.2778577 .2664202 .07129826
.511993 .2760692 .1113469
.7369834 .3104517 .1720443
.9403797 .3425249 .2316663
.1783785 .51741 .1733121
.3119585 .5171061 .1792098
.5252756 .5217306 .1875596
.7437389 .5351296 .214718
.9408769 .5609767 .2778219
.2782978 .7529153 .2753877
.3744963 .7534697 .2785585
.5592454 .7552074 .2847879
.7625424 .7626167 .2986099
.9503857 .7773823 .3565455
.4446848 .9640142 .4456196
.5060884 .964194 .449596
.6465477 .9650167 .4587895
.8165993 .9687886 .4778292
.9810408 .9784866 .5269318
.061319 .00982152 .257752
.2670126 .03651406 .2555674
.5032337 .1120915 .2700473
.7279223 .1737344 .3071976
.9364811 .2298978 .3419607
.09272767 .2677545 .2646701
.2806016 .272862 .2748348
.5023659 .287631 .2903092
.7299274 .316974 .3195027
.9372166 .3528739 .3546589
.2052851 .5134569 .3086076
.3218266 .5148343 .3114308
.520559 .5188702 .3215606
.7398872 .5357397 .3428264
.9389477 .5636006 .3881658
.2883264 .7509562 .3798559
.3797878 .7512616 .3820106
.5620103 .7532918 .3876307
.7622912 .7601359 .3987924
.9487413 .779162 .4471162
.4534355 .9647699 .5029446
.5130131 .9647656 .5060833
.6506931 .9656414 .5144537
.8181283 .9697451 .5311278
.9802302 .9793523 .5788359
.0972464 .07638588 .4988638
.2788668 .09756783 .5002816
.5080577 .1300864 .5050443
.7269868 .1869429 .5175068
.9329129 .2494532 .546511
.1599817 .2858439 .5030541
.2985672 .2921352 .5033067
.5106437 .3022656 .505515
.7272791 .3278832 .5246041
.9350187 .3690358 .553138
.2183242 .5135306 .5140951
.3357619 .5167693 .5169715
.5315892 .5312582 .527816
.7395672 .5438068 .5435553
.941106 .5727603 .5702393
.3027757 .7500401 .5574331
.3940667 .7505491 .55963
.5696424 .7536024 .564531
.7609346 .7595761 .5750808
.9497359 .7811843 .6058573
.4614425 .9672254 .6456765
.5210692 .9678841 .6480592
.6518908 .9693407 .6539754
.8188577 .9721521 .6602847
.9851922 .9806624 .689437
.1546432 .1464349 .7401005
.3045815 .1591413 .7392923
.5271949 .1828035 .7390571
.7419637 .2065256 .7401161
.9360886 .2513881 .7506303
.1913226 .3143218 .7406273
.3240028 .3186207 .7399721
.5298495 .3300896 .7385957
.7422534 .3400938 .7393574
.9367959 .3709478 .7519087
.2554817 .5401708 .7449327
.3577222 .5415802 .7450582
.5530636 .5455378 .7457856
.7461389 .5522476 .7468084
.9423265 .572199 .7650234
.3130031 .7538425 .753819
.401847 .753933 .7535495
.5786686 .7569538 .7562451
.7697907 .7684184 .7704445
.959913 .7853125 .7866576
.4459442 .9639092 .8005183
.5070841 .966015 .8024414
.6426393 .9729024 .8086149
.8207874 .9777254 .8177416
.9913812 .9862981 .8352462
.2339966 .2144619 .9620518
.3545544 .2239689 .9616823
.5611128 .248424 .9593001
.7720318 .2783053 .9569563
.9590355 .3050361 .9585084
.2658595 .3540124 .9623094
.3719345 .3578839 .9619964
.5702459 .3750026 .9588488
.7752413 .3935554 .9576736
.9594846 .4104247 .9585454
.3083633 .5758392 .9642326
.3989663 .5765656 .964492
.5850139 .5799028 .9639615
.7836197 .5849366 .9628126
.9647245 .5974199 .9619611
.3772238 .793024 .9667857
.4525905 .7927111 .9672101
.6122409 .7913721 .9694909
.7974662 .7916443 .9719921
.9760923 .7985551 .9719717
.4943491 .9785839 .9798439
.5443809 .9791601 .9806762
.6683512 .9810538 .9831514
.8312721 .9865504 .9882171
.995925 .997673 .9999999
