luts/Timeless_27.cube
# 3D LUT of size 33x33x33 converted by Filestar.
#   Input:
#     color space: sRGB
#     white point: default (D65)
#     transfer function: default (sRGB)
#   Output:
#     color space: sRGB
#     white point: default (D65)
#     transfer function: default (sRGB)
#   Exposure: +0.16
#   Contrast: -59
#   Whites: +22
#   Blacks: -12
LUT_3D_SIZE 33
0 0 .00704859
0 0 .00050329
.03204304 0 .00030482
.08004219 0 .00065626
.1209789 0 .00252022
.1592065 0 .00384017
.1919381 0 .00193775
.2250229 0 .0011232
.2605794 0 .00065511
.2955445 0 0
.330589 0 0
.3656311 0 0
.4010123 0 0
.4367032 0 0
.4723427 0 0
.5089652 0 0
.5438029 0 0
.5777107 0 0
.6113467 0 0
.6448091 0 0
.6776844 0 0
.7107419 0 0
.7434512 0 0
.776424 0 0
.8093116 0 0
.8412281 0 0
.8726809 0 0
.9034315 0 0
.9338294 0 0
.9637777 0 0
.9929485 0 0
.9999999 0 0
.9999999 0 0
0 .02323479 .00413505
0 .02269749 .00342293
.03246649 .01993397 .00158738
.08111013 .01598872 0
.1220303 .01228209 0
.1589473 .01386395 0
.1932201 .01701169 0
.2254764 .0272358 0
.2606868 .03005682 0
.2961703 .03106281 0
.3312911 .02930787 0
.3663624 .02589241 0
.4018982 .02504978 0
.4375215 .02355545 0
.4730728 .02037133 0
.5095136 .00980076 0
.5439343 .00608943 0
.5777821 .00313215 0
.611447 .00011309 0
.6448699 0 0
.6777657 0 0
.7108185 0 0
.7435359 0 0
.7764958 0 0
.8093774 0 0
.8412616 0 0
.8727287 0 0
.9034801 0 0
.9338817 0 0
.9638241 0 0
.9929667 0 0
.9999999 0 0
.9999999 0 0
0 .05911171 .00127823
0 .05806866 0
.03643188 .05643725 0
.08377301 .05414571 0
.1238329 .05045825 0
.1601803 .05215497 0
.19522 .05514198 0
.2275947 .06310287 0
.2616525 .06768852 0
.2966284 .06774073 0
.332226 .06505105 0
.3673773 .06304789 0
.402913 .06252684 0
.4384601 .06134316 0
.4738892 .05901361 0
.5098187 .05248807 0
.5440832 .0502434 0
.5778778 .04832185 0
.6115354 .04628385 0
.6449363 .04002807 0
.6778578 .03858075 0
.7109051 .03931583 0
.7436266 .03858874 0
.7765324 .0313325 0
.809421 .01724755 0
.8412991 .00995753 0
.8727829 .00760937 0
.9035434 .00539746 0
.9339377 .00437004 0
.963879 .00500478 0
.992987 .00632818 0
.9999999 .01000129 0
.9999999 .01386178 0
0 .09393262 0
.00709682 .09295414 0
.04953462 .09171524 0
.09091007 .0910143 0
.1275331 .09162288 0
.1629527 .09264981 0
.1978697 .0940349 0
.2305643 .09769905 0
.2623667 .1028248 0
.297762 .101848 0
.3335593 .09955389 0
.3689522 .09860937 0
.4043605 .09835605 0
.4395792 .09790625 0
.4743389 .09779719 0
.5093337 .09615403 0
.5442278 .09317692 0
.578001 .09301855 0
.6116623 .0915901 0
.6450296 .08817809 0
.677996 .08845701 0
.7110075 .08902811 0
.7436996 .0886068 0
.7765624 .08487263 0
.8094782 .07633818 0
.8413528 .07151204 0
.87287 .06966404 0
.9036338 .06815191 0
.9340158 .06867861 0
.9639606 .06927899 0
.9930164 .0698522 0
.9999999 .07335169 0
.9999999 .0758258 0
0 .1295511 0
.02000613 .12924 0
.05994543 .1289903 0
.09682371 .129181 0
.1316593 .129481 0
.1658249 .1297838 0
.1998575 .1304633 0
.2335207 .1313965 0
.265432 .1346501 0
.2994676 .1354169 0
.3351137 .1342579 0
.3701957 .1343188 0
.4051402 .1349059 0
.4400417 .1350942 0
.47472 .1351598 0
.509094 .1355859 0
.5443381 .13298 0
.5781489 .1330666 0
.6118078 .131825 0
.6451092 .1300992 0
.6781766 .1308363 0
.7111324 .1313724 0
.7437984 .1310739 0
.7766026 .1287775 0
.8091083 .1254109 0
.8414338 .1198094 0
.8730083 .118398 0
.9037684 .1178058 0
.9341285 .118896 0
.9640219 .1190129 0
.9930286 .1198925 0
.9999999 .1225129 0
.9999999 .1240953 0
0 .1665282 0
.02085282 .1663427 0
.06035498 .1662487 0
.09811144 .1659707 0
.1343233 .1654473 0
.1687386 .164968 0
.202417 .1653138 0
.2359411 .1657685 0
.2689102 .1668316 0
.3005068 .1702774 0
.3357564 .1705339 0
.3708006 .1706723 0
.4056378 .171538 0
.4404806 .1720077 0
.4750659 .1722715 0
.5092521 .1728088 0
.5444101 .1710503 0
.5783276 .1710227 0
.6119598 .1701087 0
.6452462 .1692665 0
.6784027 .170397 0
.7112992 .1709754 0
.7439362 .1707259 0
.7766534 .1692151 0
.8091372 .1667851 0
.8416062 .1629519 0
.8731844 .1610649 0
.9039503 .1611127 0
.9342937 .1621941 0
.9640765 .1623899 0
.9930218 .1638242 0
.9999999 .1657107 0
.9999999 .1664327 0
0 .2025363 0
.015104 .2023853 0
.05657542 .2022149 0
.0958659 .2019934 0
.1327668 .201696 0
.1685567 .2013173 0
.2027895 .2013736 0
.235692 .2022826 0
.269231 .2032238 0
.302947 .2050222 0
.3357816 .2078184 0
.3709429 .208118 0
.4058528 .2085845 0
.4408265 .208568 0
.4753301 .2086709 0
.5094338 .2091845 0
.5446264 .2081297 0
.5785088 .2080293 0
.6122199 .2075543 0
.6455935 .2072093 0
.6787179 .2082402 0
.7115131 .2089011 0
.7441061 .2088937 0
.7767323 .2079044 0
.8092229 .2060346 0
.8417425 .2028687 0
.8734026 .2010415 0
.9041827 .2016607 0
.9345095 .2024185 0
.9641322 .2030318 0
.993066 .2044793 0
.9999999 .2056127 0
.9999999 .2058849 0
0 .2392953 0
.00938662 .2392234 0
.05181581 .2391421 0
.09275415 .2390255 0
.1304499 .2388691 0
.1668645 .2386727 0
.2018339 .2388223 0
.234923 .2400313 0
.2688668 .2411526 0
.3039593 .2415451 0
.3375617 .2430707 0
.3708515 .2452793 0
.4058199 .2454617 0
.440875 .2451781 0
.4755348 .2448685 0
.5097582 .2453553 0
.5446357 .244859 0
.5788168 .244137 0
.6125886 .2441455 0
.6460091 .2442375 0
.6791463 .2450101 0
.7118617 .2456492 0
.7442257 .2464118 0
.7768365 .2455789 0
.809324 .2440756 0
.8414879 .2426077 0
.8736071 .2402589 0
.9044603 .2406096 0
.9347659 .2410558 0
.9641771 .2420508 0
.9931327 .243329 0
.9999999 .2441445 0
.9999999 .24475 0
0 .2757591 0
.00497137 .2757882 0
.04791331 .2758887 0
.09021506 .2760351 0
.1285952 .2762056 0
.1654167 .2763486 0
.2010081 .2765527 0
.2344795 .2773038 0
.2690127 .2780116 0
.3040412 .2783172 0
.3388413 .2785807 0
.3721481 .2802534 0
.4058816 .2814911 0
.4409387 .2812487 0
.4757793 .2811466 0
.5102097 .2810889 0
.5442028 .2812408 0
.5793388 .2799998 0
.6130418 .2798514 0
.6465262 .2805773 0
.6795485 .2812893 0
.7122604 .2819211 0
.7445425 .2826552 0
.776999 .2825273 0
.8094295 .2816868 0
.841614 .2803134 0
.8738109 .278657 0
.904749 .2785296 0
.9349234 .2791307 0
.9642325 .2798271 0
.993192 .281153 0
.9999999 .2822698 0
.9999999 .2827695 0
0 .3124649 0
.00238225 .3125423 0
.04557467 .3126298 0
.08878275 .3127549 0
.1274898 .3129226 0
.1643105 .3131333 0
.2001805 .3133312 0
.2344167 .3136584 0
.2694282 .3139274 0
.3040857 .3142374 0
.3388473 .3146209 0
.3735052 .3149709 0
.4066814 .3165936 0
.4412625 .3170889 0
.4760739 .3170003 0
.5106181 .3168235 0
.5448546 .3166556 0
.5798355 .3157895 0
.6136649 .3159733 0
.6470571 .3166978 0
.680033 .3173989 0
.7126599 .3180162 0
.7449164 .3186751 0
.7775024 .3187013 0
.809526 .3184285 0
.8417601 .3179234 0
.8740081 .316275 0
.9050416 .315876 0
.9349698 .3164749 0
.964265 .3175209 0
.9932337 .3186753 0
.9999999 .3197082 0
.9999999 .3201326 0
0 .3487002 0
0 .3487471 0
.04005332 .3488005 0
.08559649 .3488767 0
.1253003 .348979 0
.163068 .3490562 0
.1997749 .349119 0
.235121 .3492306 0
.2697928 .3494053 0
.3045582 .3497345 0
.3391406 .3502485 0
.3735424 .3508999 0
.408162 .3513753 0
.4415805 .3527658 0
.4765105 .352792 0
.5111968 .3526345 0
.5453831 .3522994 0
.5793486 .3525482 0
.6144494 .3519413 0
.64763 .35276 0
.6804971 .3535094 0
.7130678 .3540444 0
.7453268 .3545452 0
.7778315 .3544603 0
.8099334 .3544015 0
.841997 .354485 0
.8737352 .3540118 0
.9051898 .353075 0
.9349679 .3536702 0
.9643145 .3546329 0
.9932814 .355644 0
.9999999 .3566141 0
.9999999 .356957 0
0 .3850168 0
0 .3850799 0
.02520213 .385151 0
.07730926 .3852036 0
.1201998 .3852647 0
.1594616 .3853544 0
.1969599 .3854931 0
.2334051 .3856589 0
.2689789 .385877 0
.3042044 .3862066 0
.3390402 .3866313 0
.3733384 .3872442 0
.407778 .3877695 0
.4425158 .388249 0
.4770793 .388718 0
.5117015 .3884189 0
.5459317 .388297 0
.5800501 .3883688 0
.6149771 .3880146 0
.6481348 .3887291 0
.680974 .3893922 0
.713522 .3898562 0
.745814 .3904224 0
.7782132 .3903328 0
.8104536 .39025 0
.8424904 .3903779 0
.8739772 .3904477 0
.9050465 .3900414 0
.9349866 .3904541 0
.9643697 .3912632 0
.9933347 .3921603 0
.9999999 .3930389 0
.9999999 .3932929 0
0 .421692 0
0 .421727 0
.01342516 .4217667 0
.07002015 .4218236 0
.1154821 .4219062 0
.155988 .4220129 0
.1942248 .4221434 0
.2312626 .4223126 0
.2675826 .4225333 0
.3032 .4228013 0
.3383214 .4231666 0
.373297 .4236095 0
.4080884 .4240647 0
.4426438 .4245225 0
.4770636 .4247192 0
.5119225 .4241691 0
.5463513 .4243042 0
.5806994 .4244019 0
.6144687 .4247597 0
.6485618 .424661 0
.6814333 .425057 0
.7140261 .4255366 0
.7461917 .4260784 0
.7785124 .4263102 0
.8108429 .4263913 0
.8428869 .4264412 0
.874397 .42653 0
.9050227 .4266046 0
.935529 .4259985 0
.9647377 .4270016 0
.9935262 .4280925 0
.9999999 .4289334 0
.9999999 .4291673 0
0 .4579525 0
0 .4579873 0
.00250825 .4580266 0
.06220268 .4580829 0
.1105222 .4581586 0
.1523389 .4582547 0
.1915371 .458389 0
.2294816 .4585391 0
.2664632 .4587134 0
.3027037 .4589261 0
.3383641 .4592284 0
.3735044 .4595639 0
.4084652 .4598646 0
.4430239 .4601896 0
.477061 .4602761 0
.5119867 .4599929 0
.5470411 .4597469 0
.5815718 .4598111 0
.6149855 .4602413 0
.6490367 .4601436 0
.6819085 .4607071 0
.7144386 .4611862 0
.7466766 .4617554 0
.7788473 .4621487 0
.8111265 .4621034 0
.8432831 .4622067 0
.8746515 .4624399 0
.9053305 .4625937 0
.935433 .4627721 0
.9652882 .4624271 0
.9941067 .4631575 0
.9999999 .463944 0
.9999999 .4644569 0
0 .4936838 0
0 .4937176 0
0 .4937553 0
.05664983 .4938102 0
.1078541 .4938977 0
.151046 .4940056 0
.1909539 .4941366 0
.2290901 .4942932 0
.2661206 .4944761 0
.3023871 .4946862 0
.3380823 .4949228 0
.3736394 .4951187 0
.4087237 .4952896 0
.4433443 .4953361 0
.4776261 .4954891 0
.5122852 .49568 0
.547342 .4954846 0
.5819983 .4953362 0
.6155401 .4956074 0
.6486819 .4960644 0
.6824332 .4960831 0
.714878 .4964811 0
.7470019 .4968679 0
.7791857 .497304 0
.8116273 .4975065 0
.843616 .4976609 0
.874769 .4979469 0
.9054887 .4982439 0
.9356547 .4984797 0
.9656535 .4981219 0
.9946045 .4983863 0
.9999999 .4989714 0
.9999999 .4994974 0
0 .5291282 0
0 .5291666 0
0 .52921 0
.05483291 .5292721 0
.1067746 .5293555 0
.1502441 .5294615 0
.1903186 .5295863 0
.2285671 .5297334 0
.2656767 .5299054 0
.3020859 .5300739 0
.338139 .5301415 0
.3737544 .5302383 0
.4089111 .5303523 0
.4438057 .5304921 0
.4785618 .530723 0
.5129837 .5310183 0
.5477715 .5309163 0
.582172 .5308899 0
.6159914 .5307739 0
.6492397 .530935 0
.6827894 .5309139 0
.7154883 .531283 0
.7478878 .5316944 0
.7801298 .5321354 0
.8121415 .5326739 0
.8436915 .532958 0
.8748183 .5332565 0
.9055303 .5335616 0
.9357921 .5338695 0
.9655519 .5339878 0
.9950668 .5334294 0
.9999999 .5338095 0
.9999999 .5340565 0
0 .5642869 0
0 .5643203 0
0 .5643584 0
.05249123 .5644127 0
.1054565 .5644853 0
.1493281 .564578 0
.1898012 .5647058 0
.2284139 .5648146 0
.265958 .5649016 0
.3026487 .5650017 0
.3390129 .5650725 0
.3745756 .5651735 0
.4096268 .5652955 0
.4447962 .5653871 0
.4795762 .5655223 0
.5140238 .5657431 0
.548505 .5660923 0
.5826598 .5661404 0
.6162232 .5659333 0
.6499304 .5657457 0
.6830745 .5660322 0
.7164096 .5660136 0
.7488284 .5663757 0
.7810112 .5668825 0
.8124595 .5675225 0
.8437393 .5679796 0
.8748713 .5682439 0
.905581 .5685229 0
.9358072 .5687081 0
.9656118 .5687618 0
.9949468 .5687773 0
.9999999 .5684009 0
.9999999 .5686356 0
0 .5992985 0
0 .5993316 0
0 .5993689 0
.05155261 .5994208 0
.1053886 .5994627 0
.1496948 .5995095 0
.190283 .5995548 0
.2289139 .5996091 0
.2663381 .5996724 0
.3031062 .5997258 0
.3394121 .5997836 0
.3752451 .5998492 0
.4104517 .5999284 0
.4456869 .6000432 0
.480902 .6003733 0
.5153889 .6006871 0
.5492799 .6010603 0
.5833231 .6010178 0
.6169558 .6008243 0
.6506541 .6006269 0
.6838231 .6005884 0
.7169894 .6006718 0
.7497245 .6008606 0
.7815562 .601411 0
.8129079 .6020152 0
.843843 .6026536 0
.8748771 .6028314 0
.9055362 .602991 0
.9357578 .6031733 0
.9655684 .6032542 0
.9949376 .6033064 0
.9999999 .6034295 0
.9999999 .6031195 0
0 .6337746 0
0 .6337814 0
0 .6337892 0
.05212317 .6338004 0
.1058202 .6338153 0
.1501077 .6338343 0
.1906697 .6338652 0
.2292838 .6339262 0
.2667672 .6339972 0
.3036908 .6340549 0
.3402615 .634199 0
.3764732 .6344832 0
.4120178 .6346378 0
.4470599 .6348429 0
.4819196 .6350421 0
.5163157 .6352817 0
.5499161 .6356496 0
.5838348 .6355941 0
.6175966 .6354992 0
.6511403 .6353664 0
.6843615 .6352373 0
.717151 .6353076 0
.7502753 .6351962 0
.7820547 .6357188 0
.8133223 .6361727 0
.84423 .6366394 0
.8748014 .6370913 0
.9054621 .6372071 0
.9356927 .6373304 0
.9654884 .6374327 0
.9946029 .6375835 0
.9999999 .6376866 0
.9999999 .6375337 0
0 .6680695 0
0 .6680977 0
0 .6681294 0
.04957612 .668175 0
.1044356 .6682361 0
.1491631 .6683137 0
.1905378 .6685203 0
.2291631 .6686367 0
.2670407 .6687306 0
.304241 .6688302 0
.3408129 .6689205 0
.3769321 .6690072 0
.4126165 .6691238 0
.447848 .6692555 0
.4826249 .6694359 0
.5166962 .6696979 0
.5504807 .6699758 0
.5847222 .6698617 0
.6184223 .6697731 0
.6517786 .6696791 0
.6848443 .6696292 0
.7173413 .6696819 0
.7496505 .6697473 0
.7824761 .6694416 0
.8137494 .6698437 0
.8446301 .6702856 0
.87512 .6707652 0
.9052815 .6711804 0
.9355406 .6711923 0
.9655066 .6712351 0
.9946316 .6710905 0
.9999999 .6709288 0
.9999999 .6708024 0
0 .7025725 0
0 .7025966 0
0 .702624 0
.04701399 .7026632 0
.1029302 .7027115 0
.1481861 .7027686 0
.1894245 .7028405 0
.2289662 .7028978 0
.2671374 .7029631 0
.3043751 .7030275 0
.3411343 .703087 0
.377331 .7031562 0
.4130547 .7032331 0
.4483675 .7033174 0
.483063 .7034705 0
.5170473 .703742 0
.5512774 .7040156 0
.5854354 .703858 0
.6192421 .7036901 0
.6522981 .7036778 0
.6848815 .7037796 0
.7173752 .7037681 0
.7497736 .7036864 0
.7817748 .7035379 0
.8140209 .7031754 0
.8449964 .7034503 0
.8754955 .7038146 0
.9056685 .7043242 0
.935872 .7043837 0
.9655156 .7042547 0
.9946436 .7040969 0
.9999999 .7040942 0
.9999999 .7040817 0
0 .736347 0
0 .7363704 0
0 .7363957 0
.04456829 .736432 0
.1021075 .7364804 0
.1479419 .736539 0
.1897584 .7365898 0
.2292983 .7366494 0
.2677422 .7366877 0
.3048176 .7367897 0
.3415269 .7368478 0
.3776783 .736913 0
.4133655 .7369853 0
.4485759 .7370744 0
.4829829 .7372541 0
.5171414 .7377561 0
.5519005 .737564 0
.5860634 .737358 0
.6193576 .7372953 0
.6524158 .7372038 0
.6851718 .7370468 0
.7177469 .7369769 0
.749936 .7369356 0
.7817466 .736883 0
.8138504 .7364393 0
.8453237 .7363965 0
.8759599 .7366244 0
.9060487 .7370461 0
.9359934 .737065 0
.9654041 .7370275 0
.9943998 .7370442 0
.9999999 .7370684 0
.9999999 .7370924 0
0 .7696468 0
0 .769663 0
0 .7696814 0
.04083508 .7697078 0
.1007864 .7697298 0
.1477774 .7697531 0
.1900557 .7697814 0
.2298437 .7698147 0
.268173 .7698532 0
.305628 .7698734 0
.3423817 .7698942 0
.3785806 .7699174 0
.4141073 .7699856 0
.4488387 .7701216 0
.4830731 .7705933 0
.5177174 .7705947 0
.5518479 .7704819 0
.5855651 .7704231 0
.6191072 .770279 0
.6523054 .770128 0
.6852803 .7700047 0
.7179767 .769889 0
.7501647 .7697953 0
.7820541 .7698394 0
.8134122 .7698207 0
.8451294 .7693635 0
.8761343 .7692754 0
.9063327 .7694513 0
.9357933 .7696175 0
.9651492 .7696368 0
.9941546 .7696525 0
.9999999 .7696953 0
.9999999 .7697228 0
0 .8021278 0
0 .8021404 0
0 .8021511 0
.04563355 .8021635 0
.103603 .8021801 0
.1497416 .8022014 0
.1915683 .8022273 0
.2311726 .8022583 0
.2693292 .8022944 0
.3065294 .8023351 0
.343137 .8023592 0
.3792413 .8023766 0
.4143578 .8025522 0
.4489411 .8029033 0
.4830288 .8031204 0
.5171477 .8031412 0
.5512295 .8030055 0
.5851229 .8028753 0
.618709 .8027372 0
.6520624 .8026062 0
.6852345 .8024938 0
.7180393 .8024926 0
.7501841 .8024259 0
.782004 .8023728 0
.8136238 .8024113 0
.8447991 .8024322 0
.8759483 .8019267 0
.9060596 .8016596 0
.9356857 .8016776 0
.9648803 .8018309 0
.9938239 .801841 0
.9999999 .8018067 0
.9999999 .8017841 0
0 .8339877 0
0 .8339984 0
0 .8340108 0
.05332065 .8340285 0
.1072418 .8340493 0
.1522938 .8340666 0
.1935278 .834088 0
.2327535 .8341135 0
.2707415 .8341432 0
.3078071 .8341762 0
.3441307 .8342071 0
.3792917 .8343417 0
.4140728 .8345625 0
.4484474 .8347964 0
.4825724 .8349972 0
.5168828 .8349506 0
.5510204 .8349082 0
.5847309 .8349178 0
.6183565 .8349634 0
.6518576 .834883 0
.6850126 .8348292 0
.7177311 .834809 0
.7501366 .8348045 0
.7821886 .8347676 0
.8136622 .8346897 0
.8447496 .834613 0
.875571 .8342345 0
.9055551 .8338833 0
.9353608 .833544 0
.964784 .8333794 0
.9932571 .8335324 0
.9999999 .833502 0
.9999999 .8334848 0
0 .8653988 0
0 .8654107 0
0 .8654242 0
.06024 .8654435 0
.1111285 .8654695 0
.1543882 .8655001 0
.1948311 .8655125 0
.2336183 .8655238 0
.2712738 .865537 0
.3079274 .865565 0
.3434255 .8656777 0
.3784068 .8658828 0
.4131477 .8660791 0
.4476732 .8662711 0
.4827384 .8663955 0
.5170765 .8664009 0
.5511516 .8664387 0
.5849123 .8665029 0
.6185843 .8666144 0
.6518965 .8667529 0
.6849028 .8668267 0
.717701 .8667786 0
.7500018 .8667028 0
.7819926 .8665965 0
.8135209 .8664408 0
.8443288 .8662387 0
.8747423 .8660082 0
.9051782 .8654503 0
.934874 .8649628 0
.9642684 .8644726 0
.9931981 .8642345 0
.9999999 .8642756 0
.9999999 .8642247 0
0 .8963261 0
0 .8963332 0
0 .896341 0
.0616185 .8963525 0
.11159 .8963692 0
.1544451 .8963895 0
.1943384 .896407 0
.2334539 .896513 0
.2705046 .8965535 0
.3067673 .8967096 0
.3425165 .8968897 0
.3776581 .8970986 0
.41246 .897323 0
.447771 .897372 0
.4828446 .897412 0
.517417 .8974221 0
.5517336 .8973752 0
.5859614 .8973413 0
.619943 .8973231 0
.6534615 .8972992 0
.6862993 .8972747 0
.7188272 .8972554 0
.7509616 .8972333 0
.7825192 .8972171 0
.8133412 .8971065 0
.8439484 .8969053 0
.8742422 .896694 0
.904474 .8964157 0
.9345813 .8958208 0
.9637677 .8953497 0
.9930348 .8944477 0
.9999999 .8942618 0
.9999999 .894211 0
0 .9262932 0
0 .9262983 0
.03496564 .9263043 0
.08507883 .9263128 0
.1271892 .9263242 0
.1661935 .9263433 0
.2034462 .9263781 0
.2398403 .9264319 0
.2755232 .9265733 0
