luts/Timeless 24.cube
# 3D LUT of size 33x33x33 converted by Filestar.
#   Input:
#     color space: sRGB
#     white point: default (D65)
#     transfer function: default (sRGB)
#   Output:
#     color space: sRGB
#     white point: default (D65)
#     transfer function: default (sRGB)
#   Exposure: +0.5
#   Contrast: +21
#   Whites: +7
#   Blacks: -19
#   Vibrance: +5
LUT_3D_SIZE 33
0 .0019221 .00886285
0 .00612359 .00216336
.00892726 .00559423 0
.08757629 0 .00334864
.1359214 0 .00345344
.1786062 0 .00458475
.2201603 0 0
.261642 0 0
.3023004 0 0
.3411587 0 0
.38014 0 0
.4181473 0 0
.4550659 0 0
.4913833 0 0
.5273426 0 0
.5624179 0 0
.5970772 0 0
.6306816 0 0
.663368 0 0
.6951308 0 0
.7262601 0 0
.7560351 0 0
.7848483 0 0
.8128518 0 0
.8397444 0 0
.8656801 0 0
.8907629 0 0
.9147342 0 0
.9377182 0 0
.9599076 0 0
.9812943 0 0
.9999999 0 0
.9999999 0 0
0 .02288966 .00992022
0 .03185363 .00233509
.00283146 .03318607 .00059687
.0834111 .02299735 .00561621
.1328349 .01629969 .00382445
.1777079 .01114789 .00318321
.2210891 .01257525 0
.2627623 .01424976 0
.3026418 .01980372 0
.3419548 .02424162 0
.3805568 .02568387 0
.418455 .02522042 0
.4553195 .02508433 0
.4918177 .0219784 0
.5277328 .01912485 0
.5627944 .01628798 0
.5974101 .0075804 0
.6310064 0 0
.6634242 0 0
.6952518 0 0
.7263751 0 0
.7561494 0 0
.784918 0 0
.8128967 0 0
.8397942 0 0
.8657235 0 0
.8907884 0 0
.9147612 0 0
.9377624 0 0
.9599593 0 0
.981355 0 0
.9999999 0 0
.9999999 0 0
0 .06220316 0
0 .06485529 0
0 .06598722 0
.083019 .05822079 .00230188
.1347195 .05459443 .00135645
.1800357 .05448863 0
.2229111 .05584994 0
.263558 .06040429 0
.3031493 .06515723 0
.3427376 .06595128 0
.3810202 .06696837 0
.4188018 .06664751 0
.4556305 .06650481 0
.4922991 .06341848 0
.5281721 .06132165 0
.5632162 .05946751 0
.5977853 .05284497 0
.6312472 .04554573 0
.6634971 .03703057 0
.6953882 .03350881 0
.7264475 .03046403 0
.756183 .02742598 0
.7849969 .02527668 0
.8129473 .0237478 0
.8398502 .02235745 0
.8657761 .02115406 0
.8908175 .01748706 0
.9148133 .0097743 0
.9377962 .00026569 0
.9600158 0 0
.9814234 0 0
.9999999 0 0
.9999999 0 0
0 .10378 0
0 .10355 0
.0020247 .1039573 0
.08508535 .09985469 0
.1372046 .09716234 0
.1828216 .09777721 0
.2243993 .1001995 0
.2647652 .1026632 0
.3043815 .1047185 0
.3434842 .1043823 0
.3816938 .105008 0
.4192854 .1050338 0
.4563647 .1039109 0
.4929847 .1019408 0
.5287993 .1005363 0
.5638049 .09947244 0
.5981237 .09631268 0
.6313474 .09294455 0
.6636806 .08885714 0
.6955224 .08783353 0
.726507 .08602429 0
.7562439 .08449108 0
.7850986 .08320115 0
.8130196 .08238962 0
.8399303 .08150861 0
.8658534 .08078369 0
.890907 .07875264 0
.9148644 .07326657 0
.9378443 .06697956 0
.9600969 .06458835 0
.9815213 .06464141 0
.9999999 .06509198 0
.9999999 .06494128 0
0 .1416989 0
0 .1411931 0
.00966436 .1416481 0
.08602943 .139446 0
.1397034 .1383401 0
.1849104 .138792 0
.226469 .1399103 0
.2662029 .1408165 0
.3052768 .1416681 0
.3443919 .1413392 0
.3825957 .1415927 0
.4200366 .1416222 0
.4573436 .1400057 0
.4938982 .1386633 0
.5295076 .1380233 0
.564127 .138465 0
.5982476 .1365916 0
.6314646 .1345684 0
.6638291 .1328029 0
.6956842 .1322453 0
.7266147 .1311545 0
.7563313 .1300829 0
.7852115 .1291829 0
.8131164 .1287204 0
.8400576 .1279973 0
.8660235 .127331 0
.8910302 .1263193 0
.9149148 .1224835 0
.9379086 .1185494 0
.960205 .1181621 0
.9816287 .1181338 0
.9999999 .1182974 0
.9999999 .1180368 0
0 .1777751 0
0 .1779132 0
.02974979 .1783024 0
.0918766 .1777866 0
.1449369 .1766453 0
.1873294 .1765446 0
.2284 .1766579 0
.2672419 .1772728 0
.3066357 .1775267 0
.3455523 .177538 0
.383755 .1773666 0
.4215556 .1764952 0
.4583833 .1757668 0
.4944711 .1757516 0
.5297631 .1759136 0
.5643097 .1763329 0
.5983599 .1756972 0
.6315401 .1744711 0
.6639997 .1734533 0
.6958081 .1726773 0
.7267054 .1722757 0
.756442 .1715397 0
.7853625 .1708049 0
.8133089 .1703165 0
.840281 .1696818 0
.8662251 .169254 0
.8911902 .1680081 0
.9150008 .1656776 0
.9380367 .1634928 0
.9603422 .163417 0
.98173 .1635397 0
.9999999 .1630524 0
.9999999 .1627893 0
0 .2137751 0
0 .2140939 0
.03911278 .2141255 0
.09639537 .2138692 0
.1493659 .2122919 0
.1912776 .2117613 0
.2312179 .2116715 0
.2700734 .2118884 0
.3082578 .2127847 0
.3469784 .2129735 0
.385204 .2126814 0
.422353 .2125844 0
.4587918 .2125136 0
.4947455 .2130797 0
.5299671 .2135736 0
.564437 .2139756 0
.5983872 .2138553 0
.6316316 .2127904 0
.6641499 .2121468 0
.6960241 .2115442 0
.7268841 .2112351 0
.7566041 .2107571 0
.7856249 .2101873 0
.8135585 .2097949 0
.8405373 .2092083 0
.8664753 .2088154 0
.89141 .2074246 0
.915167 .2058727 0
.9382648 .2049511 0
.96047 .2052677 0
.9818546 .2053291 0
.9999999 .2045802 0
.9999999 .2043824 0
0 .2485637 0
0 .2482434 0
.05253141 .2480718 0
.1096725 .2474085 0
.1544089 .2469992 0
.1940352 .2469375 0
.23278 .2470514 0
.2712677 .2475747 0
.309185 .2486888 0
.3477594 .2489491 0
.3854909 .249391 0
.4228213 .2493799 0
.4591938 .2495505 0
.4950836 .2500436 0
.5301199 .2504083 0
.5646226 .2508506 0
.5985488 .2507974 0
.631714 .2503279 0
.6643415 .2496718 0
.696399 .2492729 0
.7272106 .2489156 0
.7568933 .2484954 0
.7859025 .2481419 0
.8138623 .2478857 0
.8408293 .2474665 0
.8667408 .2467079 0
.8915925 .2456783 0
.9154042 .2448382 0
.9385553 .2444367 0
.96074 .2447884 0
.9820344 .2444919 0
.9999999 .2441119 0
.9999999 .2439988 0
0 .2836612 0
0 .2835047 0
.05750433 .2833371 0
.1102027 .2830237 0
.1558779 .2826256 0
.1953174 .2827971 0
.2333846 .2831307 0
.2715064 .2840936 0
.3099635 .2847733 0
.3482526 .2849645 0
.3856367 .2854962 0
.4227765 .2858361 0
.4594953 .2859404 0
.4954373 .2862156 0
.5304425 .2864873 0
.5648448 .2870134 0
.5986682 .2869097 0
.6319926 .286729 0
.6648116 .2863762 0
.6968306 .2861916 0
.727487 .2858697 0
.7572286 .2855232 0
.7862288 .2852064 0
.8142357 .284954 0
.8411571 .2846765 0
.8669752 .283909 0
.8918076 .2829503 0
.9157329 .2831951 0
.9388958 .282689 0
.9610572 .2826033 0
.9823034 .2825896 0
.9999999 .2822156 0
.9999999 .2821344 0
0 .3186877 0
.00330162 .3187241 0
.06247444 .3186031 0
.1129853 .3184317 0
.1592206 .3181148 0
.1967692 .3185366 0
.2347007 .3188557 0
.2727779 .3196093 0
.3116146 .3198393 0
.350049 .3198552 0
.387184 .3202207 0
.4228954 .3214632 0
.4596782 .3218153 0
.4956714 .3220568 0
.530847 .3222988 0
.5650975 .3224437 0
.5989649 .3227649 0
.6323094 .322985 0
.6653334 .3227646 0
.6971141 .32252 0
.7277442 .3222392 0
.7575324 .321968 0
.7865315 .3217266 0
.8145631 .3214532 0
.8415301 .3207958 0
.8672639 .3201888 0
.8920797 .3202384 0
.9160905 .320504 0
.9392305 .319811 0
.9613695 .3197107 0
.9825986 .3195502 0
.9999999 .3192129 0
.9999999 .3191428 0
0 .3547123 0
.00472765 .3547188 0
.06285033 .3546758 0
.1125498 .3546145 0
.1568764 .3545828 0
.195357 .3549908 0
.2353569 .3549982 0
.2741398 .3551022 0
.3130791 .3550389 0
.3516209 .3547783 0
.3894176 .354532 0
.425735 .3550392 0
.4601827 .3574311 0
.495917 .3577885 0
.5310269 .3579176 0
.5657542 .3582417 0
.5995988 .3584711 0
.6330079 .3585865 0
.6658457 .3585157 0
.6974262 .3582747 0
.7280394 .3580272 0
.7578744 .357803 0
.7868806 .3575441 0
.8148831 .357113 0
.8417743 .3563487 0
.8675649 .3562217 0
.8923543 .3569435 0
.9163867 .3571178 0
.9395066 .3563887 0
.9615961 .3562059 0
.9828294 .3559999 0
.9999999 .3556398 0
.9999999 .3555676 0
0 .3900284 0
.00997359 .3899586 0
.06740537 .3898928 0
.116008 .3898054 0
.1592106 .3898079 0
.1970078 .3903368 0
.2356643 .3905608 0
.2750432 .390509 0
.3138409 .3904731 0
.3521285 .3903205 0
.3897356 .3903305 0
.4269585 .3906701 0
.46244 .3914551 0
.4965365 .3927249 0
.5315635 .3931148 0
.5661117 .3933621 0
.6002257 .3937334 0
.6337982 .3937743 0
.6662173 .3936718 0
.6977713 .3933638 0
.7283716 .3931511 0
.7582762 .39292 0
.7872562 .3926687 0
.815035 .3921699 0
.8418714 .392234 0
.8677977 .3927197 0
.8926278 .3930126 0
.9167185 .3923674 0
.9397801 .3918389 0
.961826 .3918647 0
.9830057 .3918761 0
.9999999 .3916127 0
.9999999 .3915485 0
0 .4254227 0
0 .4254394 0
.05644231 .425458 0
.1081934 .4254704 0
.1540051 .4254314 0
.1970081 .4253726 0
.2355371 .4257098 0
.2742373 .4257219 0
.3140684 .4255996 0
.3524398 .4256334 0
.3901808 .4257513 0
.4273342 .4260441 0
.4634116 .4261653 0
.4979615 .4268254 0
.532414 .427544 0
.5667386 .4279415 0
.6007019 .4282807 0
.6342304 .4283708 0
.6666657 .4282891 0
.6981171 .4280789 0
.7286496 .4278752 0
.7585778 .4277018 0
.7873225 .427274 0
.8151609 .4275803 0
.8420573 .4280488 0
.8679163 .428192 0
.8929216 .4280395 0
.9170389 .4271515 0
.9400527 .4266381 0
.9620892 .4266723 0
.9832572 .4266619 0
.9999999 .4265468 0
.9999999 .4265226 0
0 .4602743 0
0 .4602523 0
.03955964 .4602276 0
.0995812 .4602028 0
.1481224 .4602374 0
.192598 .4602809 0
.2328511 .4606115 0
.2724681 .460871 0
.3124886 .4607857 0
.3522831 .4605641 0
.390468 .4605592 0
.4275456 .4606169 0
.4637027 .4606113 0
.4992173 .4608654 0
.5334349 .4613934 0
.56768 .4617484 0
.6014432 .4623621 0
.6343286 .4625895 0
.6666689 .4626895 0
.6981857 .4626618 0
.7288879 .4624685 0
.7586032 .4620885 0
.7874814 .4623201 0
.8153689 .4625286 0
.84218 .4625681 0
.8680458 .4624674 0
.893077 .4622586 0
.9173659 .4611269 0
.9403594 .4609588 0
.962314 .4608452 0
.9834897 .460825 0
.9999999 .4607978 0
.9999999 .4607758 0
0 .4945676 0
0 .4945843 0
.02241538 .4946033 0
.09082108 .4946277 0
.1424683 .4946505 0
.1885379 .4946794 0
.2318856 .4947147 0
.2717413 .4950216 0
.3109478 .4952022 0
.3504768 .4951608 0
.3902427 .4948864 0
.427179 .4947703 0
.4635975 .494961 0
.4992294 .4951525 0
.5341002 .4954157 0
.568584 .4954809 0
.6019415 .4958816 0
.6346408 .4962873 0
.6667052 .4963413 0
.6979133 .496436 0
.7287858 .4964552 0
.7588225 .4966442 0
.7876184 .496671 0
.8154098 .4965162 0
.8422693 .4962357 0
.8681993 .4959272 0
.8932627 .4956948 0
.9175277 .4947195 0
.9406697 .4944789 0
.962594 .4943427 0
.9837155 .4943027 0
.9999999 .4942217 0
.9999999 .4942046 0
0 .5283668 0
0 .5283805 0
.00776566 .5283957 0
.08265684 .5284173 0
.1372041 .5284462 0
.1846207 .5284645 0
.2286172 .5284795 0
.27074 .5284991 0
.3098351 .5288506 0
.3491333 .5289373 0
.3884531 .5287679 0
.4274777 .5284476 0
.4637824 .528493 0
.4994142 .5286035 0
.5344965 .5287372 0
.5691028 .5285922 0
.6027252 .5283446 0
.6350315 .5287749 0
.6668344 .5291902 0
.6980041 .5297396 0
.7286745 .5298636 0
.7587382 .5295942 0
.7878023 .5293184 0
.8157286 .5290788 0
.8425055 .5288078 0
.868451 .5285078 0
.8935323 .5281905 0
.9176537 .5278951 0
.9406918 .5277331 0
.9627632 .5273581 0
.9838772 .5271482 0
.9999999 .5270946 0
.9999999 .5270719 0
0 .5606682 0
0 .5606785 0
.00401308 .5606903 0
.0797463 .5606765 0
.1353358 .5607193 0
.1832128 .5607742 0
.2279098 .5608345 0
.2706716 .5609039 0
.3105745 .5611854 0
.3496995 .5613464 0
.3879664 .5613157 0
.4263986 .5611145 0
.4642462 .560896 0
.4998852 .5610212 0
.5347666 .5611424 0
.5690992 .5610749 0
.6031292 .5606746 0
.6356335 .5608954 0
.6673072 .5614921 0
.6982218 .5620311 0
.728741 .5623111 0
.7585167 .5621289 0
.7875264 .5618622 0
.8155126 .5616104 0
.8425198 .5613722 0
.8685753 .5611345 0
.8935584 .5609353 0
.9175522 .5606576 0
.940671 .5604219 0
.9627247 .5602329 0
.9840817 .5596685 0
.9999999 .5593581 0
.9999999 .5593759 0
0 .5923134 0
0 .5923299 0
.00048768 .5923485 0
.07828248 .592375 0
.13471 .5924135 0
.1831319 .592465 0
.2280082 .5925297 0
.2707394 .5926062 0
.311833 .5926855 0
.3503785 .5929768 0
.3879363 .5931016 0
.4254785 .5930549 0
.4630868 .5929516 0
.4999142 .5928661 0
.5345728 .5929682 0
.5690812 .5931198 0
.6032298 .5928884 0
.6361386 .5927466 0
.667664 .5929292 0
.6986466 .5933138 0
.7289602 .5937592 0
.7584741 .5940348 0
.7875137 .5934705 0
.8152725 .5933686 0
.8423122 .5931473 0
.8684043 .5928503 0
.8935163 .5926129 0
.9175321 .5924065 0
.9406006 .5921816 0
.962724 .5919954 0
.9840655 .5919384 0
.9999999 .5915335 0
.9999999 .5915452 0
0 .6233786 0
0 .6233953 0
0 .6234148 0
.07698765 .623444 0
.1342313 .6234833 0
.1829028 .623525 0
.2278391 .6235723 0
.2705268 .6236305 0
.3115104 .6237045 0
.3513842 .6238078 0
.3882437 .6241809 0
.425474 .6241541 0
.462537 .624167 0
.4993266 .6241928 0
.5352687 .6240728 0
.5696616 .624073 0
.6032577 .6240624 0
.636336 .6238296 0
.6681556 .6238204 0
.6990862 .6238833 0
.7293792 .6242505 0
.7586428 .6246466 0
.7871976 .6248462 0
.8152802 .6241598 0
.8419657 .6240044 0
.8680859 .6236924 0
.8932411 .623418 0
.917429 .6232372 0
.9406846 .6230799 0
.9629473 .6230496 0
.984073 .6230405 0
.9999999 .6230429 0
.9999999 .6230463 0
0 .6536494 0
0 .6536629 0
0 .6536781 0
.07668068 .6536997 0
.1340265 .6537286 0
.1827492 .6537651 0
.22765 .6538085 0
.270157 .6538612 0
.3116113 .653955 0
.3518515 .654083 0
.3896516 .6544421 0
.4264605 .6544901 0
.4630799 .6543821 0
.499016 .6543388 0
.5353522 .6541789 0
.5703272 .6540421 0
.603927 .6539941 0
.6367752 .6538702 0
.6687481 .6537888 0
.6998753 .6538135 0
.7297629 .6538168 0
.7589522 .6542116 0
.787288 .6545427 0
.8149636 .6545908 0
.8421519 .654004 0
.8679342 .6537505 0
.8931138 .6534383 0
.9173687 .6533074 0
.9406328 .6532546 0
.962999 .6531914 0
.9843927 .6532124 0
.9999999 .6534347 0
.9999999 .6534858 0
0 .6830125 0
0 .6830341 0
.00100148 .6830587 0
.07965263 .6830983 0
.1362073 .6831532 0
.1846378 .6832232 0
.2291949 .6833138 0
.2717754 .683356 0
.3129289 .6834024 0
.3528036 .6834381 0
.3914213 .6834776 0
.4271463 .683798 0
.4635749 .683716 0
.4996555 .6835986 0
.5347958 .6836048 0
.5707936 .6832529 0
.6045919 .6831763 0
.6372635 .6831429 0
.6692879 .6830667 0
.7003236 .6831391 0
.7302972 .6829846 0
.7594478 .6828526 0
.7875044 .6833763 0
.8150341 .6836316 0
.8419693 .683445 0
.8681499 .6830896 0
.8933374 .6828119 0
.9173244 .6828966 0
.9405712 .6828767 0
.9629357 .6826516 0
.9844319 .6825435 0
.9999999 .6827098 0
.9999999 .6827534 0
0 .7118292 0
0 .7118357 0
.00660627 .7118431 0
.08173326 .7119179 0
.1375721 .7119231 0
.1856718 .7119271 0
.2302226 .7119442 0
.2724062 .7119906 0
.3128617 .7120139 0
.3524838 .7120345 0
.3912175 .7120598 0
.4277159 .7123293 0
.4639725 .7123266 0
.4999619 .7122226 0
.5350254 .7121819 0
.5697131 .7122757 0
.6047623 .7118678 0
.6374663 .71174 0
.6694538 .7116339 0
.7004699 .7115823 0
.7307473 .7113502 0
.7599799 .7111893 0
.788247 .7111444 0
.8153353 .7118186 0
.8420829 .7121019 0
.8681126 .7121117 0
.8933078 .7120435 0
.9177387 .7115602 0
.9403988 .7116574 0
.9627708 .7114407 0
.9841442 .7112961 0
.9999999 .7113169 0
.9999999 .7113625 0
0 .7398476 0
0 .7398527 0
.0028843 .7398552 0
.0807858 .739858 0
.1368469 .739862 0
.1845182 .7398664 0
.2288886 .739859 0
.2714418 .7398102 0
.3118246 .7400154 0
.3517779 .7399948 0
.390754 .7400045 0
.4287548 .7400298 0
.4642411 .7403077 0
.5000367 .7401547 0
.5352026 .740008 0
.5694036 .7400271 0
.6035124 .7398697 0
.637473 .7395083 0
.6695908 .7393983 0
.7007815 .7392507 0
.7311186 .7390398 0
.7604797 .7388633 0
.7888454 .7389408 0
.8162528 .7390975 0
.8424108 .7399621 0
.8683919 .7400144 0
.8935249 .7399596 0
.917423 .7399454 0
.940366 .7395505 0
.9626542 .7393345 0
.9839266 .739343 0
.9999999 .7391717 0
.9999999 .7391328 0
0 .7670741 0
0 .7670719 0
0 .7670695 0
.0732749 .7670664 0
.1317179 .767062 0
.1808779 .7670475 0
.2263496 .767015 0
.269525 .7670035 0
.3109061 .7669581 0
.3512726 .7669091 0
.39019 .7669216 0
.4281091 .7669389 0
.4639566 .7671525 0
.500016 .7670591 0
.5352907 .7669237 0
.5696031 .7668976 0
.6031482 .7668879 0
.6367682 .7666913 0
.6696685 .7664922 0
.7009634 .7662646 0
.7314432 .7661039 0
.7609953 .7660483 0
.7895487 .7661152 0
.8169801 .7661965 0
.8434733 .7663336 0
.868716 .7669949 0
.8935981 .7669454 0
.9170973 .7670568 0
.9400837 .7671163 0
.9624551 .7668109 0
.9838747 .7663856 0
.9999999 .7660449 0
.9999999 .7659715 0
0 .7933083 0
0 .7932957 0
0 .7932812 0
.06440139 .7932584 0
.1267855 .7932472 0
.1774411 .7932342 0
.2235588 .7931989 0
.2671995 .7931576 0
.3091375 .7931148 0
.3496596 .793074 0
.3890959 .7930282 0
.4274776 .7929946 0
.4647315 .7930079 0
.4997966 .7932073 0
.535271 .7930771 0
.5698137 .7929974 0
.6032386 .793017 0
.6363259 .7930049 0
.6694092 .7928526 0
.7013095 .792655 0
.7318003 .7926427 0
.761395 .7925752 0
.7900353 .7925066 0
.8176671 .7924982 0
.8441337 .7925584 0
.869543 .7926477 0
.8934502 .7931713 0
.9169121 .7934328 0
.9399301 .7933886 0
.9622198 .7931125 0
.9836654 .7927309 0
.9999999 .792245 0
.9999999 .7921646 0
0 .8187402 0
0 .8187256 0
0 .8187093 0
.0537646 .8186859 0
.121432 .8186548 0
.1740871 .8186132 0
.2213691 .8185598 0
.2655943 .8184919 0
.3077082 .8184579 0
.3484461 .8184192 0
.3880495 .8183761 0
.4266472 .8183286 0
.4640551 .8183305 0
.5007609 .8183499 0
.5353345 .8184327 0
.5697344 .8183482 0
.6035774 .8184364 0
.636673 .8185212 0
.6687877 .818656 0
.7013266 .8184053 0
.7321064 .8182959 0
.7617264 .8182738 0
.7903765 .8182312 0
.8180419 .8180991 0
.8446411 .81805 0
.8698266 .8181577 0
.8939083 .8183025 0
.9171191 .8184733 0
.9397828 .8185899 0
.9620282 .81833 0
.9834507 .8180731 0
.9999999 .8178193 0
.9999999 .8177226 0
0 .8433704 0
0 .843356 0
0 .8433386 0
.04457576 .8433139 0
.117173 .8432832 0
.1710951 .8432491 0
.2189008 .8432076 0
.2635286 .8431582 0
.3061913 .8430815 0
.3473544 .8429946 0
.3871717 .8429318 0
.4258663 .8428861 0
.4636042 .8428558 0
.5003077 .8428285 0
.5350257 .8430213 0
.5698559 .8430694 0
.6040424 .8431245 0
.6368923 .8432101 0
.6688214 .8433464 0
.7003545 .8434136 0
.7322772 .8430775 0
.7618684 .8429258 0
.7903937 .8428425 0
.818088 .8427793 0
.8446492 .842675 0
.8699231 .8425534 0
.8940684 .8425875 0
.9173195 .8426731 0
.940142 .8425614 0
.9618438 .8427628 0
.9832621 .8425156 0
.9999999 .8422713 0
.9999999 .84222 0
0 .8672 0
0 .8671878 0
0 .8671741 0
.03397235 .8671548 0
.1123009 .8671286 0
.1678003 .8670958 0
.2163914 .8670558 0
.261499 .8670083 0
.3044336 .8669506 0
