luts/Timeless 35.cube
# 3D LUT of size 33x33x33 converted by Filestar.
#   Input:
#     color space: sRGB
#     white point: default (D65)
#     transfer function: default (sRGB)
#   Output:
#     color space: sRGB
#     white point: default (D65)
#     transfer function: default (sRGB)
#   Exposure: +0.72999996
#   Contrast: +21
#   Whites: +11
#   Blacks: -27
#   Vibrance: +7
LUT_3D_SIZE 5
.02750685 .00345072 .01606212
.3258121 0 0
.6236389 0 0
.8524638 0 0
.9999999 0 0
0 .3329471 0
.3335699 .3323986 0
.6264784 .3356405 0
.854017 .3357048 0
.9999999 .3329484 0
0 .6360333 0
.3308931 .6363415 0
.6315277 .6370466 0
.8558414 .6376585 0
.9999999 .6358117 0
0 .8617424 0
.3271625 .8616446 0
.6319637 .8616279 0
.856851 .860321 0
.9999999 .8599042 0
0 .9999999 0
.3165347 .9999999 0
.6297183 .9999999 0
.8518064 .9999999 0
.9999999 .9999999 0
0 0 .3352922
.3283031 0 .3380266
.627178 0 .338712
.8550988 0 .3368599
.9999999 0 .3335311
0 .3329706 .3399683
.3335639 .3320471 .3390562
.6277705 .3315898 .3377481
.8558742 .3265748 .3350868
.9999999 .3228854 .3295961
0 .6369092 .329151
.3150721 .6377038 .3289377
.6329544 .6376581 .326974
.8586966 .6357476 .3213156
.9999999 .6331739 .3280709
0 .8623482 .314635
.3072797 .8628099 .3142038
.6284847 .8629319 .3129174
.8581187 .8615006 .3128191
.9999999 .8594999 .3144336
0 .9999999 .3121853
.3010114 .9999999 .3102419
.6235315 .9999999 .3099363
.850044 .9999999 .3001021
.9999999 .9999999 .3049214
0 0 .6414062
.3321462 0 .6423017
.6291456 0 .6422963
.8568716 0 .643666
.9999999 0 .6433157
0 .3267019 .6430742
.3229416 .3243 .6431926
.6315997 .3213128 .6440026
.8587658 .3185467 .6433321
.9999999 .3146871 .6417381
0 .6361499 .6438094
.30186 .6368365 .6437169
.6308794 .6347178 .6421422
.8559136 .6348781 .6418035
.9999999 .6329852 .640365
0 .8631541 .6375408
.2936037 .8626027 .6370575
.6258768 .8618981 .6349396
.8571718 .8612584 .6343193
.9999999 .858242 .6338048
0 .9999999 .6322088
.2920032 .9999999 .6301323
.622319 .9999999 .632898
.8486224 .9999999 .6341648
.9999999 .9999999 .6310274
0 0 .867663
.3251577 0 .8682346
.6298774 0 .8689672
.8568354 0 .8695019
.9999999 0 .8682905
0 .3204479 .8685963
.3143883 .3175278 .8690127
.6260912 .3158759 .8693396
.8568335 .3085252 .8701162
.9999999 .3028546 .8689209
0 .6311233 .8690034
.2882229 .6295069 .8690169
.6245269 .6280494 .8685667
.856982 .6281262 .869377
.9999999 .6279024 .8675918
0 .861555 .8685898
.2921923 .8616045 .8683567
.6231146 .8609856 .8674931
.8550345 .8600627 .8673925
.9999999 .8593875 .8669538
0 .9999999 .8648005
.2907556 .9999999 .864113
.6255248 .9999999 .8633851
.8531131 .9999999 .8646173
.9999999 .9999999 .8652913
0 0 .9999999
.3235379 0 .9999999
.6269937 0 .9999999
.8523335 0 .9999999
.9999999 0 .9999999
0 .3163748 .9999999
.3101472 .3166935 .9999999
.6239645 .3151565 .9999999
.8516393 .3086445 .9999999
.9999999 .303489 .9999999
0 .6272233 .9999999
.2898614 .625431 .9999999
.6202233 .6245896 .9999999
.8519102 .6259218 .9999999
.9999999 .6248801 .9999999
0 .855401 .9999999
.2947932 .8558497 .9999999
.6217357 .8550311 .9999999
.849968 .8567412 .9999999
.9999999 .8573644 .9999999
0 .9999999 .9999999
.3084971 .9999999 .9999999
.6309994 .9999999 .9999999
.85909 .9999999 .9999999
.9999999 .9991124 .9998403
