luts/Timeless_5.cube
# 3D LUT of size 33x33x33 converted by Filestar.
#   Input:
#     color space: sRGB
#     white point: default (D65)
#     transfer function: default (sRGB)
#   Output:
#     color space: sRGB
#     white point: default (D65)
#     transfer function: default (sRGB)
#   Exposure: -0.01
#   Contrast: -20
#   Whites: -20
#   Blacks: -11
#   Vibrance: +34
LUT_3D_SIZE 9
.0258329 .01629493 .01645713
.1157066 0 .01409318
.2258927 0 .00679277
.3521802 0 0
.4781196 0 0
.5994928 0 0
.7187158 0 0
.8402808 0 0
.9619653 0 0
.00068535 .1219517 .0000089
.1170079 .1219585 0
.2308392 .1208982 .00158334
.3561121 .1143506 0
.4790879 .1032566 0
.5994133 .09872264 0
.7187172 .08332261 0
.8402771 .0563769 0
.9619691 .00710656 0
0 .259549 0
.113087 .2591178 0
.2394242 .2570299 0
.3560806 .2567891 0
.4785267 .251196 0
.5988151 .2463407 0
.7183104 .2401178 0
.8397906 .2307927 0
.9617258 .218506 0
0 .3933652 0
.06351295 .393149 0
.224655 .3925683 0
.3539709 .391589 0
.4763562 .3898567 0
.5978814 .3846116 0
.7169763 .3799188 0
.8380609 .3738377 0
.9605132 .3664971 0
0 .5234131 0
0 .5233974 0
.1982899 .523338 0
.3453625 .5223229 0
.472152 .5210541 0
.5954537 .5192788 0
.7185459 .5144378 0
.8389241 .5100782 0
.9588992 .5057663 0
0 .6539416 0
0 .6538724 0
.165489 .6537314 0
.3241002 .6533714 0
.4632934 .6522104 0
.5909751 .6500551 0
.715291 .6479015 0
.836484 .6445503 0
.958997 .6415033 0
0 .7853788 0
0 .7853523 0
.08584916 .7852496 0
.2947129 .785034 0
.4415375 .7845228 0
.5784475 .783241 0
.7083443 .7813297 0
.8333461 .7794058 0
.9562055 .776802 0
0 .917524 0
0 .9174766 0
0 .9173019 0
.2533457 .9170026 0
.4194123 .9166764 0
.5640945 .9161831 0
.6997119 .9147912 0
.8298365 .9137236 0
.9561542 .9135583 0
0 .9923003 0
0 .9922681 0
0 .9921799 0
.219175 .992038 0
.4002466 .992014 0
.5488148 .9922038 0
.6942656 .9912043 0
.8283309 .9903982 0
.9588886 .9910881 0
0 .02652616 .1159353
.1192083 .00241589 .1082443
.2342604 0 .1078771
.3582678 0 .1001308
.4801198 0 .08911195
.6000423 0 .07623682
.7198238 0 .05595598
.8413151 0 .019243
.9629715 0 0
0 .1218466 .109384
.1134886 .1217094 .1076983
.2319028 .1149872 .1054448
.3567948 .1055455 .09897373
.479522 .09606607 .08281045
.5997865 .08422471 .06854092
.7196491 .06564209 .04732131
.8412403 .03108379 .00763309
.9628416 0 0
0 .2592305 .08260427
.1000326 .2596439 .07977297
.2389775 .2588089 .0756724
.3609168 .2557137 .07081347
.4782506 .2488058 .07667813
.599189 .2425168 .05666339
.7190607 .2358398 .02332505
.8405899 .2259461 0
.962508 .2140087 0
0 .3940084 .00716939
.02612849 .3937732 .00630556
.2182281 .3931533 .00756498
.3548874 .3932613 .01754144
.4793699 .3892426 .01477896
.5996851 .382444 .01691837
.7168931 .3788516 .01595106
.8387512 .3714949 0
.9613908 .3637844 0
0 .5242382 0
0 .5243461 0
.1879499 .5243023 0
.342979 .5231187 0
.4720557 .521916 0
.5965961 .5193805 0
.7203217 .5138899 0
.8398377 .5087296 0
.9597178 .5042284 0
0 .654703 0
0 .6546476 0
.1521711 .6545067 0
.3187438 .654113 0
.4616256 .6531105 0
.58996 .6508456 0
.7160416 .6480603 0
.838165 .6442452 0
.9599736 .6409193 0
0 .7857903 0
0 .7857733 0
.05837855 .7857119 0
.2883901 .785557 0
.4388118 .7851396 0
.5773466 .7839458 0
.7077319 .7820039 0
.8341376 .7799054 0
.9569748 .7769897 0
0 .9179929 0
0 .9179584 0
0 .9178117 0
.243657 .917565 0
.4154654 .9172878 0
.5613672 .9168013 0
.6986232 .915432 0
.8301785 .9141626 0
.9566928 .9139922 0
0 .9927289 0
0 .9926911 0
0 .9926134 0
.2051022 .9925223 0
.395789 .9925538 0
.5456078 .9927471 0
.6921138 .9918664 0
.8275827 .9909963 0
.9590928 .9913542 0
0 0 .2293054
.1115334 0 .2313047
.2353827 0 .2336098
.35905 0 .2312936
.48304 0 .2232423
.6020942 0 .2181842
.7201773 0 .210321
.8420585 0 .2002324
.9637986 0 .1832159
0 .1125763 .2353635
.08715912 .1086964 .2357691
.2360775 .09878298 .2363923
.3588189 .08882203 .2293486
.4804065 .07944071 .2220694
.6004444 .06980747 .2171168
.7202469 .04324207 .2074268
.842134 0 .1972757
.9637956 0 .1802807
0 .2585549 .2330321
.06735709 .2583003 .2311924
.2254218 .2544229 .2248959
.3543545 .2512515 .22677
.4766185 .2460859 .2219291
.5996001 .2378227 .2133237
.7199867 .2297986 .2022062
.8416694 .2182192 .190555
.9638725 .2038331 .1722327
0 .3944439 .2043488
0 .3943285 .2014835
.1951252 .3940306 .1953821
.3537733 .3934896 .189003
.4819596 .3867874 .1886047
.5993122 .3797051 .202522
.7183799 .3753778 .1944329
.8404759 .367304 .1794083
.9634911 .3571377 .1563009
0 .5250996 .1672713
0 .5253063 .1642247
.1648849 .5254849 .1587766
.3341774 .5246078 .1630954
.471387 .5237066 .1674541
.6001498 .5189305 .1631591
.7229715 .5119771 .1563024
.8398354 .5074739 .1661216
.9613014 .5013049 .1441907
0 .6563617 .1073337
0 .6563858 .10473
.1112465 .6562181 .1028612
.3048802 .6554748 .1065085
.4554821 .6541325 .1161711
.5881464 .6524912 .1173957
.7179061 .6487113 .1266082
.8423364 .6435398 .09366138
.9624154 .6381889 .09445583
0 .7871965 0
0 .7872448 0
0 .7870746 0
.2703342 .7867528 0
.4320332 .7858663 0
.574796 .7849132 0
.706856 .7833364 0
.8351527 .7810561 .01730801
.9602436 .7770251 0
0 .9192435 0
0 .919297 0
0 .9192343 0
.2186455 .9190574 0
.4036595 .9186671 0
.5553415 .9177426 0
.6958523 .917082 0
.8299462 .9155558 0
.9578654 .9149573 0
0 .9939471 0
0 .9940363 0
0 .9940512 0
.1687051 .994023 0
.3840096 .9938874 0
.5386425 .9936894 0
.6865448 .9933067 0
.825046 .9923885 0
.9596786 .9921358 0
0 0 .3555679
.1040126 0 .3563519
.2293947 0 .3569893
.3579519 0 .356591
.4820148 0 .3551169
.6039121 0 .3446129
.7247725 0 .33878
.84526 0 .3323262
.9658762 0 .3215812
0 .0958227 .357996
.02700359 .09058233 .3583423
.2196467 .06844262 .3584159
.3600985 .04507361 .3588426
.4837682 .04533406 .3530477
.6045449 .02829464 .3430907
.7234928 0 .3380205
.844051 0 .3314924
.9649245 0 .3204923
0 .2451033 .3588082
0 .2427452 .3588603
.2063609 .2365214 .3579359
.3569443 .2327251 .3569088
.4796152 .2376087 .3465455
.6001902 .2312785 .3414335
.7201997 .2224328 .3367959
.8419289 .209386 .3291538
.9650635 .1896499 .3157002
0 .3938579 .3522628
0 .3937465 .350901
.1777349 .392734 .3470598
.3386728 .3883968 .3394983
.4732072 .3827704 .3415496
.5943723 .3779204 .3408763
.7178537 .3707758 .3336324
.841565 .3618194 .3231945
.9650897 .3491638 .3077522
0 .5267818 .3227981
0 .5264643 .3207539
.103743 .5254284 .3161543
.3146522 .524406 .3117757
.4678119 .5235068 .3094094
.6014825 .517404 .3065112
.7201788 .5106398 .3178532
.8397254 .505169 .3152942
.9639115 .4957883 .2966714
0 .65671 .2887875
0 .6566986 .2869165
0 .6567736 .2822801
.282358 .6564367 .2799079
.444874 .6552594 .2805632
.5863059 .6536493 .2817048
.7215077 .6485642 .2770499
.8460798 .6411651 .2661368
.9657947 .6346012 .2695895
0 .7884196 .2464689
0 .7884042 .2449804
0 .7884398 .2411363
.2309668 .7885314 .2339223
.4150363 .7876223 .2331435
.5684468 .786119 .236179
.7058197 .7842874 .2339174
.8384311 .7817646 .2381759
.9658758 .7751891 .2227331
0 .9204662 .1622711
0 .9204838 .1597053
0 .9205381 .153035
.1534918 .9207384 .1409541
.3797554 .9203451 .138896
.5448493 .9191349 .1496391
.6910953 .9184868 .1604562
.8281293 .9175317 .1741377
.959984 .9160287 .1806254
0 .9952701 .0752117
0 .9952938 .0701891
0 .9953582 .05617347
.0559736 .9954857 .02847011
.3579066 .9952126 .02900648
.5279008 .994888 .04453398
.6803073 .9944047 .08092161
.8215052 .9940502 .09419989
.959789 .9934768 .1000068
0 0 .4767596
.08802523 0 .4769902
.2205637 0 .4778676
.3511338 0 .4789633
.4793827 0 .4783182
.603635 0 .475971
.7240096 0 .4688146
.8457204 0 .4607669
.9682427 0 .4507689
0 .07849102 .4777929
0 .07017229 .4781942
.2066239 .04276689 .4790873
.3481578 .01440463 .4801145
.4810508 0 .480038
.6046783 0 .4749901
.7252365 0 .4669405
.8463334 0 .4591979
.9681404 0 .4495422
0 .2291856 .4799451
0 .2257987 .4800768
.184817 .2181332 .4798917
.3384427 .2112136 .4806707
.4805372 .2084179 .4793599
.6056483 .212538 .4707949
.7241368 .2059327 .4631066
.8455364 .1880524 .4572007
.9672609 .1599415 .447004
0 .3774854 .4789962
0 .3764754 .4787066
.1367478 .374111 .477883
.3184941 .3680606 .4755973
.4739958 .3650211 .4743981
.5979897 .3685104 .4631235
.718652 .3638964 .4588937
.8413542 .3553917 .4523252
.965887 .3394718 .4428227
0 .5253252 .4696155
0 .525202 .4685375
.09584392 .524624 .4661222
.2977631 .5225489 .4617796
.4558437 .5176374 .45399
.5929652 .5114419 .4549832
.7143863 .506688 .4569539
.8394977 .4990431 .4482911
.9651808 .4884999 .4359142
0 .6584651 .4423979
0 .6582515 .4411171
0 .6574186 .4376697
.2448305 .6556092 .4309019
.4235747 .6549072 .4264612
.58284 .6538657 .4234714
.7230831 .6480483 .4176818
.8441997 .6392397 .4241671
.9635432 .6340127 .4276661
0 .789249 .405119
0 .7892134 .4038765
0 .7891351 .4007688
.1600985 .7888828 .395353
.3868831 .7881744 .3919413
.554994 .7872283 .3894248
.7040836 .7860165 .3876998
.8406413 .7816236 .386826
.9709476 .7718231 .3711481
0 .9221629 .3548702
0 .9221325 .3536757
0 .922118 .3515901
0 .922095 .3480847
.3361697 .921932 .3434972
.5248707 .9212464 .341023
.6828419 .9204385 .3458421
.8272685 .9184528 .3501424
.9623248 .9161544 .3481821
0 .9965096 .3251123
0 .9965339 .3241263
0 .9965878 .3217176
0 .9966399 .3178529
.3095796 .9966658 .3122112
.5059903 .9964109 .3093104
.6689113 .9957423 .3165785
.8175023 .9953771 .3179913
.9597083 .9942556 .3218217
0 0 .5962114
.0653254 0 .5965768
.2109783 0 .5975315
.3406175 0 .5983829
.4721684 0 .5988705
.6002031 0 .5987445
.7242908 0 .597519
.8457766 0 .590848
.9679195 0 .5810257
0 .03426977 .5975093
0 .02357398 .5976417
.1950546 0 .598131
.3375057 0 .5988932
.4703758 0 .5994884
.6012856 0 .6001748
.7256912 0 .5974254
.8465651 0 .5894645
.9686642 0 .5793633
0 .2101232 .5989306
0 .2070632 .5990478
.1649034 .1991262 .5996418
.3266225 .1897572 .6003088
.4639039 .1842244 .6006854
.6017179 .180067 .601218
.7276337 .1781984 .5959592
.8478553 .1622787 .5865852
.9696825 .1136271 .5762672
0 .3615518 .5997775
0 .3601041 .5998666
.08555698 .3558318 .599685
.2972642 .347751 .5988952
.4518002 .3431301 .5997826
.5980588 .3418092 .598851
.7273383 .3456323 .5903101
.8469069 .337103 .5812832
.9694164 .319361 .5727111
0 .5104571 .5978355
0 .5098335 .5976618
0 .5084023 .5971407
.2626753 .5054103 .5960234
.4356214 .4980237 .5929349
.5927474 .4952245 .591306
.7183425 .4979362 .5817485
.8401659 .4927272 .5771195
.9642364 .483547 .5695984
0 .6575551 .5885726
0 .6574088 .5878512
0 .6569356 .5863742
.234558 .6555606 .5831502
.4114553 .6534268 .5778167
.5709864 .647952 .5697532
.7150593 .6410204 .5674254
.8356672 .6361293 .5730159
.9624661 .6300293 .5646923
0 .7908343 .5577818
0 .7907059 .5566067
0 .7903791 .5535994
.0833771 .7892103 .5487543
.3595105 .787534 .5429388
.5356683 .7862832 .5395381
.7005486 .7846839 .5397685
.8439032 .7797322 .5346937
.9703005 .7697275 .5323222
0 .9227024 .5206544
0 .9226494 .5194458
0 .9223797 .5160964
0 .9223402 .5124811
.3068781 .9217853 .5086786
.5044532 .9208661 .5079009
.6712188 .9203421 .5069899
.8235736 .9193003 .5059135
.9636179 .9165949 .5028148
0 .9974821 .4992429
0 .997513 .4982319
0 .9975894 .4961088
0 .9975169 .492637
.2697764 .9974224 .4899692
.4857895 .9969062 .4890083
.6573412 .9965705 .4883649
.8131188 .9972932 .4859039
.9599298 .9964857 .488955
0 0 .717709
.03146057 0 .7178718
.2020717 0 .7182696
.3338511 0 .7184657
.4602349 0 .718651
.5900742 0 .718739
.7194224 0 .7189159
.8438383 0 .7164698
.9677677 0 .7113738
0 0 .7179274
0 0 .7181288
.1833856 0 .7185637
.3270083 0 .7190183
.4581764 0 .7192986
.5894212 0 .719664
.7198988 0 .7196177
.8455574 0 .7165756
.9687613 0 .7111634
0 .1907305 .7192504
0 .187234 .7194644
.1426968 .1791359 .7198768
.3124747 .1653147 .7201365
.4512463 .1522815 .7206808
.5857896 .141526 .7209596
.7217771 .1322735 .7205538
.8490753 .1080021 .7168857
.9710401 .06003416 .70915
0 .3424683 .7197801
0 .3406397 .7199177
.00718554 .3364203 .7199603
.2730287 .3285045 .720176
.4351158 .3207041 .7207862
.5796355 .3159696 .7212391
.7226567 .3097798 .7201746
.8513213 .3048038 .7152668
.9742697 .2913506 .7043642
0 .4900431 .7197877
0 .4889151 .7199295
0 .4864768 .719838
.2291687 .480917 .7193487
.4087659 .4732677 .7185057
.569427 .4695393 .7197042
.7187262 .4694346 .7183756
.8502363 .4701867 .7097897
.9719375 .4643863 .6994576
0 .6440176 .7178392
0 .643609 .7177141
0 .6425573 .7173958
.1705949 .6406699 .7166969
.3864394 .6366761 .7150827
.5526765 .6301976 .7121792
.7098519 .6277236 .7111012
.8385552 .6287881 .7023534
.9634668 .6242436 .6968737
0 .7894837 .7074097
0 .7894439 .7072759
0 .7894424 .706488
.07155266 .7890521 .7046098
.3555262 .7878873 .7015575
.5297449 .7847251 .6962296
.6904883 .7800503 .6912875
.8390209 .7741613 .6863508
.9597414 .7708009 .6926838
0 .9237483 .6783578
0 .9236251 .6776494
0 .9233147 .6757548
0 .9227582 .6725276
.2812001 .9218126 .669453
.4878798 .9204242 .6644977
.662102 .9198578 .6619506
.8198744 .9185043 .6627598
.9649305 .915354 .6579807
0 .9981856 .6607999
0 .9981954 .6601017
0 .9982204 .6583962
0 .9982428 .6553217
.2203505 .9975812 .6499401
.4639044 .9977724 .6465797
.6471313 .9974731 .6470125
.8075808 .99765 .6469598
.960161 .9975401 .6487799
0 0 .8381047
0 0 .8382416
.174721 0 .8385222
.3209238 0 .8391932
.4535032 0 .8390019
.5804828 0 .8390183
.7114241 0 .8384651
.838007 0 .8376552
.9648518 0 .835849
0 0 .8379342
0 0 .8381292
.161739 0 .8386537
.3149305 0 .8392167
.4500636 0 .8395534
.5785692 0 .839488
.7113903 0 .8390999
.8386822 0 .8379963
.9665022 0 .8361212
0 .1705068 .8390178
0 .1662304 .8392419
.1112076 .1548985 .8396485
.2934238 .1350443 .8402715
.4372105 .109483 .840369
.572733 .07937907 .8404152
.7094163 .03620914 .8402702
.8405523 .03850268 .8392985
.9695689 0 .8370586
0 .3235199 .8405514
0 .3213664 .8406089
0 .3163581 .8406972
.2548381 .3071792 .8409448
.4140419 .2967021 .8412666
.5635614 .2841179 .8415521
.7039827 .2766765 .8415447
.8421768 .2707492 .8408397
.973059 .2609934 .8381824
0 .4695792 .8405344
0 .4679062 .8405684
0 .4641488 .8404874
.1785902 .4587721 .8404323
.3858888 .4514957 .8406395
.5440869 .4449202 .8409938
.6973398 .4410836 .8416374
.8417725 .4365267 .8411322
.9771882 .432565 .8366366
0 .6224394 .83945
0 .6215387 .8395087
0 .6195335 .8396567
.04247958 .6163431 .8392439
.349252 .6114482 .8386477
.5247114 .606598 .8383348
.6862645 .6037725 .8390985
.8394333 .6033217 .8384257
.9724097 .6031814 .8305399
0 .7758039 .8382528
0 .7755831 .8381969
0 .7750098 .8380504
0 .7741507 .8378099
.3206578 .7734117 .8376487
.5103324 .7708874 .8363158
.6742136 .7662953 .8334399
.8304895 .7640357 .8319829
.9611419 .7645652 .8261632
0 .9236283 .8280795
0 .9235976 .8279936
0 .9233802 .8279911
0 .9231734 .82674
.2737733 .9228084 .8249134
.4829589 .9222014 .8221316
.6551856 .919351 .817903
.8139789 .916927 .8153191
.9652491 .9128053 .8126525
0 .9999999 .8164713
0 .9999999 .8163099
0 .9999999 .8157186
0 .9999349 .8148793
.2259301 .9992822 .8121951
.4617304 .9986934 .8088759
.6409578 .9969028 .8037525
.8053499 .9981642 .8039836
.9598424 .9987026 .8072979
0 0 .9591612
0 0 .9592113
.1493401 0 .959538
.3009203 0 .9602171
.4375026 0 .9606996
.5696383 0 .9603019
.7004966 0 .9606988
.8325243 0 .9602821
.9602255 0 .9599788
0 0 .959403
0 0 .9595492
.1201876 0 .9599964
.2971604 0 .9605289
.4340114 0 .9608009
.567629 0 .9606487
.6983982 0 .9612774
.8320243 0 .9608905
.9606394 0 .9605954
0 .1243889 .9595831
0 .1185757 .9597449
.05960198 .1020952 .9601426
.2761098 .06546121 .9606817
.4223213 .0130637 .9609098
.5602222 0 .9615166
.6949493 0 .961983
.8309413 0 .9621902
.9615166 0 .9616547
0 .2969388 .9610173
0 .2945517 .9611645
0 .2881271 .9614106
.2240579 .2762258 .961736
.3957717 .2626052 .9617638
.5447283 .2457831 .9623634
.686956 .2310801 .9625801
.8276613 .2223772 .9631129
.9635291 .2211694 .963299
0 .447566 .9614251
0 .4457149 .9615791
0 .4409071 .9619914
.08793909 .4339973 .9622384
.350914 .4240851 .96259
.5206981 .4168225 .9632109
.6770509 .4084455 .9643282
.822845 .4044224 .9648957
.9648841 .4025115 .9652912
0 .5976216 .9619651
0 .5964952 .9619696
0 .5941216 .9619638
0 .590181 .9619491
.3049133 .5849422 .9625313
.4955801 .5793922 .9632549
.6605064 .5749816 .9642046
.8170301 .574149 .9650052
.964442 .5748184 .9651917
0 .7548185 .9628255
0 .7543404 .9628866
0 .7537603 .9628478
0 .7526271 .9628465
.2516272 .7497122 .9626085
.4743773 .7455884 .962414
.647073 .7422637 .962532
.808171 .741528 .963089
.9638827 .7409607 .9632029
0 .9124123 .9618742
0 .9123304 .9618741
0 .9121438 .9618707
0 .9118351 .9618623
.2267162 .9116141 .962046
.4626443 .9112384 .961917
.6464064 .9089752 .9614381
.8047636 .9088064 .9611281
.9603924 .9093595 .9611525
0 .9982135 .9600477
0 .9982105 .9600845
0 .9982488 .9602396
0 .9984705 .9605903
.212592 .998543 .9611984
.4663945 .9990367 .9619257
.6462066 .9985659 .9618377
.8080496 .9984056 .9611195
.9631459 .9974279 .9620681
