luts/Timeless 21.cube
# 3D LUT of size 33x33x33 converted by Filestar.
#   Input:
#     color space: sRGB
#     white point: default (D65)
#     transfer function: default (sRGB)
#   Output:
#     color space: sRGB
#     white point: default (D65)
#     transfer function: default (sRGB)
#   Exposure: +0.53999996
#   Contrast: -26
#   Whites: +22
#   Blacks: -61
#   Vibrance: +20
#   Saturation: +9
LUT_3D_SIZE 9
.0306239 .01605359 .00988733
.02935654 .01670498 .00955776
.05945121 .01609962 .01667893
.3465299 0 0
.5493696 0 0
.7065948 0 0
.8474963 0 0
.9635898 0 0
.9999999 0 0
.02956186 .01662705 .0109398
.03386019 .01590665 .01442743
.1419004 0 .01033187
.3779685 0 0
.5580486 0 0
.7080712 0 0
.8474292 0 0
.9631582 0 0
.9999999 0 0
0 .2017739 0
0 .208878 0
.1712014 .2150868 0
.3820041 .2270124 0
.5528772 .2400319 0
.7070417 .2571689 0
.8448024 .2675513 0
.9593641 .2751893 0
.9999999 .265786 0
0 .4181803 0
0 .4190633 0
.2096371 .4182204 0
.3930046 .4187249 0
.5541152 .4273298 0
.7133612 .4405513 0
.84961 .4586592 0
.9657245 .4609516 0
.9999999 .4573753 0
0 .5948161 0
0 .5955355 0
.2439591 .5954077 0
.4205574 .5964962 0
.5794685 .5969217 0
.7273621 .6018013 0
.8611056 .6098277 0
.9667752 .6136747 0
.9999999 .6098967 0
0 .7565722 0
0 .756706 0
.1076411 .7572101 0
.4011133 .7571 0
.5825529 .7542028 0
.7341678 .7525419 0
.861367 .7513609 0
.9683389 .753099 0
.9999999 .752906 0
0 .8859801 0
0 .8858677 0
0 .8859308 0
.3585684 .8869457 0
.5678874 .8845832 0
.7291195 .8824263 0
.8591298 .8798805 0
.9682305 .8761916 0
.9999999 .8737493 0
0 .9892141 0
0 .98918 0
0 .9890656 0
.2914822 .9885194 0
.5375251 .9880615 0
.70875 .9864036 0
.8483977 .9840997 0
.9597229 .9807594 0
.9999999 .9760292 0
0 .9999999 0
0 .9999999 0
0 .9999999 0
.2420956 .9999999 0
.5152622 .9999999 0
.6832798 .9999999 0
.833804 .9999999 0
.9384633 .9999999 0
.9999999 .9999999 0
.04035526 .0105422 .01070091
.03431932 .01335508 .01006358
.0952983 .00534879 .01534049
.3552997 0 0
.5545486 0 0
.7102988 0 0
.8509785 0 0
.9677362 0 0
.9999999 0 0
.03733591 .0117949 .01023511
.03115413 .01519798 .00997247
.1573046 0 .00847804
.3840433 0 0
.5611542 0 0
.7124064 0 0
.8510391 0 0
.9681738 0 0
.9999999 0 0
0 .2037773 0
0 .2070385 0
.186331 .2172368 0
.390961 .2305087 0
.5557649 .2478566 0
.7114784 .259402 0
.8515493 .2567009 0
.9676177 .2497969 0
.9999999 .2309838 0
0 .4171834 0
0 .4191092 0
.2207895 .4196914 0
.4039617 .4179671 0
.5587566 .4297073 0
.7210466 .4361292 0
.8579265 .4453993 0
.9729205 .441399 0
.9999999 .4386906 0
0 .6005874 0
0 .6008304 0
.17247 .6002927 0
.4059493 .5991811 0
.5840416 .5980359 0
.7326837 .6009276 0
.8667663 .606858 0
.9727342 .6088361 0
.9999999 .6030741 0
0 .7587631 0
0 .7586812 0
0 .7589034 0
.3926058 .7591716 0
.5848282 .7557282 0
.7384926 .7536031 0
.8657656 .7524087 0
.9726627 .7530806 0
.9999999 .7515315 0
0 .8871949 0
0 .8872429 0
0 .8872887 0
.3536724 .8877579 0
.5665405 .8855343 0
.73049 .8832722 0
.8620539 .8800234 0
.9716341 .8761868 0
.9999999 .8732913 0
0 .9908492 0
0 .9907866 0
0 .9906376 0
.2759016 .9899639 0
.5373928 .9889087 0
.7092035 .9870595 0
.8491435 .9847214 0
.9623474 .9807004 0
.9999999 .9757164 0
0 .9999999 0
0 .9999999 0
0 .9999999 0
.2026691 .9999999 0
.5082276 .9999999 0
.6834323 .9999999 0
.8343909 .9999999 0
.9397601 .9999999 0
.9999999 .9999999 0
0 .02271098 .1535038
0 .02103285 .1556431
.1281252 0 .1634388
.3756344 0 .16992
.5625319 0 .2040949
.7241228 0 .1719778
.8654905 0 .1477403
.983305 0 .110436
.9999999 0 .03823663
0 .0200092 .1660044
0 .01942282 .1678917
.1971244 0 .1716523
.3962775 0 .1859927
.5813373 0 .1654342
.7325382 0 .1283459
.8694224 0 .1115325
.9850325 0 .0543552
.9999999 0 0
0 .2162506 .1681775
0 .2186202 .1631567
.2071121 .2093009 .155608
.4074395 .2097346 .1473562
.5765286 .2014808 .1219467
.7340611 .1777104 .09303079
.87314 .1493484 0
.9870223 .1203887 0
.9999999 .07748175 0
0 .426572 .1149296
0 .4272039 .09491234
.1545955 .4256551 .06937046
.4062684 .4208896 .08361942
.5758684 .4196444 .05525458
.7355881 .4199001 0
.8721219 .4159584 0
.9858069 .4071471 0
.9999999 .3985989 0
0 .6062773 0
0 .6063374 0
.00240146 .6065083 0
.3903449 .6043791 0
.5836935 .6015267 0
.7411703 .599778 0
.8724226 .6030362 0
.9826868 .5980515 0
.9999999 .5865771 0
0 .7627782 0
0 .7627857 0
0 .7624506 0
.3535398 .7619761 0
.5737414 .7590104 0
.7398121 .7553619 0
.8710452 .7532967 0
.980725 .7503695 0
.9999999 .7450438 0
0 .8908157 0
0 .8906842 0
0 .8902678 0
.3055187 .8903216 0
.5438207 .889219 0
.7206339 .887008 0
.8625935 .8827103 0
.9764451 .8771477 0
.9999999 .8727061 0
0 .9934098 0
0 .9935136 0
0 .9934799 0
.177331 .992492 0
.5027514 .9925051 0
.6977092 .9900251 0
.8481627 .9864957 0
.9643056 .9817961 0
.9999999 .9756283 0
0 .9999999 0
0 .9999999 0
0 .9999999 0
.00606397 .9999999 0
.4731251 .9999999 0
.6736638 .9999999 0
.8318153 .9999999 0
.9435686 .9999999 0
.9999999 .9999999 0
0 .02037573 .3671151
0 .02350131 .3676287
.16056 0 .3715133
.3932913 0 .3712665
.5701702 0 .382889
.7271751 0 .3933648
.87166 0 .3773259
.9897872 0 .3656229
.9999999 0 .3542652
0 .02709656 .3732046
0 .00833367 .374424
.2223509 0 .3750731
.4121357 0 .3749246
.5870892 0 .3729829
.7390723 0 .3749579
.8765208 0 .3668581
.9913653 0 .3561071
.9999999 0 .340818
0 .2277552 .3758069
0 .2215742 .3765852
.1754383 .2043118 .3772724
.424064 .1763509 .3745385
.590259 .1662605 .3645618
.74345 .1331488 .3569043
.8808182 .06634668 .3460633
.9951258 0 .3272912
.9999999 0 .3083358
0 .4245268 .3678971
0 .4253498 .364327
.08336598 .426452 .359995
.4012566 .4204378 .3422623
.583293 .4136376 .3421002
.7437699 .4068938 .3340902
.8807969 .3981501 .3201898
.9933364 .3811668 .3014332
.9999999 .3695035 .2842996
0 .609087 .3354813
0 .6094506 .3300257
0 .608979 .3182547
.3615863 .6071893 .3060421
.5817715 .6045597 .2975552
.7493832 .6008002 .2782985
.8811913 .593197 .2748838
.9931328 .5825348 .2535059
.9999999 .5710413 .2181144
0 .7657857 .2692301
0 .7658333 .2600607
0 .7660776 .2444475
.3106968 .7644804 .2296953
.5586582 .7627102 .2182582
.7422999 .7589852 .1988962
.8790531 .7520635 .1698256
.9901347 .743668 .1241078
.9999999 .7367808 .0353505
0 .8934575 .1364373
0 .8934032 .1254878
0 .8926224 .1060134
.2326237 .8922411 .06394139
.5233862 .8910753 0
.7120112 .88857 0
.8643364 .8832194 0
.9824095 .8759179 0
.9999999 .868405 0
0 .9953801 0
0 .9953558 0
0 .9947606 0
0 .9940751 0
.4722672 .9933169 0
.6803601 .9927692 0
.8352169 .9902294 0
.9627661 .9840242 0
.9999999 .9766951 0
0 .9999999 0
0 .9999999 0
0 .9999999 0
0 .9999999 0
.4331898 .9999999 0
.6579391 .9999999 0
.8185933 .9999999 0
.9373831 .9999999 0
.9999999 .9999999 0
0 .01354583 .5442403
0 0 .5440075
.2005264 0 .5441476
.4210599 0 .5436981
.5809823 0 .5432298
.7361055 0 .5498688
.8748104 0 .5542194
.9910862 0 .5508273
.9999999 0 .5418045
0 0 .5473792
0 0 .5478711
.2371838 0 .5479483
.4300841 0 .5488269
.5881885 0 .5476627
.7430725 0 .546979
.8796191 0 .5522283
.9932914 0 .5454157
.9999999 0 .5359094
0 .2136508 .552734
0 .2028861 .5532153
.14139 .1851618 .553569
.422552 .1518587 .5527367
.5966846 .1307192 .5474818
.7482337 .08566033 .5469124
.8866352 0 .5402944
.9972655 0 .5317271
.9999999 0 .5186672
0 .4285752 .5483943
0 .4265588 .5488822
0 .4186715 .5479729
.385847 .4052058 .5471734
.5973969 .3992863 .5396166
.7493978 .3939652 .5316175
.8826597 .3853776 .5215804
.9956343 .3671459 .5081902
.9999999 .354631 .5003536
0 .611198 .538605
0 .61155 .5368219
0 .6106266 .5337902
.3425504 .607135 .5269181
.5751517 .6023754 .5139096
.7440603 .5953764 .5134783
.8818223 .586031 .5105387
.991829 .5755244 .500192
.9999999 .5678846 .489682
0 .7680738 .5072078
0 .7681288 .5044607
0 .767424 .4973284
.2586178 .7657118 .4889996
.5473861 .7621124 .4817974
.7402597 .757752 .472347
.8822849 .748917 .4597026
.9924935 .7392853 .4522917
.9999999 .7320214 .4508707
0 .8937765 .4675112
0 .8935291 .4649286
0 .8933067 .4566571
.1750813 .8919828 .4479882
.5107837 .8908973 .4329259
.7090705 .8877237 .4214101
.864365 .8822378 .4125021
.9843876 .8740399 .3836289
.9999999 .8639631 .3556944
0 .9969133 .3910846
0 .9968597 .3860177
0 .9954186 .3806432
0 .9926849 .3811111
.4579377 .9911688 .3794903
.668255 .9907644 .3553771
.8320891 .9892815 .3185213
.9619811 .9835212 .2848251
.9999999 .9740348 .2332164
0 .9999999 .3342279
0 .9999999 .3366041
0 .9999999 .3388174
0 .9999999 .3205496
.4112114 .9999999 .2864331
.638744 .9999999 .250662
.8111716 .9999999 .2367108
.935271 .9999999 .2165373
.9999999 .9999999 .186408
0 0 .6997275
0 0 .7001941
.2259462 0 .6995798
.4479553 0 .6998082
.6028856 0 .7005511
.7432982 0 .7026185
.8737661 0 .6999028
.9919042 0 .7016509
.9999999 0 .6996922
0 0 .703147
0 0 .7035942
.2419852 0 .7034341
.4424487 0 .7043802
.6015126 0 .7047644
.7480584 0 .7030452
.8784567 0 .6999577
.9944697 0 .7004386
.9999999 0 .6963564
0 .1960076 .7080131
0 .1849463 .7084547
.119504 .1585911 .7084011
.413773 .1219927 .7078105
.599427 .07333795 .706405
.7517377 .02253612 .7036461
.8878659 0 .70052
.9997875 0 .6952351
.9999999 0 .6880429
0 .4178525 .7065353
0 .4133701 .7069505
0 .4013936 .7064757
.373817 .388354 .7055212
.5872353 .3763892 .7045016
.7554792 .3676277 .7025968
.8905938 .3604057 .6948051
.9995375 .3512613 .6864762
.9999999 .346133 .6778522
0 .6075195 .7007751
0 .6053615 .7006108
0 .5993402 .7007849
.3276239 .5942005 .6998858
.5662702 .5876007 .6968506
.7491525 .5831851 .6915035
.8782389 .5827407 .6826361
.9873778 .5767676 .6760055
.9999999 .5716054 .6693716
0 .7662687 .6878181
0 .7662718 .686967
0 .766054 .6852664
.2523928 .764747 .6824211
.5380232 .760058 .6761792
.7349748 .7538675 .6685941
.8720915 .7482674 .6640326
.9791358 .7415246 .66297
.9999999 .7338322 .6578867
0 .897107 .6606856
0 .8968062 .6594716
0 .8950641 .656158
.1476477 .8936523 .6491095
.4987713 .8899321 .6436494
.7050659 .8851386 .641487
.8606514 .8804268 .6349266
.9807358 .8717613 .6220944
.9999999 .860014 .6146227
0 .9968495 .6271482
0 .9960377 .6258842
0 .9941623 .6222765
0 .9920357 .6182411
.4633701 .989287 .612412
.673508 .9881278 .6040994
.8346595 .9846203 .5969182
.9581425 .9817473 .5799772
.9999999 .9732224 .5625251
0 .9999999 .591968
0 .9999999 .5906782
0 .9999999 .5862748
0 .9999999 .5798047
.4286137 .9999999 .580832
.6505818 .9999999 .5740449
.8199108 .9999999 .5735081
.9353085 .9999999 .562831
.9999999 .9999999 .545553
0 0 .8279441
0 0 .8281178
.2521428 0 .8288909
.4525425 0 .8297197
.6074739 0 .8310976
.7510415 0 .833342
.8789639 0 .8309391
.9846215 0 .8281479
.9999999 0 .8267495
0 0 .830864
0 0 .8309819
.2424605 0 .8317884
.4437974 0 .8332886
.6000634 0 .8343034
.7493024 0 .834018
.8811265 0 .8318838
.9877288 0 .8283076
.9999999 0 .826215
0 .1693238 .8349235
0 .1607953 .8350108
.1091453 .1374677 .8352578
.3997858 .09802786 .8354992
.5891165 .03160441 .8353654
.7469817 0 .8352034
.8866439 0 .8337916
.9950964 0 .8291321
.9999999 0 .8244385
0 .4024014 .833772
0 .3979914 .8339276
0 .3876699 .8342208
.3567428 .3774847 .8349352
.5719198 .3680159 .8348106
.7443406 .3534918 .8342614
.8905027 .3368656 .8326619
.9990943 .3268803 .8270919
.9999999 .3259073 .8184182
0 .5940055 .8313327
0 .5916904 .8309021
0 .5856473 .8303505
.3130562 .5789358 .8299653
.5563574 .5751448 .8294719
.7323425 .5719959 .8300101
.8826056 .5651564 .826571
.9921928 .5645442 .8170788
.9999999 .5633416 .8109153
0 .7575949 .829056
0 .7571775 .8288887
0 .7562771 .8279629
.2478135 .7524202 .8270634
.541278 .7472402 .8250949
.7261512 .7455379 .820437
.8647275 .7461749 .8138482
.9753951 .7436485 .8076351
.9999999 .7378155 .8030982
0 .8951473 .8128664
0 .8945714 .8122445
0 .8937911 .8108835
.1481453 .8919259 .8090373
.5026229 .8878703 .8066156
.7089698 .8820179 .8013251
.8601348 .8770944 .7970708
.9678803 .8737522 .7937376
.9999999 .8662314 .7921987
0 .9980989 .7880977
0 .9974098 .7875534
0 .9960231 .7855258
0 .9929999 .7829929
.4804423 .9887432 .7804871
.6851305 .9836746 .7768961
.8396489 .9808791 .775255
.9590834 .9771901 .7661408
.9999999 .9679092 .7610778
0 .9999999 .7610136
0 .9999999 .7590347
0 .9999999 .7567209
0 .9999999 .7571167
.4542042 .9999999 .7590899
.6727133 .9999999 .7602876
.8307902 .9999999 .7615761
.9421741 .9999999 .7591381
.9999999 .9999999 .7513831
0 0 .9318393
0 0 .9321162
.2519676 0 .9328592
.4508889 0 .9344066
.6082332 0 .9366078
.7460224 0 .9381719
.8798229 0 .9376416
.9849051 0 .9362819
.9999999 0 .9327418
0 0 .9343811
0 0 .9346409
.2247265 0 .9355695
.4335954 0 .937189
.5968804 0 .9387437
.7448066 0 .9388182
.8801309 0 .938271
.9861338 0 .9369782
.9999999 0 .9329699
0 .1537285 .9374053
0 .1451267 .9375199
.06899794 .1168423 .9377944
.3909546 .06870405 .9385823
.578864 0 .9397835
.7374577 0 .9399264
.8757355 0 .9403076
.9890557 0 .938052
.9999999 0 .9329238
0 .3929588 .9376276
0 .3877399 .9377965
0 .3773565 .9381959
.3496909 .3680941 .9396501
.561409 .3596535 .9396005
.731747 .3479306 .9400003
.8728214 .3271975 .9400403
.9919336 .3082859 .9384686
.9999999 .2905098 .9330424
0 .5789421 .9352909
0 .5773277 .9352289
0 .5745609 .93524
.3007068 .568935 .9354084
.5446771 .5680958 .9352702
.7206485 .5660722 .9357226
.8638918 .5594999 .9354295
.9864185 .5525546 .933596
.9999999 .545945 .927524
0 .7410814 .9345267
0 .7411661 .9342752
0 .740083 .9339725
.2589058 .7381051 .9334481
.5341205 .7368715 .9324061
.7172011 .7335251 .9314908
.8618768 .7334561 .9293237
.9784324 .7311662 .9264414
.9999999 .7284974 .9189281
0 .8807779 .930769
0 .8808135 .9306779
0 .8805823 .9303988
.1294569 .8791173 .9298628
.5089808 .8764216 .9269387
.7069366 .8746321 .9236441
.8534856 .8739863 .9205413
.9653552 .8713276 .9164025
.9999999 .8687034 .9125616
0 .9928196 .9176728
0 .9926006 .9169332
0 .9920557 .9157711
0 .9902996 .9141409
.4734837 .9878015 .9110295
.6883003 .9822513 .9111717
.8446694 .9768764 .9103041
.9564496 .9742716 .906251
.9999999 .9688149 .9079242
0 .9999999 .8990209
0 .9999999 .8984443
0 .9999999 .8974792
0 .9999999 .8947108
.4779713 .9999999 .8943838
.6939196 .9999999 .897127
.8423306 .9999999 .9020876
.9518856 .9999999 .8986207
.9999999 .9999999 .8925803
0 0 .9999999
0 0 .9999999
.2195217 0 .9999999
.4290997 0 .9999999
.6011941 0 .9999999
.7350022 0 .9999999
.8714545 0 .9999999
.9756406 0 .9999999
.9999999 0 .9999999
0 0 .9999999
0 0 .9999999
.1953326 0 .9999999
.4118409 0 .9999999
.5908221 0 .9999999
.7340655 0 .9999999
.8693525 0 .9999999
.975175 0 .9999999
.9999999 0 .9999999
0 .1489707 .9999999
0 .1416723 .9999999
.03568837 .1234644 .9999999
.3859555 .0985984 .9999999
.5711484 .01093899 .9999999
.7273742 0 .9999999
.8649369 0 .9999999
.9753719 0 .9999999
.9999999 0 .9999999
0 .3877824 .9999999
0 .3838035 .9999999
0 .3790527 .9999999
.3406709 .3721744 .9999999
.5552457 .3643613 .9999999
.7216406 .3528196 .9999999
.8571318 .3360558 .9999999
.9723037 .3101882 .9999999
.9999999 .28548 .9999999
0 .5675612 .9999999
0 .5665923 .9999999
0 .5663239 .9999999
.3068047 .5622385 .9999999
.5398321 .5637108 .9999999
.7140792 .5633768 .9999999
.8522193 .5553792 .9999999
.9676419 .5457659 .9999999
.9999999 .5366799 .9999999
0 .7267129 .9999999
0 .7265983 .9999999
0 .7261328 .9999999
.2991523 .7257715 .9999999
.5370992 .7279313 .9999999
.7086357 .7276003 .9999999
.8504962 .7257624 .9999999
.9654741 .7234154 .9999999
.9999999 .7186894 .9999999
0 .8619492 .9999999
0 .8617584 .9999999
0 .8610705 .9999999
.2221687 .8599204 .9999999
.5239874 .8610448 .9999999
.70495 .8639002 .9999999
.8430258 .8671066 .9999999
.9609252 .8645875 .9999999
.9999999 .8614472 .9983556
0 .9776672 .9999999
0 .9776457 .9999999
0 .976955 .9999999
.04939358 .9760129 .9999999
.4928331 .9736069 .9999999
.6989226 .9722635 .9978593
.8477738 .9713141 .9946943
.9618468 .9688646 .9922723
.9999999 .9697575 .9946017
0 .9999999 .99617
0 .9999999 .995859
0 .9999999 .9952239
0 .9999999 .9939407
.4901096 .9999999 .9922782
.7005236 .9999999 .9904249
.857113 .9999999 .984971
.966764 .9999999 .9854106
.9999999 .9995993 .9862635
