luts/Timeless 37.cube
# 3D LUT of size 33x33x33 converted by Filestar.
#   Input:
#     color space: sRGB
#     white point: default (D65)
#     transfer function: default (sRGB)
#   Output:
#     color space: sRGB
#     white point: default (D65)
#     transfer function: default (sRGB)
#   Exposure: -0.01
#   Contrast: -29
#   Whites: -29
#   Blacks: -16
#   Vibrance: +50
LUT_3D_SIZE 33
.00388102 .03519235 0
.00192838 .03453971 0
.00237117 .03559133 0
.01835487 .03257695 .00042603
.05954461 .02584394 .00263469
.09767195 .01594481 .00679087
.1387812 .00152476 .01181482
.1763797 0 .00897137
.2147482 0 .01279413
.2517373 0 .0160909
.2868102 0 .01964161
.3123356 0 .00460078
.3394774 0 0
.3701301 0 0
.4003386 0 0
.4303238 0 0
.4613789 0 0
.4928334 0 0
.5240961 0 0
.5551092 0 0
.5848067 0 0
.6147935 0 0
.6442507 0 0
.6729166 0 0
.7024237 0 0
.7323779 0 0
.7620837 0 0
.7921902 0 0
.8219724 0 0
.8510751 0 0
.8816785 0 0
.912531 0 0
.9426105 0 0
.00084173 .04922789 .00222568
.00126914 .04907991 0
.00195049 .05202647 0
.02453128 .04765172 .00049315
.0595401 .04060247 .00248817
.09685018 .03091573 .0082734
.1369249 .01773402 .01401349
.1737046 .01601959 .00957271
.212334 .01305576 .0109667
.2504423 .01144302 .01100935
.2857486 .01516091 .01238996
.3109345 .02298509 0
.3397727 .025198 0
.3703084 .02020098 0
.4004314 .01347625 0
.4308484 .00900768 0
.4619381 .00001352 0
.4932836 0 0
.5243702 0 0
.5554439 0 0
.5850863 0 0
.6146724 0 0
.6439099 0 0
.6726012 0 0
.7023496 0 0
.7324119 0 0
.7621117 0 0
.7922102 0 0
.8220484 0 0
.8511422 0 0
.8817048 0 0
.9125443 0 0
.9427431 0 0
0 .0680245 .00322677
0 .07084768 0
0 .07110878 0
.02394763 .06753841 .00130576
.055691 .06116846 .00445533
.09265243 .05576142 .00953973
.1369596 .04788897 .01296271
.1739283 .04945137 .00818061
.2118701 .04953089 .00615603
.2497281 .04947265 .00596446
.283892 .05375788 .00417949
.3095209 .05961691 0
.3402315 .05887879 0
.3704546 .05519862 0
.4006453 .04906601 0
.4313782 .04523833 0
.4624864 .03508809 0
.4936183 .02338825 0
.5247774 .00816478 0
.5558228 0 0
.5854024 0 0
.6143834 0 0
.6435441 0 0
.6722491 0 0
.7023826 0 0
.7324505 0 0
.7621434 0 0
.7922347 0 0
.8221347 0 0
.8512213 0 0
.8817345 0 0
.9125626 0 0
.9428908 0 0
0 .09534342 0
0 .09610144 0
.00506958 .09450332 .0003851
.03221919 .09217929 .00189554
.0617858 .08920851 .00399153
.0961716 .08598232 .00712718
.138509 .08587586 .00431006
.1747743 .08787981 .00024452
.2109991 .08923642 0
.2481622 .08930188 0
.2815468 .09091321 0
.3100401 .09284956 0
.3403943 .09158709 0
.3707787 .08925448 0
.4011044 .08466344 0
.4320691 .08220864 0
.4632333 .07449964 0
.4942488 .06677543 0
.5253609 .05539779 0
.5562594 .04127099 0
.5852643 .03948382 0
.6140645 .04804917 0
.64305 .05323939 0
.6721943 .05163316 0
.7024294 .03799497 0
.7325057 .01623946 0
.762256 .00308364 0
.7922779 0 0
.8222579 0 0
.8514073 0 0
.8817654 0 0
.912589 0 0
.9430012 0 0
0 .1247256 0
0 .1251159 0
.00678563 .1238922 0
.03613629 .1219815 0
.06877422 .1204433 0
.1053376 .1206843 0
.1407889 .1230189 0
.1756788 .1249384 0
.2111569 .1261566 0
.2486142 .1259243 0
.2800252 .1250833 0
.3102795 .124681 0
.3406878 .1235697 0
.3712339 .1215995 0
.4021798 .1190701 0
.4332701 .1150291 0
.4643211 .1095102 0
.4951355 .1042921 0
.5261386 .09691543 0
.5566075 .09002591 0
.5847448 .09523357 0
.6136914 .09845269 0
.6426978 .1004441 0
.6722097 .09761102 0
.7024609 .09071302 0
.7325799 .078369 0
.7625168 .06843052 0
.792336 .06247395 0
.8224074 .0511006 0
.8516818 .05076627 0
.881782 .04556255 0
.9125992 .01097588 0
.9431665 0 0
0 .1534122 0
0 .1536916 0
.00847731 .1537445 0
.03702143 .1544092 0
.07898065 .1547758 0
.1114883 .1557777 0
.1465199 .1574691 0
.1780243 .1598215 0
.2124677 .1609386 0
.2489606 .160279 0
.2807544 .1582827 0
.3126606 .1558077 0
.3419515 .1546445 0
.3721387 .1530584 0
.4039355 .1499677 0
.4348605 .1467916 0
.4656968 .1428585 0
.4961883 .1391718 0
.5267564 .1348347 0
.5560314 .1352047 0
.5841078 .1392198 0
.6132923 .1397519 0
.6428464 .1382984 0
.672289 .1365955 0
.7024773 .1328691 0
.7326573 .1249271 0
.7625853 .119269 0
.7925642 .1144587 0
.8224715 .1092004 0
.8520229 .1064862 0
.8818933 .1053976 0
.9126025 .08969713 0
.9433355 .06948882 0
0 .1865359 0
0 .1871543 0
.00832473 .1871245 0
.04359899 .1873923 0
.07888424 .1876942 0
.1155603 .1882346 0
.150092 .1900108 0
.1843361 .1913771 0
.2172979 .1926581 0
.2501882 .1922467 0
.2820343 .1906253 0
.3143598 .1885263 0
.3448873 .1860142 0
.3751872 .1834474 0
.4057425 .1808246 0
.4362772 .1790754 0
.4666921 .1768294 0
.4968215 .1748696 0
.5260113 .1756364 0
.5550309 .176503 0
.583851 .1766651 0
.6134526 .1751534 0
.6429753 .1741917 0
.672436 .1733693 0
.7024903 .1712394 0
.732686 .1658899 0
.7626125 .1619367 0
.7926722 .1579421 0
.8219039 .155397 0
.8523549 .1510716 0
.8821212 .15057 0
.9123993 .1438676 0
.943231 .1307693 0
0 .2186207 0
0 .2188774 0
.00191515 .2191673 0
.0372987 .2195825 0
.07670396 .2200916 0
.1180721 .2204376 0
.155525 .2207717 0
.1928449 .221129 0
.2264464 .2222242 0
.2550114 .2226316 0
.2852923 .2220976 0
.3161932 .2212832 0
.3458877 .2188458 0
.377063 .2163634 0
.4078926 .2140322 0
.4374218 .2125748 0
.4671946 .2120141 0
.4963527 .2126275 0
.5253932 .2127138 0
.5550834 .2113794 0
.584166 .2108291 0
.613861 .209763 0
.6430529 .2094187 0
.6727055 .209018 0
.7025947 .2080546 0
.7326122 .2039135 0
.7625425 .2013986 0
.792604 .1983708 0
.8222947 .1951966 0
.852447 .1929338 0
.8823604 .191351 0
.9122024 .188979 0
.9430578 .1787945 0
0 .2543623 0
0 .2546632 0
0 .2550028 0
.01594152 .2554874 0
.06988958 .2559503 0
.1164951 .256415 0
.1576452 .2568325 0
.1970922 .2569028 0
.2266479 .2570049 0
.2561113 .2574201 0
.2852769 .2580481 0
.315423 .2575383 0
.3464407 .2558135 0
.3770452 .2537523 0
.4077336 .2502571 0
.4383919 .2481766 0
.4679671 .2471838 0
.496769 .2466002 0
.5261307 .2453255 0
.5554535 .2446513 0
.5846673 .2440727 0
.6141322 .2435747 0
.6433725 .2431871 0
.6731699 .2430715 0
.7030339 .2425141 0
.7328121 .2398396 0
.7626393 .237877 0
.7927554 .2354566 0
.8226587 .2326609 0
.8528664 .2305178 0
.8826835 .2291986 0
.9124327 .2272443 0
.9429986 .2198821 0
0 .2922167 0
0 .2923332 0
0 .2925003 0
0 .2928528 0
.06553312 .2930683 0
.1147232 .2934315 0
.1552047 .2935589 0
.1906365 .2930457 0
.2228443 .2926776 0
.2545138 .2921457 0
.2849601 .2924621 0
.3156675 .2918581 0
.3465447 .2907561 0
.3774124 .2894258 0
.4077553 .2875593 0
.4377114 .28524 0
.4679276 .2829335 0
.4977427 .2812617 0
.5263043 .2808709 0
.5545535 .2797688 0
.5842025 .2788738 0
.6141139 .2775843 0
.6439791 .2763904 0
.6737905 .2761911 0
.7036009 .2759051 0
.7333168 .2742978 0
.7629945 .2728637 0
.7929236 .2704838 0
.8230786 .2688921 0
.8532119 .2669523 0
.8832564 .2641147 0
.9130375 .2616121 0
.9427468 .2586748 0
0 .3294308 0
0 .3297431 0
0 .3300874 0
0 .3304147 0
.06770169 .3306207 0
.1085532 .3304043 0
.1472208 .3299389 0
.1832571 .3293916 0
.2165203 .3289182 0
.2498068 .32807 0
.2822596 .3272865 0
.3144729 .3262513 0
.3465991 .3253212 0
.3773133 .3245161 0
.4071373 .3234436 0
.4374946 .3220257 0
.4671597 .3208455 0
.4963813 .3197754 0
.5258633 .3173401 0
.5550983 .3160972 0
.58402 .3154742 0
.6127529 .3149427 0
.6428815 .3140172 0
.6731513 .3129523 0
.7035025 .3115329 0
.733359 .3101232 0
.7635902 .3081437 0
.7932897 .3061965 0
.8235798 .3037941 0
.8536115 .3011607 0
.8834584 .2988625 0
.9134718 .2960512 0
.9428311 .2944117 0
0 .3671678 0
0 .3672625 0
0 .3672565 0
0 .3671643 0
.02771394 .3669101 0
.08863752 .3664497 0
.1341082 .3658434 0
.1739603 .3652544 0
.2105713 .364598 0
.2453381 .3637884 0
.2793679 .3628566 0
.3122663 .3622018 0
.3446194 .3615287 0
.3769345 .3607045 0
.4073704 .3591597 0
.4371311 .3582439 0
.4668231 .3572603 0
.4965192 .3564984 0
.5254727 .3551955 0
.5544384 .3542833 0
.5842029 .3521262 0
.6136434 .3512331 0
.6427558 .3509649 0
.6720787 .3504783 0
.7026593 .3490489 0
.7332372 .3474118 0
.7633547 .3461728 0
.7930208 .3435711 0
.8230618 .3404809 0
.8533751 .3367852 0
.8837254 .332806 0
.9135975 .3307847 0
.9433153 .3289465 0
0 .4025713 0
0 .40258 0
0 .4025898 0
0 .4024878 0
0 .4021727 0
.06344315 .401739 0
.1186207 .4011795 0
.1630242 .4004567 0
.2028934 .3995976 0
.2398488 .3987007 0
.2750686 .3980165 0
.3097132 .3973727 0
.3433452 .3967386 0
.3753698 .3964227 0
.4060899 .3959313 0
.4358009 .3948898 0
.4656512 .3935887 0
.4956765 .3922762 0
.5251833 .3914062 0
.555023 .3907 0
.5840624 .3900248 0
.613439 .3891118 0
.6436152 .3869385 0
.6735882 .3858178 0
.7031615 .3849581 0
.7328075 .3837289 0
.7623763 .3820188 0
.7924607 .3795705 0
.8224906 .3767523 0
.8524909 .3739007 0
.8828503 .3705724 0
.9132487 .3671692 0
.9436575 .3632366 0
0 .4370419 0
0 .4370684 0
0 .4370796 0
0 .4369089 0
0 .4365828 0
.02713299 .4361684 0
.1002395 .4356655 0
.1499579 .4350722 0
.1924487 .4343705 0
.2327494 .4335651 0
.2701435 .4327414 0
.3052058 .4319413 0
.3395008 .4312558 0
.3731277 .4306936 0
.4053855 .4303162 0
.4344798 .4299006 0
.4636242 .4294185 0
.4935272 .428409 0
.5247317 .4271347 0
.5545094 .4266149 0
.5840156 .4262068 0
.613876 .4251907 0
.6438422 .4238162 0
.6740566 .4217767 0
.7045035 .4190064 0
.7334936 .4183213 0
.7622579 .4169687 0
.7915939 .4152066 0
.8215441 .4129025 0
.8515024 .4104676 0
.8820823 .4076053 0
.9125378 .4048752 0
.9429912 .4014122 0
0 .4706602 0
0 .47065 0
0 .4706016 0
0 .4704832 0
0 .4703243 0
0 .4701213 0
.07570525 .4698714 0
.1345544 .4694739 0
.182534 .4689571 0
.2248167 .4682586 0
.2640929 .467438 0
.3007973 .4666483 0
.3343365 .4660732 0
.3677031 .4654981 0
.4008168 .4652015 0
.4326395 .4645018 0
.4623398 .4635845 0
.4911845 .4623308 0
.5228721 .4609737 0
.5531207 .4601569 0
.5839595 .4589306 0
.6147035 .4579656 0
.6449715 .4568418 0
.6744224 .4561852 0
.7040458 .4556729 0
.7331859 .4533898 0
.7630511 .4514059 0
.7917752 .4503165 0
.8206888 .4488775 0
.8505362 .4468973 0
.8813077 .444309 0
.911779 .4419725 0
.9423411 .4388328 0
0 .5038969 0
0 .5038714 0
0 .5037941 0
0 .5036829 0
0 .5035283 0
0 .5033309 0
.05006693 .5031174 0
.1206525 .5028698 0
.1710381 .502579 0
.2155222 .5020819 0
.2565714 .5014383 0
.2930885 .5007793 0
.3279808 .4999371 0
.3618121 .4990934 0
.3954497 .4985155 0
.4286152 .4979321 0
.4595215 .4969269 0
.4913808 .495172 0
.5211744 .4939249 0
.5513567 .4931783 0
.582324 .4922819 0
.6128641 .4915029 0
.6435389 .4907557 0
.6737519 .490464 0
.7032577 .489747 0
.7331672 .4887167 0
.7623186 .487219 0
.7921419 .4847404 0
.8216667 .4831544 0
.8512754 .4818642 0
.8809186 .4804125 0
.9111429 .4786116 0
.9417058 .4757353 0
0 .5365278 0
0 .536463 0
0 .536395 0
0 .5362973 0
0 .5361663 0
0 .535999 0
.02325988 .5358158 0
.1084164 .5355725 0
.1626309 .5352913 0
.2077142 .5350074 0
.2466777 .5348004 0
.2846907 .5344352 0
.3215573 .5337761 0
.3569185 .5329981 0
.3914104 .5324286 0
.4252848 .5318106 0
.4586527 .5306506 0
.4907681 .5290893 0
.5216075 .5277433 0
.5504817 .5272707 0
.5802165 .5268241 0
.6115287 .5260051 0
.642252 .5252488 0
.672423 .524124 0
.7030892 .5231729 0
.7332295 .5227026 0
.7626576 .5216526 0
.7914802 .5204702 0
.821271 .5180826 0
.852455 .5155002 0
.8825017 .5140278 0
.9119582 .5126777 0
.941258 .5113878 0
0 .5693764 0
0 .5693246 0
0 .569266 0
0 .5691819 0
0 .5690688 0
0 .5689245 0
0 .5687521 0
.09388281 .5685531 0
.1526659 .5683114 0
.1982427 .5681118 0
.2387458 .5679199 0
.2767265 .567701 0
.3131867 .5674261 0
.3499804 .5668428 0
.386938 .5662622 0
.4226544 .5655472 0
.4580556 .5646476 0
.4896283 .563503 0
.5196045 .5624969 0
.5499005 .5616577 0
.5796323 .5610868 0
.6091633 .5606651 0
.6395504 .5597104 0
.6707709 .5585477 0
.701681 .557427 0
.7324911 .5562615 0
.7625205 .5557227 0
.7919742 .5550814 0
.8211258 .5538832 0
.8512889 .5512525 0
.8818352 .5489465 0
.9129292 .5466678 0
.9421964 .545472 0
0 .6022124 0
0 .602168 0
0 .6021178 0
0 .6020461 0
0 .6019497 0
0 .6018267 0
0 .6016766 0
.07168066 .6015237 0
.1380623 .6013443 0
.1874136 .6011605 0
.2298408 .6009906 0
.2692202 .6007912 0
.3070654 .600545 0
.3438933 .6001582 0
.3803735 .5996597 0
.4171652 .599098 0
.4522329 .5986669 0
.4861774 .5982875 0
.5172336 .5974643 0
.547738 .5962912 0
.5780075 .5956038 0
.6068385 .5950204 0
.6366956 .5942805 0
.6681575 .5931396 0
.6998343 .5919172 0
.7306647 .5909619 0
.7612852 .5897602 0
.7917506 .5887601 0
.8215762 .5881698 0
.8513598 .5868332 0
.8814075 .584495 0
.9109772 .5822185 0
.940944 .5801355 0
0 .6352209 0
0 .6351855 0
0 .6351454 0
0 .6350879 0
0 .6350064 0
0 .6349022 0
0 .6347736 0
.03133716 .6346198 0
.1187999 .6344466 0
.1729842 .6343021 0
.2196802 .6341613 0
.260638 .6339849 0
.2988246 .633889 0
.3361482 .6337177 0
.3724721 .6334775 0
.4078735 .633226 0
.443831 .6327645 0
.4789495 .6323551 0
.5127986 .6317971 0
.5438066 .6309091 0
.5752558 .630153 0
.6060638 .6292248 0
.6359191 .6284516 0
.6656808 .6277388 0
.6972104 .6265882 0
.7284844 .625515 0
.7601832 .6241702 0
.7910914 .6226107 0
.821569 .6213601 0
.851436 .6203744 0
.880792 .6195535 0
.9100572 .6178262 0
.9394524 .6158853 0
0 .6680421 0
0 .6679862 0
0 .667923 0
0 .6679816 0
0 .6679218 0
0 .6678647 0
0 .6678064 0
0 .6677405 0
.09265029 .6676704 0
.1559502 .667595 0
.2052484 .6675091 0
.2488119 .667392 0
.2901461 .6672032 0
.3290604 .6670079 0
.365553 .6668165 0
.4006063 .6666103 0
.4356475 .6663952 0
.471204 .6660579 0
.505636 .6655598 0
.5391489 .6649044 0
.5713311 .6641263 0
.603124 .6632994 0
.6344039 .6625654 0
.6645771 .6621811 0
.6944625 .6613271 0
.7258314 .660285 0
.7573738 .6588889 0
.7895425 .6571106 0
.8199508 .6557899 0
.8497893 .6547087 0
.8802391 .6533231 0
.9093069 .6531101 0
.9386145 .6522132 0
0 .7017747 0
0 .7017739 0
0 .7017733 0
0 .7017722 0
0 .7017706 0
0 .7017687 0
0 .7017664 0
0 .7017406 0
.02109429 .7016901 0
.1223215 .7016168 0
.1862514 .7012431 0
.2345941 .700964 0
.2775305 .7006658 0
.3176982 .7003751 0
.3556456 .7001185 0
.3914216 .6998867 0
.4264885 .6996728 0
.4621512 .6994627 0
.4977933 .6991692 0
.5335717 .6987402 0
.5672278 .6979036 0
.5997252 .69709 0
.6311893 .6963248 0
.6621812 .6954823 0
.6929015 .6949977 0
.7237875 .694575 0
.755154 .6932157 0
.7859168 .6919941 0
.8182878 .6903936 0
.8483638 .6893609 0
.8780903 .6884866 0
.9079069 .6877577 0
.9383042 .6869239 0
0 .7349962 0
0 .7349795 0
0 .7349606 0
0 .7349336 0
0 .7348949 0
0 .7348431 0
0 .7347787 0
0 .7347572 0
0 .7346533 0
.08833427 .7345065 0
.1620766 .7343088 0
.2165927 .7340636 0
.2635086 .7338105 0
.304886 .7335372 0
.3464854 .7332032 0
.3846358 .7329859 0
.4211518 .732734 0
.4576178 .7324601 0
.493653 .7321713 0
.5289434 .7318109 0
.5639218 .731316 0
.5966039 .7305435 0
.6289318 .729764 0
.661268 .7289333 0
.6922849 .7282653 0
.722743 .7276377 0
.7533498 .7271214 0
.7840133 .7262887 0
.8145095 .7253701 0
.8452642 .7246238 0
.8762546 .7234727 0
.9067674 .7223986 0
.9377406 .7213043 0
0 .768044 0
0 .7680368 0
0 .768029 0
0 .7680007 0
0 .767961 0
0 .7679102 0
0 .7678459 0
0 .7677471 0
0 .767611 0
.03169515 .7674553 0
.1341815 .7672747 0
.1975875 .7671077 0
.2492414 .7669289 0
.2943269 .7667921 0
.3367509 .766605 0
.3768068 .7664024 0
.4151669 .766182 0
.45257 .76588 0
.4892494 .7655452 0
.5244777 .7652568 0
.5588081 .7649826 0
.5925855 .764367 0
.6259726 .7634902 0
.6585293 .7626407 0
.6906866 .7616903 0
.721697 .7610202 0
.7521915 .7606126 0
.7825248 .7603893 0
.8131462 .7595568 0
.8438181 .7582849 0
.8737287 .7579129 0
.906256 .7565929 0
.9369845 .7556363 0
0 .8010798 0
0 .8010821 0
0 .8010845 0
0 .8010882 0
0 .801093 0
0 .801098 0
0 .8010672 0
0 .8010436 0
0 .8010156 0
0 .8009834 0
.1060357 .8009208 0
.1790079 .8008232 0
.2348187 .8006889 0
.2839536 .8004875 0
.3277722 .8002641 0
.3684345 .8000234 0
.4070455 .799771 0
.4447799 .7994643 0
.4814334 .7991336 0
.5173608 .7987869 0
.5538546 .7982808 0
.5879416 .798031 0
.6214823 .7973601 0
.6547212 .7966375 0
.6876687 .7958076 0
.7198339 .7949192 0
.7502819 .7944296 0
.7807419 .793878 0
.8114211 .7934316 0
.8425962 .7927681 0
.8740506 .7915545 0
.9042753 .7912691 0
.9361023 .7905117 0
0 .8349273 0
0 .8349258 0
0 .8349242 0
0 .8349218 0
0 .8349186 0
0 .8349143 0
0 .8349068 0
0 .8348551 0
0 .8348083 0
0 .8347546 0
.05467587 .8346931 0
.1527987 .8346102 0
.2143291 .834478 0
.2651192 .834301 0
.3119601 .8340316 0
.3560534 .8337229 0
.3966519 .8333547 0
.4356389 .8330161 0
.4742139 .832692 0
.5110316 .8323929 0
.5471135 .8320574 0
.5825927 .8317176 0
.6171598 .831346 0
.6507718 .8305396 0
.6840725 .8298616 0
.7164866 .8292794 0
.7479133 .8287258 0
.778215 .8284079 0
.8094497 .8279716 0
.841087 .8275496 0
.8727183 .8269916 0
.903941 .8257911 0
.9349021 .8251883 0
0 .8688152 0
0 .8688138 0
0 .8688122 0
0 .8688098 0
0 .8688067 0
0 .8688028 0
0 .86879 0
0 .8687342 0
0 .8686576 0
0 .8685499 0
0 .8683941 0
.1119857 .8681917 0
.1874335 .8680503 0
.2441028 .8679742 0
.29357 .867859 0
.340136 .8676078 0
.3851067 .8673561 0
.426617 .8670873 0
.4661025 .8667957 0
.5043061 .8664824 0
.5415161 .8661469 0
.5775217 .8659833 0
.6125168 .8657414 0
.6465635 .8653166 0
.6798901 .864574 0
.7136241 .8638753 0
.7459849 .8632433 0
.7777517 .8627039 0
.8088092 .8622884 0
.8403603 .8620144 0
.872073 .8616145 0
.9035318 .8613281 0
.9348477 .8603004 0
0 .9022197 0
0 .9022108 0
0 .9022007 0
0 .9021863 0
0 .9021673 0
0 .9021426 0
0 .9020993 0
0 .9020177 0
0 .9019221 0
