luts/Timeless_45.cube
# 3D LUT of size 33x33x33 converted by Filestar.
#   Input:
#     color space: sRGB
#     white point: default (D65)
#     transfer function: default (sRGB)
#   Output:
#     color space: sRGB
#     white point: default (D65)
#     transfer function: default (sRGB)
#   Exposure: +0.32
#   Contrast: -38
#   Whites: -8
#   Blacks: -40
#   Vibrance: +18
#   Saturation: +6
LUT_3D_SIZE 33
.02136229 .02735993 .00183079
.02136229 .02735993 .00183079
.02136229 .02735993 .00183079
.02136229 .02735993 .00183079
.02131132 .02735486 .00205671
.07442454 .01705392 .00674325
.1245337 .00152838 .00955328
.1660256 0 .01255073
.2128017 0 .01172002
.2586359 0 0
.3025704 0 0
.3459495 0 0
.3849519 0 0
.4218131 0 0
.4580527 0 0
.4937788 0 0
.5266055 0 0
.5609639 0 0
.5945544 0 0
.6278985 0 0
.6597873 0 0
.690937 0 0
.7217544 0 0
.7536004 0 0
.7839378 0 0
.8135481 0 0
.8423308 0 0
.8705627 0 0
.8982569 0 0
.9251467 0 0
.9500672 0 0
.9739963 0 0
.9973329 0 0
.02136229 .02735993 .00183079
.02136229 .02735993 .00183079
.02133554 .02735773 .00194417
.02117607 .02734341 .00265531
.0227362 .02742271 .00140749
.08342818 .01479335 .00697518
.1295373 0 .00792232
.1708078 0 .0140109
.2189327 0 .00668054
.2632702 0 0
.3080406 0 0
.3485096 0 0
.3850583 0 0
.4218016 0 0
.4580158 0 0
.4924555 0 0
.5266018 0 0
.5609794 0 0
.5945259 0 0
.6278391 0 0
.6597696 0 0
.6909205 0 0
.7217358 0 0
.7535536 0 0
.7839144 0 0
.8135026 0 0
.8423026 0 0
.8705633 0 0
.8982829 0 0
.9251712 0 0
.9501311 0 0
.973945 0 0
.9973838 0 0
.02114303 .02734077 .00280458
.02095019 .02732378 .00366677
.02090383 .0273199 .00387047
.02133977 .02736514 .00195966
.03641973 .0253333 .00169926
.09235472 .01261745 .00666044
.1360651 0 .00669122
.1774763 0 .01592155
.2263779 0 .00433152
.2699646 0 0
.3110556 0 0
.3484538 0 0
.3854083 0 0
.4219826 0 0
.45674 0 0
.492243 0 0
.5266252 0 0
.5609968 0 0
.5945109 0 0
.6277276 0 0
.6597495 0 0
.6908952 0 0
.7217146 0 0
.7535085 0 0
.7838798 0 0
.8134443 0 0
.8422762 0 0
.8705606 0 0
.8983163 0 0
.9251428 0 0
.9502034 0 0
.9739863 0 0
.9974183 0 0
.02160666 .02734388 .00474977
.02192895 .02737882 .00348347
.02227784 .02741833 .00212616
.0208321 .02782992 .00063125
.0547516 .02216911 .00321431
.1040136 .0097945 .00717335
.1481661 0 .01119062
.1891376 0 0
.2312144 0 0
.271612 0 0
.3112848 0 0
.3486634 0 0
.385395 0 0
.4211774 0 0
.4561477 .00512785 0
.4917037 .01503708 0
.5266523 .01914025 0
.5610014 .01660804 0
.5945144 .01288518 0
.6276116 .00835993 0
.6597211 .00849185 0
.6908616 .00735549 0
.7216915 .00719834 0
.7534687 0 0
.7838368 0 0
.8133714 0 0
.842225 0 0
.8706146 0 0
.8983431 0 0
.9251112 0 0
.9503008 0 0
.9740537 0 0
.9974619 0 0
0 .05344861 0
0 .05514397 0
0 .05714376 0
.0041818 .05830048 0
.06167927 .0553757 0
.1062186 .05557574 0
.1482578 .06446533 0
.1901043 .05935222 0
.2315448 .05101523 0
.2722484 .05096577 0
.309772 .0577796 0
.3473145 .05989925 0
.384672 .06214284 0
.4208896 .06462407 0
.4561467 .06917974 0
.4917464 .07651701 0
.5266995 .08200983 0
.5610014 .0806609 0
.5945041 .07579211 0
.6276494 .07374384 0
.6599593 .07301392 0
.6908404 .07505735 0
.7217655 .07494482 0
.7534223 .06681485 0
.7837427 .05753145 0
.8133439 .04565745 0
.8422277 .03035637 0
.8706509 .01309654 0
.89838 0 0
.9250529 0 0
.9503446 0 0
.9741252 0 0
.9976096 0 0
0 .1117096 0
0 .1121622 0
0 .111306 0
.01052388 .108019 0
.07347266 .105885 0
.1162314 .1070428 0
.155617 .1077343 0
.19225 .108267 0
.231344 .1089879 0
.2713244 .1100363 0
.309844 .111445 0
.3469966 .1130544 0
.3844143 .1144563 0
.4207295 .1161028 0
.4565561 .1177658 0
.4917499 .122843 0
.5267265 .1285533 0
.5610781 .1255243 0
.5944606 .1225465 0
.6275679 .1223522 0
.6597149 .1231698 0
.6906969 .1242815 0
.7223213 .1234686 0
.7533775 .1201712 0
.7837182 .1145262 0
.8133222 .1080092 0
.8422053 .1005008 0
.8706568 .09185561 0
.8983847 .08256426 0
.9249487 .07588533 0
.9503503 .07124326 0
.974196 .06680097 0
.9978152 .05823101 0
0 .15163 0
0 .1515699 0
0 .1499168 0
.02029936 .1494842 0
.07676848 .1502694 0
.1175742 .1505356 0
.1556278 .1506472 0
.19141 .1523953 0
.2322862 .1532057 0
.2721586 .1537895 0
.3109162 .1542507 0
.3474759 .1561256 0
.384341 .1570992 0
.4213175 .1586028 0
.4569443 .160066 0
.4915602 .1625285 0
.5261943 .1668333 0
.5610855 .164828 0
.5945615 .1631906 0
.6275101 .163812 0
.6595833 .1643854 0
.6907556 .1648218 0
.7224591 .1655901 0
.7530652 .1648593 0
.7836443 .1597942 0
.8132567 .1551092 0
.842201 .1499773 0
.8706412 .1445682 0
.8983135 .1387173 0
.9246214 .136286 0
.9501368 .1339483 0
.9743082 .1295655 0
.9981945 .1254313 0
0 .1884696 0
0 .190276 0
0 .191111 0
.00596619 .1911853 0
.06512213 .1913731 0
.1112093 .1915866 0
.1557808 .1911259 0
.1954496 .1914851 0
.2332776 .1930826 0
.2731815 .1935701 0
.3118713 .1938221 0
.3492128 .1953236 0
.3857302 .1972005 0
.4215119 .1984668 0
.4571443 .1984984 0
.4920511 .198774 0
.5263964 .2010244 0
.5606771 .2007709 0
.5946361 .2008765 0
.6275776 .2017452 0
.6596297 .2021973 0
.6910173 .2025841 0
.7226959 .2041788 0
.7532187 .2039075 0
.7837536 .2002677 0
.8133528 .1965751 0
.8423014 .1929572 0
.8707307 .188825 0
.8981991 .185403 0
.9243719 .1838799 0
.949864 .1817507 0
.9747363 .1776983 0
.9988391 .1738276 0
0 .2303514 0
0 .2304344 0
0 .2312467 0
0 .2328026 0
.05493011 .2330131 0
.1105305 .2327603 0
.1556396 .2326181 0
.1967492 .2325648 0
.2360491 .232619 0
.2727794 .2336017 0
.3128259 .2333572 0
.3508799 .2340148 0
.386753 .2356778 0
.4222707 .2364389 0
.4576673 .2356043 0
.4923573 .2361581 0
.5262934 .2369321 0
.5603158 .2366712 0
.5944502 .2367343 0
.6274462 .2367017 0
.65977 .2373993 0
.6915021 .238348 0
.7234452 .2386973 0
.7534863 .2407417 0
.78401 .2379502 0
.8134252 .2354225 0
.8424196 .2324745 0
.8708079 .22935 0
.8980138 .2275513 0
.9243528 .226063 0
.9501471 .223298 0
.9757363 .219507 0
.9993303 .2171821 0
0 .2700905 0
0 .2701363 0
0 .2706781 0
.00878949 .2704391 0
.0592602 .2712409 0
.1119361 .2710049 0
.1548176 .2708518 0
.194794 .2704526 0
.2362103 .2706347 0
.2760313 .2705742 0
.3135425 .2712261 0
.3520824 .2713448 0
.3876691 .2725525 0
.4234686 .2725744 0
.4587737 .2719192 0
.4932272 .2724179 0
.5266418 .2735137 0
.5600271 .2738459 0
.5936648 .2735817 0
.6271705 .2734217 0
.659537 .2734082 0
.6917834 .2732316 0
.7235093 .2736118 0
.7542987 .2744177 0
.7838171 .275129 0
.8135725 .272509 0
.8427247 .2699526 0
.8710312 .2681006 0
.8980222 .2669355 0
.924183 .2659963 0
.9504064 .2625446 0
.9758875 .2601356 0
.9993799 .2590096 0
0 .3092786 0
0 .3095213 0
0 .3095371 0
0 .3092979 0
.05866364 .3089766 0
.1079243 .3090698 0
.1511881 .30923 0
.1965317 .3086464 0
.238025 .3081871 0
.2771999 .3078062 0
.3155643 .3078013 0
.3531987 .3076127 0
.3891758 .3078616 0
.4251787 .3073533 0
.4608145 .3068949 0
.4949527 .3079027 0
.5281877 .3090503 0
.5618299 .3094846 0
.5947719 .3094732 0
.6279116 .3090725 0
.6606483 .3085841 0
.693488 .3082281 0
.7248889 .3083638 0
.7554678 .3088166 0
.7847543 .3101941 0
.8137354 .3097348 0
.8425915 .3081798 0
.8708073 .3064211 0
.8974062 .3062233 0
.9235319 .3055214 0
.9497846 .303717 0
.9752179 .3011773 0
.9993159 .29942 0
0 .3465735 0
0 .3469673 0
0 .3468615 0
0 .3467008 0
.0369237 .346476 0
.1044588 .3460883 0
.1507094 .3464299 0
.1965105 .3462047 0
.2392388 .3455741 0
.2802997 .344877 0
.3193662 .3440455 0
.356259 .3436316 0
.3923357 .3432397 0
.4266223 .3437354 0
.4617071 .3439911 0
.4962208 .3442856 0
.5300828 .3445995 0
.5637158 .3449859 0
.5963696 .3454731 0
.6292203 .3453706 0
.6615247 .3451117 0
.6945447 .3438331 0
.7257019 .3440186 0
.7560971 .344636 0
.7856294 .3449272 0
.8142173 .3458495 0
.8426291 .3457139 0
.8697894 .3459881 0
.8967744 .3453963 0
.9237976 .3436635 0
.9501113 .3413365 0
.975483 .3391855 0
.9995287 .3376264 0
0 .3831592 0
0 .3833921 0
0 .3832982 0
0 .3831449 0
.02442405 .38292 0
.103626 .3826779 0
.1561266 .3824846 0
.1981762 .382792 0
.2418464 .3823208 0
.2823023 .3818067 0
.3207602 .3811499 0
.3577014 .3802417 0
.3936265 .3793118 0
.4287612 .3790119 0
.4635758 .3793664 0
.4974613 .3795782 0
.5307736 .3801727 0
.5647941 .3804307 0
.5976638 .3811266 0
.6292355 .3818667 0
.6621523 .3817193 0
.6941612 .3813685 0
.7256629 .3804094 0
.7562285 .3801044 0
.7858585 .3806317 0
.8150866 .3807318 0
.8434355 .3809651 0
.8705152 .3813896 0
.8973594 .3816686 0
.9240785 .3802356 0
.9502923 .3783198 0
.9755524 .3762351 0
.999552 .3748317 0
0 .4193771 0
0 .4195407 0
0 .4194683 0
0 .419365 0
.01163551 .4192265 0
.09768393 .4190506 0
.1519221 .4188729 0
.1990536 .4186334 0
.2410059 .4186169 0
.2812415 .4179947 0
.3200276 .4172274 0
.3573619 .4164087 0
.3937939 .4154229 0
.4294237 .4144898 0
.4635364 .4143606 0
.4973469 .4145968 0
.531081 .4151014 0
.5643001 .4159426 0
.5980136 .4163051 0
.6298225 .4169436 0
.6627763 .4169139 0
.694715 .4167405 0
.725808 .4165954 0
.7565605 .4157548 0
.7862496 .4155143 0
.8155175 .4156646 0
.8438274 .4159044 0
.8715191 .4163797 0
.8985293 .4155031 0
.9248433 .4147101 0
.9505687 .4137123 0
.9756014 .4121557 0
.9995138 .4112376 0
0 .4549077 0
0 .4548486 0
0 .4547836 0
0 .4547196 0
0 .4546041 0
.08471625 .4544613 0
.1451263 .4541636 0
.1938648 .45371 0
.2386805 .4531253 0
.277148 .4531361 0
.3169736 .4524542 0
.3554649 .4516476 0
.3925549 .4507862 0
.428544 .4499552 0
.4634939 .4491362 0
.4975361 .4491315 0
.5311981 .4496205 0
.5647819 .4498062 0
.597646 .4506034 0
.6305588 .4513406 0
.6625869 .4517314 0
.6949522 .4515103 0
.7259192 .4510921 0
.7563626 .4507763 0
.7865934 .44994 0
.8159123 .4499222 0
.8442674 .4504417 0
.8722101 .4499409 0
.8995231 .4492572 0
.9257649 .4487144 0
.9510371 .4482067 0
.9756508 .4476441 0
.9994517 .4471395 0
0 .4894684 0
0 .4894025 0
0 .4892797 0
0 .4891056 0
0 .4888331 0
.06254757 .4885275 0
.1339374 .4882194 0
.1868159 .4878646 0
.2333756 .4873905 0
.276175 .4870706 0
.3150636 .4869218 0
.3530485 .4863987 0
.3905449 .4856479 0
.4270001 .4848328 0
.4630294 .4840061 0
.4976903 .4834906 0
.5314984 .4833217 0
.5645365 .4838363 0
.5983669 .4841411 0
.6312004 .4847588 0
.6619191 .4857409 0
.6939143 .4855023 0
.7253954 .4850558 0
.7561944 .4849572 0
.7866175 .4848779 0
.816169 .4845944 0
.8446866 .4844807 0
.8726583 .4836745 0
.9000965 .4827375 0
.9267169 .4820046 0
.9517516 .4817737 0
.9763137 .4813075 0
.999544 .4813341 0
0 .5228463 0
0 .5227262 0
0 .5225909 0
0 .5223969 0
0 .522165 0
.04763117 .5218375 0
.1267537 .5215608 0
.1813568 .5213169 0
.2280475 .5210264 0
.2714499 .5206954 0
.3133775 .5202061 0
.352068 .5198852 0
.389239 .5194569 0
.4261933 .5188105 0
.462593 .5181314 0
.4978554 .5174771 0
.5317767 .5171944 0
.5648074 .5172002 0
.5982799 .5176645 0
.6308606 .518263 0
.6620132 .5189317 0
.6926873 .5195532 0
.7242818 .5195632 0
.7554358 .5195708 0
.7858444 .5199605 0
.8155504 .5197737 0
.8448899 .518728 0
.8730041 .5177504 0
.9002796 .5168875 0
.9268268 .5156821 0
.9526168 .514728 0
.9770738 .5148794 0
.9999613 .515644 0
0 .5561669 0
0 .5560953 0
0 .5560213 0
0 .5559216 0
0 .5557883 0
.00746288 .5556196 0
.1092674 .5554063 0
.1699223 .5551312 0
.2207034 .5547692 0
.2658535 .5545177 0
.3083293 .5542836 0
.3503681 .5536252 0
.3883509 .5534222 0
.4252357 .5532321 0
.4616034 .5527321 0
.4969348 .5522277 0
.530867 .5517638 0
.5647309 .5514011 0
.5979413 .551419 0
.6301588 .5517973 0
.6619636 .5524765 0
.6927223 .5530553 0
.7235535 .553826 0
.7542765 .5538187 0
.7848711 .5538993 0
.8149773 .5536417 0
.8444827 .553037 0
.8731971 .5519771 0
.9007139 .5508313 0
.9270878 .5496296 0
.9525203 .548986 0
.9770185 .5486081 0
.9999999 .54828 0
0 .5899666 0
0 .5898971 0
0 .5898186 0
0 .5897063 0
0 .589556 0
0 .5893603 0
.08096258 .5891111 0
.1556879 .5888181 0
.2114751 .5884858 0
.2590991 .588067 0
.3034401 .5876867 0
.3448264 .5874417 0
.3875321 .5866203 0
.4244498 .5864938 0
.459976 .5863763 0
.4951808 .585923 0
.5298525 .5854906 0
.5637192 .5851004 0
.5973143 .585107 0
.6298425 .5852545 0
.6615527 .585741 0
.6926206 .5864194 0
.7235139 .5866569 0
.7538119 .5870726 0
.7845668 .5867612 0
.814663 .5863784 0
.8441006 .5859179 0
.8729167 .5851222 0
.9004576 .5843376 0
.926385 .5836464 0
.9519122 .5825052 0
.9767631 .5818282 0
.9999999 .5805535 0
0 .6230258 0
0 .6229599 0
0 .6228859 0
0 .6227797 0
0 .6226458 0
0 .6224675 0
.03126222 .6222492 0
.1335581 .6219894 0
.1961052 .6216967 0
.2476607 .6213515 0
.295048 .6211195 0
.3394197 .6208904 0
.3826919 .6201191 0
.4221144 .6195772 0
.4582015 .6194326 0
.4937442 .6193053 0
.528875 .6189788 0
.5627297 .6186954 0
.5964303 .6183396 0
.6292464 .6186368 0
.6612364 .6187626 0
.6925409 .6188328 0
.723742 .6190032 0
.7547374 .6186898 0
.7848203 .6187353 0
.8146883 .618479 0
.8435661 .6180995 0
.8715138 .6176567 0
.8985335 .6172649 0
.9252198 .6164797 0
.951147 .6156689 0
.9757834 .6141325 0
.9999999 .6130179 0
0 .6551418 0
0 .6551203 0
0 .6550962 0
0 .6550616 0
0 .655018 0
0 .6548921 0
0 .6547242 0
.100943 .6544679 0
.1760316 .6542073 0
.2334179 .6539352 0
.2831673 .6537222 0
.3295718 .6534786 0
.3728479 .6533148 0
.4172348 .6524527 0
.4561691 .6521248 0
.4922461 .6521338 0
.5270215 .6521973 0
.5610622 .6521438 0
.5946673 .6518369 0
.6283661 .6514904 0
.6606756 .6514629 0
.6926554 .6512844 0
.7244442 .6508742 0
.7546967 .6507559 0
.7844813 .6505688 0
.8137013 .65043 0
.8422425 .6502028 0
.8703392 .6492011 0
.8974659 .6486877 0
.9240689 .6481425 0
.9495983 .6474189 0
.9749517 .6469473 0
.9993171 .6460863 0
0 .6862537 0
0 .6862334 0
0 .6862108 0
0 .6861781 0
0 .6861327 0
0 .6860848 0
0 .6860364 0
.05851845 .686038 0
.1533567 .6860464 0
.2175521 .6858962 0
.2702227 .6857504 0
.3191105 .6855611 0
.3649231 .685364 0
.4068579 .6852141 0
.4510547 .6845715 0
.490155 .6842932 0
.5258458 .6842596 0
.5595232 .6844469 0
.5931585 .6842951 0
.6261361 .6839386 0
.6594122 .6833354 0
.692031 .6829737 0
.7239373 .6825083 0
.7541734 .6820285 0
.7835625 .6816225 0
.8128451 .6813599 0
.8419945 .6803272 0
.8700845 .6798474 0
.8973436 .6792422 0
.9230633 .6792606 0
.9485789 .678909 0
.9738892 .6782203 0
.9989647 .6771612 0
0 .7164442 0
0 .7165178 0
0 .7167508 0
0 .7167457 0
0 .7167386 0
0 .7167341 0
0 .716736 0
.01629852 .7167382 0
.1362636 .716747 0
.2032699 .7167875 0
.2575 .716906 0
.3087349 .7170822 0
.3556038 .7169189 0
.4000823 .7167248 0
.4453225 .7159847 0
.4847457 .7157633 0
.5217738 .7156174 0
.5569315 .7156403 0
.5906289 .7156686 0
.6249636 .7149863 0
.6590616 .7140343 0
.6921791 .71324 0
.7246196 .7125543 0
.7564776 .7116585 0
.7866755 .7104092 0
.8156268 .7100086 0
.843691 .709756 0
.8709937 .7095732 0
.8971211 .7096503 0
.922466 .7098088 0
.9479567 .709349 0
.9734818 .7086229 0
.9982857 .7079072 0
0 .7463595 0
0 .746341 0
0 .7463205 0
0 .7462912 0
0 .746252 0
0 .7464077 0
0 .7467027 0
0 .7467111 0
.1182754 .7467211 0
.1935043 .7467165 0
.2504583 .7467343 0
.2999105 .746856 0
.3476312 .7469752 0
.3940885 .7468166 0
.4371477 .7465031 0
.4796292 .7457325 0
.5180102 .7453586 0
.5552937 .7448735 0
.59076 .7445214 0
.6251375 .7443632 0
.6593215 .7435995 0
.6933202 .7425595 0
.7262957 .7413906 0
.7588397 .7402247 0
.7890981 .7393216 0
.8170594 .7392906 0
.8438694 .7396044 0
.8702222 .7399327 0
.8960115 .7399092 0
.9213874 .739718 0
.9475415 .7391227 0
.9730986 .7383959 0
.9979402 .7377821 0
0 .7755652 0
0 .7755271 0
0 .7754843 0
0 .7754247 0
0 .7753657 0
0 .7752939 0
0 .7751784 0
0 .7753541 0
.1089444 .7753496 0
.188935 .7752712 0
.247989 .7752658 0
.2986365 .775393 0
.3474619 .7751655 0
.3919995 .775085 0
.4340217 .775036 0
.4765083 .7745492 0
.5152869 .7740494 0
.5530801 .7735537 0
.5898291 .773149 0
.6258705 .7726609 0
.6606008 .7722219 0
.6938658 .7716549 0
.7268559 .7706087 0
.758795 .7698959 0
.7889726 .7694148 0
.8160747 .7697123 0
.8429207 .7696434 0
.8689448 .7696093 0
.8944297 .7696483 0
.9204103 .7692751 0
.9471702 .7682219 0
.9729283 .7678407 0
.9978932 .7674717 0
0 .8035204 0
0 .8034881 0
0 .8034488 0
0 .8033885 0
0 .8033565 0
0 .8032944 0
0 .8032185 0
0 .8031278 0
.110976 .8030359 0
.187021 .8033018 0
.2470056 .80326 0
.297914 .8032441 0
.3448689 .8031915 0
.3897835 .8030834 0
.4321037 .802938 0
.4731173 .8027103 0
.5140499 .8021573 0
.5530574 .801329 0
.5899156 .800909 0
.6251159 .800765 0
.6590999 .8006619 0
.6920679 .8007405 0
.7252497 .8002658 0
.756103 .7999172 0
.7859274 .7994804 0
.814626 .7989859 0
.8413409 .7988291 0
.8674785 .7986951 0
.8931729 .7985092 0
.9198736 .7981489 0
.9463847 .7977384 0
.9725729 .796963 0
.9978134 .7964454 0
0 .8313802 0
0 .8313611 0
0 .8313319 0
0 .8312891 0
0 .8312299 0
0 .8311539 0
0 .8310602 0
0 .8309456 0
.0938476 .830812 0
.1821097 .8306687 0
.2429744 .8309228 0
.2959619 .8308198 0
.3432769 .8307037 0
.3894705 .8304199 0
.4329528 .8297836 0
.4727092 .8297294 0
.5110668 .8296872 0
.5499679 .8292976 0
.5863299 .8291752 0
.6219897 .8290045 0
.6561035 .8290175 0
.689269 .8290141 0
.7212839 .8289342 0
.7527095 .8285637 0
.782993 .8280327 0
.8118878 .827587 0
.8403012 .8272352 0
.8673014 .8270754 0
.8936858 .8268346 0
.919665 .8265079 0
.9460388 .8260092 0
.9718264 .8256813 0
.997353 .8251756 0
0 .8588422 0
0 .8588104 0
0 .8587751 0
0 .8587269 0
0 .858664 0
0 .8585905 0
0 .8585048 0
0 .8584146 0
.07337672 .8582678 0
