luts/Timeless 12.cube
# 3D LUT of size 33x33x33 converted by Filestar.
#   Input:
#     color space: sRGB
#     white point: default (D65)
#     transfer function: default (sRGB)
#   Output:
#     color space: sRGB
#     white point: default (D65)
#     transfer function: default (sRGB)
#   Exposure: +0.74
#   Contrast: +23
#   Whites: +28
#   Blacks: -30
#   Vibrance: +5
LUT_3D_SIZE 9
0 .00121253 .00968886
.1478203 0 .00729621
.337044 0 0
.5051011 0 0
.6517218 0 0
.7873596 0 0
.898236 0 0
.988615 0 0
.9999999 0 0
0 .1446457 0
.168212 .1484181 0
.3407929 .1538107 0
.5088902 .1561591 0
.6551079 .1640978 0
.7903332 .1547292 0
.9000567 .1435684 0
.9893282 .1424776 0
.9999999 .1450492 0
0 .3388154 0
.1726853 .3389677 0
.3486811 .3387643 0
.5119638 .3459661 0
.6597973 .3473237 0
.7933853 .3436222 0
.9023065 .3457536 0
.9911314 .3501936 0
.9999999 .3508653 0
0 .5118733 0
.1749863 .5118845 0
.3556088 .5119204 0
.5162395 .5118031 0
.6635415 .5153039 0
.7950526 .5182077 0
.9042299 .5200471 0
.9933121 .5225421 0
.9999999 .5209138 0
0 .6649812 0
.1498639 .6654152 0
.3524897 .6663669 0
.5212098 .6671981 0
.6708722 .6670721 0
.7943658 .6692389 0
.9057509 .6696045 0
.9912973 .6695009 0
.9999999 .668658 0
0 .797596 0
.1072857 .7980237 0
.3430379 .7984857 0
.5196717 .7984619 0
.6715875 .7977955 0
.7981471 .7970278 0
.9007162 .7962328 0
.9886134 .7946858 0
.9999999 .7944924 0
0 .9009186 0
.1344209 .9010335 0
.3514127 .901203 0
.5187925 .9020355 0
.6670758 .9030356 0
.7932173 .9029628 0
.8977003 .9006327 0
.9865009 .8997216 0
.9999999 .8972314 0
0 .9863679 0
.1317263 .9863619 0
.3464557 .9865865 0
.5157179 .9865759 0
.6664048 .9866138 0
.7916715 .9869183 0
.8974969 .9854334 0
.9826729 .9821419 0
.9999999 .9777889 0
0 .9999999 0
.182754 .9999999 .00991648
.3562712 .9999999 .01688292
.520733 .9999999 .01785189
.6667011 .9999999 0
.780544 .9999999 0
.8764964 .9999999 0
.9571238 .9999999 0
.9999999 .9999999 0
0 .00718198 .1576907
.1630186 0 .158463
.3426596 0 .162539
.5086473 0 .1618833
.6554272 0 .1605327
.7901357 0 .1511948
.8996673 0 .1503521
.9890162 0 .1489703
.9999999 0 .1461422
0 .146731 .1630371
.1816922 .1423192 .1600684
.3468594 .1450619 .1604406
.5109707 .1432166 .1571009
.6580939 .1462652 .1505767
.7916781 .1425095 .1464456
.9006143 .1304266 .1469242
.989847 .1275433 .1440287
.9999999 .1306476 .1403364
0 .3380288 .1554106
.1746888 .3383038 .1552422
.345729 .3385429 .1577366
.5132977 .3430114 .1508518
.6618684 .3441928 .14478
.7949638 .3395347 .1404849
.9021624 .3441716 .1356824
.9915445 .344717 .1318915
.9999999 .3454969 .1262169
0 .5132545 .1345313
.152631 .5133412 .1307966
.3508472 .5132416 .1253159
.514236 .5119482 .128286
.6647207 .5145696 .1362787
.7954729 .5161883 .1369497
.9042147 .5179549 .128368
.9937018 .5191061 .120338
.9999999 .5188255 .1228548
0 .6652712 .1154162
.1249562 .6657005 .1121128
.3427803 .6668023 .1052445
.5188605 .6676071 .1073012
.6703942 .6672232 .1132033
.7950508 .6689121 .1138365
.9061433 .6697308 .1059653
.9920437 .6681706 .1101185
.9999999 .668026 .1187746
0 .7978752 .08565851
.07405772 .7981654 .08171385
.3359698 .7988089 .08417631
.5180125 .7991677 .08818354
.6695855 .7983474 .08130118
.798717 .7972975 .08133652
.9013411 .7959482 .08751879
.9882885 .794841 .08724374
.9999999 .7938076 .08792151
0 .9010703 .09529265
.1250323 .9008923 .09825621
.345751 .9011458 .1119088
.5167904 .9018579 .1083586
.6676919 .903117 .09205664
.7944458 .9028094 .08201317
.8974609 .9008268 .07878534
.9870153 .8993519 .06894859
.9999999 .89671 .08821029
0 .986478 .1374172
.115598 .9864802 .1400917
.3411983 .9866138 .1434826
.5142363 .986479 .1420816
.665506 .9868177 .1275701
.790759 .9870159 .1163314
.8966823 .984994 .1016567
.9825597 .9814996 .09629636
.9999999 .9769537 .09891861
0 .9999999 .1872157
.1765551 .9999999 .1922847
.3522714 .9999999 .2001024
.5175379 .9999999 .1995136
.6612465 .9999999 .1866711
.7794821 .9999999 .1873541
.8763989 .9999999 .1769984
.9570287 .9999999 .1728625
.9999999 .9999999 .1690125
0 0 .3420366
.1697811 0 .3426816
.3449003 0 .3420961
.5105965 0 .3435965
.6593975 0 .347211
.7930304 0 .3473192
.9014148 0 .3458547
.9904347 0 .3448203
.9999999 0 .3414128
0 .1537845 .3440007
.1597138 .1514994 .3452376
.3461212 .1425542 .3438356
.5118672 .1349808 .3436691
.6610656 .1313552 .3455924
.7937828 .1242017 .3449592
.9012666 .1015601 .3445517
.9914967 .07327863 .3411199
.9999999 .06674298 .3386197
0 .3387869 .3449171
.1613408 .3385591 .3449007
.3510205 .3330191 .3419313
.511191 .3378635 .3430515
.6635715 .3407203 .3414146
.795284 .3356999 .3417021
.9023966 .3343698 .3403938
.9921654 .3324226 .338623
.9999999 .334934 .3375095
0 .5120764 .3395247
.1210332 .5121226 .3387845
.3394012 .5128867 .3371628
.514645 .5126326 .334773
.6672874 .5126898 .3384235
.7953619 .5135952 .3379111
.9047579 .5119148 .3365536
.9941041 .5120632 .334388
.9999999 .5147257 .3387597
0 .6660175 .3320273
.05963933 .6658951 .3323048
.327033 .6672903 .330674
.5173045 .6677873 .3314976
.6688653 .6672292 .3310403
.7948975 .668811 .3304667
.9077098 .6677212 .3254112
.992631 .6667271 .3347427
.9999999 .6658719 .3369157
0 .7979158 .3235963
0 .7983859 .324212
.3195736 .7995861 .3244626
.5103852 .7998713 .3221826
.6635009 .800145 .319546
.7980971 .7977557 .3210848
.9033281 .7960991 .3208544
.9906961 .7936385 .3216751
.9999999 .7935016 .3264094
0 .9012675 .3292776
.1013505 .9012392 .33026
.3324831 .9010977 .3323881
.5088311 .901574 .338492
.6664485 .9026186 .3337734
.7964538 .9026185 .3271855
.9002506 .9007757 .3234309
.9893655 .8988563 .3186962
.9999999 .896111 .3259882
0 .9863731 .3447654
.07785224 .9864215 .3461629
.3267499 .9865215 .3487416
.5100623 .9866481 .3499899
.6643008 .9862509 .3463405
.7899656 .9860609 .3361524
.8972828 .9842092 .3289507
.9838266 .9805397 .3263777
.9999999 .9754774 .3259847
0 .9999999 .3616734
.1839744 .9999999 .3653777
.3562106 .9999999 .3723585
.5142463 .9999999 .3765755
.6624603 .9999999 .3751888
.779793 .9999999 .370887
.8766606 .9999999 .3604148
.9570467 .9999999 .3554443
.9999999 .9999999 .3532785
0 0 .5128834
.1700877 0 .5131508
.3449636 0 .5137817
.5126458 0 .5153625
.6606331 0 .5150232
.7957772 0 .5177456
.9027059 0 .5175803
.9915329 0 .5171642
.9999999 0 .5167754
0 .1422358 .5144026
.1506991 .1385587 .5145578
.3453465 .1343168 .5156521
.513611 .134984 .5165915
.6635375 .1198789 .5161736
.7968604 .1023244 .5177566
.9034682 .08990107 .51653
.9922349 .07121799 .5162604
.9999999 .08276103 .5151587
0 .3393787 .5142627
.1305217 .3382303 .5142906
.3374853 .3361067 .5158165
.5157272 .3333138 .5165688
.667478 .3346633 .517334
.7969572 .3346753 .5152028
.904188 .3295876 .514387
.992882 .3268202 .5138348
.9999999 .3302693 .5133327
0 .5129154 .5147104
.09003589 .512347 .5145757
.3356014 .5107664 .5154993
.518077 .5088912 .5142335
.6695036 .5137144 .5138212
.7947462 .5109527 .5137849
.9036838 .5093607 .5123218
.9931247 .5092992 .5115306
.9999999 .5129929 .5138903
0 .6682748 .5130816
.01077291 .6678271 .5126075
.3237801 .6672316 .5114327
.5148811 .6669397 .5116185
.6693362 .6655235 .5088792
.7973803 .6656329 .5082887
.9045249 .6667858 .5130602
.9907414 .6677918 .5145837
.9999999 .6662717 .517273
0 .7973474 .509231
.02357309 .7971055 .5092698
.3282079 .7966647 .5094374
.5045704 .7982315 .5084419
.6619977 .7982602 .5075889
.796696 .7969757 .5069603
.9042631 .7949419 .5084152
.9897715 .793463 .5085003
.9999999 .7933613 .5102743
0 .9016262 .5084494
.03095212 .9011914 .5077175
.3365934 .9001671 .510307
.5085434 .8995384 .5106322
.6631865 .9001209 .5120027
.7966304 .9010631 .5080224
.9019113 .9000441 .5049618
.9921367 .8991455 .5030694
.9999999 .8958479 .5055537
0 .9853466 .5085028
.05061341 .9850252 .510456
.3265264 .9849648 .5128314
.5079553 .9855631 .5174284
.6632869 .9855174 .5190645
.7892557 .9840997 .519788
.8983809 .9823871 .514281
.9834346 .979049 .5048531
.9999999 .974796 .5047403
0 .9999999 .5154075
.1971152 .9999999 .5188078
.3736706 .9999999 .5247016
.5263326 .9999999 .5322071
.6682622 .9999999 .5343663
.7837982 .9999999 .5391156
.8793691 .9999999 .532258
.9541396 .9999999 .5294064
.9999999 .9999999 .5260629
0 0 .664211
.1621689 0 .6651599
.3536181 0 .6657649
.516951 0 .6664384
.6671319 0 .6683295
.7936672 0 .6675224
.9047788 0 .6685262
.9950932 0 .6690396
.9999999 0 .6687132
0 .1457075 .6655057
.1355486 .1426005 .6664201
.3508331 .1252045 .666996
.5167218 .1103811 .6667315
.6679102 .1042856 .6687618
.7946389 .09146432 .6681261
.9053063 .09446082 .6683865
.9959299 .06711775 .668183
.9999999 .07698081 .6676643
0 .3384444 .6676121
.09140664 .3362491 .6677943
.342851 .3325522 .6678681
.5185494 .324944 .6679365
.670781 .3258254 .6689422
.7981394 .3227212 .6677746
.9061845 .3261497 .6674654
.9967278 .3244888 .6671955
.9999999 .3268465 .6668639
0 .5139621 .6695992
.0036898 .5130199 .6695089
.319646 .5107449 .6692286
.5149169 .5103429 .6693382
.6723308 .5068045 .6690941
.7995601 .5088801 .6668035
.9052016 .5107287 .6672171
.9925093 .5098071 .6660973
.9999999 .5130159 .666889
0 .6671616 .6688946
0 .6670015 .6690764
.3236883 .667658 .6687862
.5118557 .6675004 .6668465
.6632931 .6658891 .6639274
.7926745 .6658169 .6671295
.9002017 .6658263 .6663159
.9879296 .6664211 .6663967
.9999999 .6675399 .6677609
0 .7968161 .6662478
.01188059 .7963676 .6660022
.3258345 .7959711 .6652663
.5069713 .7954881 .6646352
.6636486 .7950481 .6647679
.7953969 .7959823 .6629677
.9031093 .7934979 .6613557
.9870524 .7934025 .6676734
.9999999 .7935866 .6690893
0 .901938 .6655902
0 .9015836 .6656732
.3174245 .9007376 .6652206
.5028132 .8993405 .6646839
.6639655 .8989196 .6645639
.7965859 .8988748 .6648006
.9015461 .898267 .6612737
.9889616 .8965682 .6620902
.9999999 .8940762 .6629118
0 .9853532 .6639194
.06861959 .9851319 .6639996
.3263852 .9844757 .6625685
.5145813 .9834059 .664463
.6677781 .9826987 .6669265
.7877195 .9827101 .6682249
.8948402 .9817194 .667474
.979883 .979679 .6607915
.9999999 .9746884 .6580606
0 .9999999 .6649162
.1926147 .9999999 .6639823
.3641774 .9999999 .6620165
.5430959 .9999999 .6691227
.6745838 .9999999 .676102
.7858311 .9999999 .677584
.8809028 .9999999 .6765513
.9478686 .9999999 .6766169
.9999999 .9999999 .6731901
0 0 .7955329
.1569076 0 .7957709
.3510359 0 .7960835
.5173746 0 .7969728
.6702206 0 .7978657
.7956173 0 .7977155
.9048188 0 .7977626
.9928971 0 .7966068
.9999999 0 .7952775
0 .1218406 .7965336
.1300611 .1204067 .7965508
.3445369 .1160378 .7967511
.5149256 .1008087 .7976288
.6688671 .09230459 .7982578
.7957616 .08043472 .7980061
.9058968 .07187787 .7978659
.9945907 .07425068 .7960433
.9999999 .04056993 .7949868
0 .3321953 .7978436
.04668156 .330345 .798059
.3253296 .327959 .7980745
.51305 .3291165 .798649
.6652341 .3287175 .7983127
.796253 .3274371 .7975302
.9085941 .3210113 .7973303
.9961098 .3202752 .7947705
.9999999 .3241397 .7938529
0 .5118049 .7973869
0 .5114964 .797019
.3154568 .5098103 .7973316
.507048 .5088801 .7973905
.6598625 .5085239 .7975263
.7960578 .5082573 .7970598
.9080439 .5051705 .7955409
.9941663 .5088395 .7936988
.9999999 .5115843 .793802
0 .6651572 .7985854
0 .66536 .7984137
.3128303 .665961 .7975933
.504594 .6656275 .7965218
.6627741 .6614042 .7954202
.7942244 .6645598 .7936854
.8997756 .6659255 .7946897
.9889095 .6648197 .7944
.9999999 .6691858 .793108
0 .7963756 .7979149
0 .7963137 .7975956
.3157089 .7966077 .796209
.5017283 .7969771 .7939439
.6619505 .7957982 .7927216
.7955061 .7909758 .7919924
.8976395 .79164 .7939687
.9840667 .7917948 .7946587
.9999999 .7932652 .794602
0 .9021623 .7946313
0 .9017423 .7945812
.3126807 .9009903 .7942259
.503041 .9005933 .7933821
.6634007 .8994401 .7921794
.7948667 .8980665 .7920775
.9017422 .8978646 .7910404
.9829103 .8962328 .7930901
.9999999 .894945 .7974721
0 .9850181 .7931054
.06283962 .984962 .7927804
.3340491 .9849259 .7918239
.5145024 .9849269 .7906372
.6718286 .9826551 .7913838
.798117 .9812899 .7908896
.8979384 .9814528 .7915194
.9787597 .9794025 .7890106
.9999999 .9743534 .7915373
.1060205 .9999999 .7910421
.2334239 .9999999 .7915208
.387281 .9999999 .7924792
.546121 .9999999 .79405
.6849332 .9999999 .7947878
.7966313 .9999999 .7972631
.8846018 .9999999 .7988118
.9501757 .9999999 .8000143
.9999999 .9999999 .8002243
0 0 .9014639
.1398424 0 .9016544
.3461297 0 .9021668
.5192984 0 .9034298
.6681305 0 .9036697
.7968653 0 .9041947
.9040569 0 .9044414
.9909961 0 .9029662
.9999999 0 .9004095
0 .1237265 .9020145
.1136558 .1217964 .902266
.3387595 .1201402 .9027683
.5163415 .1117987 .9037094
.6660964 .09446003 .9038436
.7960189 .09412541 .9041861
.9039156 .078026 .9043522
.9911811 .05839156 .9032267
.9999999 .03790515 .9003697
0 .3314982 .9022622
.04478595 .3302364 .9024979
.3295833 .3311139 .9031846
.5111186 .3331385 .9037702
.6617902 .331456 .9036425
.7947297 .3311577 .9038059
.9057096 .324673 .9033343
.9923272 .321833 .9031656
.9999999 .3201154 .9000067
0 .5099608 .9018613
0 .509324 .9018445
.3206433 .503105 .9024464
.5075628 .5056321 .9023557
.6620022 .5080093 .9015133
.7948531 .5106631 .9016544
.906396 .5061924 .9018583
.9903508 .5047923 .9008423
.9999999 .5079131 .899949
0 .665332 .9011807
.02234422 .6651946 .9009899
.3196331 .6644377 .9002241
.5023543 .663784 .8986394
.6636902 .6617917 .8989839
.7948412 .6636814 .8997751
.9052029 .6622844 .8995094
.9865884 .6634003 .8974805
.9999999 .665714 .8982994
0 .7925174 .9025935
0 .7926221 .9024356
.316291 .7930225 .9020491
.5032616 .7931134 .9017531
.6612031 .793988 .899974
.7913269 .7945145 .8991497
.8984467 .7934335 .8990531
.9826036 .7931298 .8983423
.9999999 .7950784 .8974832
0 .9007248 .9013889
0 .9008793 .9012072
.3179866 .9009545 .9012455
.5064119 .9008264 .9005647
.660498 .9001296 .8996159
.7907905 .8980876 .8995172
.8952136 .8964472 .8977758
.9777393 .8965902 .897453
.9999999 .89895 .8975814
0 .9865244 .895559
0 .9861932 .8955699
.3200223 .985218 .896373
.5104067 .9838222 .8970692
.6690391 .9824794 .8979884
.8001987 .9794487 .8965268
.8989229 .9785056 .8987017
.978329 .9757002 .8967949
.9999999 .9723087 .897932
0 .9999999 .8907467
.2034872 .9999999 .8904658
.3841357 .9999999 .8901222
.5493402 .9999999 .8907778
.6978571 .9999999 .8933127
.8202661 .9999999 .8987093
.8996781 .9999999 .9021648
.959009 .9999999 .9048108
.9999999 .9999999 .9036072
0 0 .9857261
.1415137 0 .9858814
.3490887 0 .9857833
.5197688 0 .9858289
.6621001 0 .9865789
.7931071 0 .9877518
.9008259 0 .9893324
.9863227 0 .9884568
.9999999 0 .9870928
0 .1422067 .986006
.1244369 .1420211 .9861092
.3440392 .1488955 .9857503
.5187066 .1489462 .9860235
.6612781 .1476667 .9866251
.7919197 .1321335 .9877773
.9005341 .1005606 .9892083
.9863685 .07851455 .98799
.9999999 .05181722 .9866458
0 .3369209 .9853646
.100253 .3378085 .9854584
.3372357 .3396771 .9857073
.5144239 .3432588 .9860249
.6610045 .3428227 .9865542
.7893072 .3450996 .9874262
.8997528 .3336414 .988147
.9874601 .3262494 .9865938
.9999999 .3245454 .986244
0 .5076767 .9849165
0 .5033916 .9853066
.3242721 .5057043 .9852412
.5067781 .5108216 .9849793
.6648155 .513761 .98496
.790044 .5178648 .9853981
.9001219 .5101074 .9861943
.9847946 .5075312 .9861013
.9999999 .5045453 .9856363
0 .6644877 .9833922
.08215696 .6643865 .9832776
.3272966 .6637428 .9830583
.5059056 .6581094 .9827647
.6655883 .6625242 .9825252
.7903512 .6669173 .983673
.8974614 .6637225 .9851295
.9834997 .6631258 .9843412
.9999999 .6624469 .9827554
0 .7899805 .9845143
.140746 .7900121 .9843532
.3414761 .7900319 .9836925
.5105857 .7907216 .9823701
.6625141 .7904111 .9809819
.7942007 .791252 .9804893
.8998751 .7923181 .9799892
.978852 .7942421 .9826134
.9999999 .7934733 .98006
0 .8934353 .9831924
.1361383 .8936685 .9827033
.3539978 .8939679 .9819068
.5269623 .8951777 .980755
.6724949 .8969935 .9798996
.7942751 .896419 .9788916
.8947361 .8960817 .975859
.9735129 .8976412 .9782231
.9999999 .8995242 .9766684
0 .9806034 .9787604
.1385438 .9801919 .9785944
.3572219 .9791103 .9782591
.533464 .9771754 .9784032
.6772821 .976484 .9791619
.7955283 .9776799 .9776496
.8991002 .9770156 .9743614
.9737723 .9742222 .9747943
.9999999 .9768031 .9750664
0 .9999999 .9731949
.1942219 .9999999 .9729074
.3832261 .9999999 .9724532
.5444372 .9999999 .971497
.6927661 .9999999 .9688302
.8160422 .9999999 .9650909
.9187737 .9999999 .9700437
.979926 .9999999 .9773721
.9999999 .9992706 .9767701
0 0 .9999999
.1857579 0 .9999999
.3611374 0 .9999999
.5255051 .01271965 .9999999
.6621482 .0214585 .9999999
.7880235 0 .9999999
.8944307 0 .9999999
.9791099 0 .9999999
.9999999 0 .9999999
0 .1652369 .9999999
.17848 .1694812 .9999999
.3611875 .1799016 .9999999
.5253679 .1963634 .9999999
.6628435 .2005522 .9999999
.7877774 .1935415 .9999999
.8939081 .1669234 .9999999
.9790269 .142985 .9999999
.9999999 .1098004 .9999999
0 .3471903 .9999999
.1553015 .347976 .9999999
.3527958 .351106 .9999999
.5191392 .3617025 .9999999
.6646991 .3695116 .9999999
.7878487 .3699914 .9999999
.8929297 .3568401 .9999999
.9780783 .3462311 .9999999
.9999999 .3378831 .9999999
0 .5053783 .9999999
.01174082 .5054684 .9999999
.339992 .5123692 .9999999
.5160554 .5181522 .9999999
.6656645 .5289354 .9999999
.7860631 .5322286 .9999999
.8922352 .5237715 .9999999
.9761644 .5157936 .9999999
.9999999 .5138299 .9999999
0 .6652696 .9999999
.1871566 .665052 .9999999
.3490216 .6643977 .9999999
.5131307 .6608313 .9999999
.6682832 .6694493 .9999999
.7913529 .6751323 .9999999
.8867199 .6772604 .9999999
.9677737 .673181 .9999999
.9999999 .6715771 .9999999
.1715532 .7849417 .9999999
.2617628 .7850831 .9999999
.3991829 .7857863 .9999999
.5464914 .7874324 .9999999
.682031 .7894096 .9999999
.7962638 .7944832 .9999999
.8907961 .7978972 .9999999
.962072 .8002301 .9999999
.9999999 .798359 .9999999
.2252068 .8796685 .9999999
.3042218 .8802708 .9999999
.4287988 .881691 .9999999
.5648078 .8853426 .9999999
.6971458 .8876523 .9999999
.812974 .8902395 .9999999
.8970274 .8974545 .9999999
.9631495 .8990851 .9999999
.9999999 .9023719 .9999999
.2483392 .9537758 .9999999
.3225961 .9538191 .9999999
.4477858 .9541325 .9999999
.58222 .955864 .9999999
.7132354 .9567037 .9999999
.8207466 .9592698 .9999999
.9130375 .9645919 .9999999
.9716111 .974759 .9999999
.9999999 .9755163 .9999301
.2915516 .9999999 .9999999
.3545567 .9999999 .9999999
.4696711 .9999999 .9999999
.6023932 .9999999 .9999999
.718017 .9999999 .9999999
.8319108 .9999999 .9999999
.9305968 .9999999 .9999999
.9903118 .9977855 .9976199
.9982533 .9999999 .9999074
