luts/Timeless_48.cube
# 3D LUT of size 33x33x33 converted by Filestar.
#   Input:
#     color space: sRGB
#     white point: default (D65)
#     transfer function: default (sRGB)
#   Output:
#     color space: sRGB
#     white point: default (D65)
#     transfer function: default (sRGB)
#   Exposure: +0.25
#   Contrast: -75
#   Whites: -26
#   Blacks: -7
#   Vibrance: +30
LUT_3D_SIZE 9
.04933187 .00927692 .02482021
.1360461 0 .02843956
.2688046 0 .01057658
.4104884 0 0
.5419523 0 0
.6633657 0 0
.7789531 0 0
.8875768 0 0
.9860745 0 0
0 .1363657 .00495219
.1353135 .1342511 .00456922
.2738447 .130244 0
.4116843 .1259287 0
.5419924 .1160852 0
.6626168 .1072878 0
.7785426 .09070327 0
.887412 .07106855 0
.9858806 .04534203 0
0 .2752661 0
.1296615 .2751984 0
.276718 .2754317 0
.4126086 .2713139 0
.5399445 .2639152 0
.6610689 .2602676 0
.7766554 .2570719 0
.886315 .2494845 0
.9849893 .2405502 0
0 .4100328 0
.08507784 .4100121 0
.2671383 .4086436 0
.4097622 .4068909 0
.5406906 .4038357 0
.6610048 .3999744 0
.7758325 .3974642 0
.8841584 .3918688 0
.9831173 .3864863 0
0 .5374242 0
.04640643 .5372503 0
.2505181 .5367278 0
.3998214 .5350499 0
.5363249 .5335122 0
.660989 .5298454 0
.7747933 .5273691 0
.8837811 .5229225 0
.9811382 .5191348 0
0 .6570458 0
0 .6571829 0
.2353188 .6571584 0
.3921617 .6563513 0
.5288152 .6547688 0
.6544586 .6533836 0
.7716128 .6513971 0
.881673 .6487542 0
.9813219 .646389 0
0 .7735332 0
0 .773469 0
.1929012 .7734608 0
.3706962 .7731802 0
.5181828 .7723661 0
.6487054 .7702531 0
.7686114 .7687517 0
.8791754 .7665946 0
.9794734 .7641229 0
0 .8822587 0
0 .8821989 0
.1388045 .8818334 0
.3481267 .8814487 0
.4997626 .8817014 0
.6398371 .8802294 0
.7651325 .8782805 0
.8788697 .8775491 0
.9808599 .8765114 0
0 .9833712 0
0 .9833056 0
0 .9833609 0
.3152541 .9836866 0
.4818664 .9842646 0
.6297123 .9842626 0
.7609906 .983112 0
.8762649 .9830156 0
.9844733 .9857855 0
.02568544 .0130799 .1385822
.1414813 0 .1376581
.2749791 0 .1360534
.4133681 0 .1297105
.5429805 0 .1222388
.6638911 0 .1144568
.779834 0 .09918088
.8883941 0 .0753412
.9869294 0 .03519193
0 .1362231 .1370837
.1314521 .1365461 .1359886
.2739232 .1276386 .1344191
.4123203 .1191913 .1277986
.5425127 .1046938 .1197098
.6634631 .09461048 .1081006
.7793054 .07646213 .09169588
.8882443 .05155887 .06678573
.9866475 .01824105 .02298566
0 .2757042 .123503
.1188204 .2752919 .1175981
.2797149 .2732555 .1113094
.4152541 .2671128 .1068764
.5398265 .2613516 .1163884
.6618547 .2571203 .0997796
.7776035 .2525761 .07727078
.887421 .2444873 .04745696
.986116 .2349131 0
0 .4096112 .07791125
.06183286 .4097121 .07297084
.2620307 .4085641 .07766616
.4106565 .4076181 .0848312
.5414256 .4033633 .07170414
.662039 .3975454 .07504194
.7761019 .3962035 .06789367
.8851606 .3893213 .02434088
.9842371 .3836447 0
0 .5383397 0
0 .538179 0
.2410105 .5374244 0
.3985521 .5356846 .01720718
.537014 .5341457 .03149561
.662457 .5298135 .01895052
.7764913 .5259061 0
.8846326 .5212743 0
.9822032 .517293 0
0 .6583894 0
0 .6583776 0
.2229497 .6579785 0
.388474 .6567277 0
.5279902 .655435 0
.6546732 .6540776 0
.7733887 .6514213 0
.8828476 .648452 0
.982839 .6450773 0
0 .7743528 0
0 .7743205 0
.1763858 .7742378 0
.3651112 .7736389 0
.5146747 .7727162 0
.6479477 .7710066 0
.7687718 .7693816 0
.8804535 .7666348 0
.9809319 .7638084 0
0 .883037 0
0 .8829817 0
.1102453 .8826352 0
.3419374 .8820711 0
.4962416 .8820335 0
.6368396 .8813467 0
.7653593 .8788638 0
.8794373 .8780456 0
.9815467 .8768468 0
0 .9842445 0
0 .9842053 0
0 .9842113 0
.306257 .9843746 0
.4777802 .9845343 0
.6266731 .9850646 0
.7588561 .984099 0
.8761558 .9837232 0
.9847648 .9860427 0
.0043766 0 .2767047
.1433262 0 .2780834
.2767984 0 .2787739
.4148587 0 .2740681
.5452099 0 .2650424
.6661876 0 .2614294
.7808095 0 .2555682
.8889483 0 .2493324
.9877678 0 .2344925
0 .1273148 .2788201
.11097 .1219828 .2792186
.2783462 .1115349 .2789018
.4146054 .1075863 .2714992
.5419642 .1013249 .2651037
.6644831 .08172082 .2605393
.7797702 .05692904 .254295
.888723 .01301928 .2467212
.9879844 0 .2312503
0 .2730068 .2751665
.1041242 .2719802 .2752365
.2702031 .2675069 .2717213
.4089375 .2659561 .2691273
.5376334 .2595926 .2665896
.6621264 .2516261 .2590224
.778222 .2448801 .2480262
.8885012 .2335227 .2384241
.9880939 .2194368 .2247241
0 .4099208 .2575375
.0068562 .4094437 .2541233
.2457281 .4076966 .2494067
.4097833 .4061347 .2450675
.5406946 .3999972 .2435596
.6585793 .3971849 .2516297
.7763651 .3928539 .2395231
.8872204 .3836819 .2278458
.9874169 .3746844 .2127926
0 .5381059 .2277847
0 .5381094 .2256999
.2220937 .5375792 .2228418
.3934827 .5364534 .2248387
.5341496 .5354583 .2252575
.6652477 .5282977 .2146401
.7785196 .5222912 .2240437
.8835341 .5214136 .2241846
.9837536 .515433 .2074606
0 .6592183 .1933739
0 .6592739 .1919568
.1852005 .6594111 .1862897
.3753895 .6578893 .1878085
.5241007 .6564341 .1939142
.6558266 .654727 .192845
.7776031 .6509619 .1881807
.8861131 .6470807 .1753158
.986775 .6403484 .1638412
0 .7755309 .1453592
0 .7754469 .1406905
.129474 .7754334 .1314159
.3477588 .7747613 .1269418
.5087926 .7729315 .1344798
.6460892 .7714415 .1357704
.7698067 .7709169 .1439585
.8842765 .7664768 .1426555
.984958 .7631201 .1147294
0 .8842831 0
0 .8841797 0
.00261345 .8840108 0
.3210267 .8833091 0
.4881084 .8827527 0
.6322432 .8823896 0
.7630133 .8808317 .01730859
.8805123 .8796054 .05749093
.9827791 .8781118 .0486992
0 .986306 0
0 .9862985 0
0 .9862406 0
.2791778 .9860272 0
.4655573 .9859156 0
.6211407 .9859795 0
.7550827 .9862742 0
.87464 .986005 0
.9861936 .9868135 0
0 0 .4127006
.1239021 0 .4131118
.2680488 0 .4134804
.4139848 0 .4127726
.5456362 0 .4086821
.6668055 0 .4001386
.7833423 0 .3949305
.8911161 0 .3878996
.9895627 0 .3789205
0 .1008966 .4140821
.0777654 .09383392 .4143264
.2647714 .07848144 .4150343
.4132127 .06950406 .4139025
.5446668 .07278586 .4080182
.6667383 .04055569 .3986669
.7823544 0 .3934755
.8905185 0 .3871626
.9894751 0 .3779772
0 .2590466 .4140979
.04303227 .2561702 .4142474
.2519941 .2498293 .4131939
.4096664 .2476681 .4109572
.5396153 .2527002 .4020808
.6625994 .2445997 .3959076
.7789384 .2353725 .3910129
.8898324 .2212978 .384461
.989648 .2015584 .3750611
0 .4079573 .410729
0 .4071303 .4105156
.2374521 .4043048 .4080907
.401271 .3972613 .403654
.5310437 .397049 .3989117
.6563599 .3926219 .3940556
.7764857 .3837206 .3886291
.8889179 .3723235 .3805823
.9891189 .3622061 .3681435
0 .5401026 .3903292
0 .5395381 .3886063
.1913315 .537812 .3846487
.370223 .5363327 .3793971
.5331381 .5341485 .376128
.6615213 .5266519 .3763976
.7734351 .5217039 .3828328
.8857415 .5147033 .3706319
.9880565 .5072533 .3596421
0 .6599278 .362079
0 .6598237 .3599617
.1170136 .6596531 .3556353
.3505096 .6589612 .3518167
.514875 .6584198 .3505926
.6556904 .6554353 .3477733
.7806897 .6487488 .3410551
.8898345 .6433029 .3406408
.9876153 .6388645 .3419545
0 .7765773 .332396
0 .7764417 .3300183
0 .7761977 .3258763
.3158128 .7759546 .3196554
.4954719 .7747791 .3169718
.6411223 .773639 .3183336
.7706058 .771203 .3185712
.8889719 .7663595 .3108431
.9906301 .7609125 .2969268
0 .8855128 .2867759
0 .8854455 .2848325
0 .8852646 .2803879
.2694397 .8849158 .2735318
.4686999 .8842101 .2721558
.6240516 .8835455 .2735375
.760743 .8819377 .2772821
.8816099 .8806731 .2839757
.9877747 .8777049 .2760622
0 .9875522 .237679
0 .9876706 .2352633
0 .9879927 .2285328
.2215208 .9883295 .2185084
.4445312 .9881523 .2164814
.6092263 .9878554 .2176085
.7496173 .98774 .2189508
.873318 .9875334 .2313088
.9877459 .9882293 .2391989
0 0 .5408461
.1164654 0 .5406506
.259812 0 .5411658
.4044854 0 .5415305
.5405464 0 .5413195
.6663158 0 .5395781
.7818791 0 .5325868
.8903728 0 .5250823
.9902766 0 .5170752
0 .08157081 .5412296
.08089616 .06998784 .5418891
.2535681 .04592566 .5415663
.4013715 .02041088 .5424789
.5412564 0 .5424597
.6675739 0 .5386533
.7823988 0 .5312104
.890598 0 .5232067
.9906966 0 .5153354
0 .2402536 .5410392
0 .2379519 .5410456
.2385234 .2312897 .5412071
.3911474 .2269382 .5409506
.5383292 .2226615 .5406204
.6686068 .2235225 .5351883
.783038 .214386 .5273032
.8913615 .1967038 .5204303
.990907 .173185 .5127049
0 .3893307 .5407029
0 .3881781 .540125
.2068052 .3850819 .5393907
.3809403 .3769653 .5375919
.5351784 .3764755 .5366147
.6651702 .3793298 .5287216
.7798701 .3741394 .5214999
.890855 .3610157 .5137763
.9914498 .3490656 .5066944
0 .5353435 .5354393
0 .5349911 .5353174
.1764088 .5343038 .5346521
.3683355 .5292532 .5314378
.5247591 .5213826 .5262892
.6538715 .5196821 .5231698
.7712713 .5164777 .5173191
.8837955 .5095323 .5121619
.987568 .5011526 .5041679
0 .6621493 .516486
0 .6619717 .5146405
.06388023 .6602275 .5118757
.3295992 .6576338 .5075213
.4958158 .6560206 .5014486
.6524197 .6541638 .4982784
.7765379 .645995 .4961495
.8835092 .6418299 .5040177
.9861237 .6352796 .4968374
0 .7778673 .4892128
0 .7777001 .4871759
0 .7771881 .4824424
.272231 .7762009 .4768255
.4683908 .7748385 .4736005
.6302098 .7741191 .4716074
.7703056 .7711288 .469025
.8913285 .7641389 .463554
.9914555 .757795 .4604534
0 .8866507 .4601911
0 .886557 .4590408
0 .8862747 .4557415
.2192626 .8858173 .4511755
.4410681 .8848482 .4484441
.6136777 .8839002 .4464327
.757058 .8834423 .4438829
.8814251 .88143 .4451432
.9909987 .8778074 .4381738
0 .9890833 .4254642
0 .9891477 .4239292
0 .9894605 .4213011
.1301715 .9900098 .4174799
.4108012 .9904864 .4109199
.5917463 .9897789 .4088463
.7436491 .988723 .4144315
.8747535 .9888751 .4178472
.9896962 .9897047 .4194595
0 0 .6626704
.09768521 0 .6629914
.2526188 0 .663202
.3933807 0 .6631849
.5329108 0 .6626428
.6632714 0 .6617389
.78024 0 .660552
.8904976 0 .6567107
.9893973 0 .6509548
0 .0385803 .6627182
.05368865 .02327142 .6629234
.2436039 0 .663216
.3912724 0 .6633395
.5318899 0 .6633255
.6647623 0 .6621002
.7824242 0 .6608415
.8907853 0 .6565162
.9904093 0 .6492719
0 .2259326 .662465
0 .2227025 .6623792
.2226718 .2145165 .662384
.3830673 .2063979 .662989
.5260957 .2002771 .6637332
.6648032 .1942686 .6637188
.7845531 .1867103 .6605637
.8921771 .1740584 .6534479
.9925291 .1315596 .6460226
0 .374184 .6629127
0 .3728047 .6628817
.1748385 .3674624 .6627372
.3614067 .3585042 .6633136
.5162616 .3531496 .6635283
.6631256 .34974 .6622753
.7871187 .3488699 .6557907
.8925062 .3452463 .6481778
.9935783 .3308175 .6393787
0 .5171215 .6615075
0 .5156683 .6614758
.1044093 .5129497 .6605979
.3326691 .5077469 .6589265
.5020406 .5020092 .6572246
.6554794 .5002373 .6573942
.7794724 .5008438 .6498759
.8886351 .4976126 .6403661
.9906893 .4898634 .6345462
0 .6560416 .6558598
0 .655919 .6557878
0 .6555647 .6558
.3136258 .6535527 .6550425
.4912069 .6490583 .6524976
.6448425 .6417671 .6473809
.7670378 .6409562 .6429039
.8829992 .637131 .6376168
.986446 .6310735 .6313267
0 .7785259 .6399813
0 .7785319 .6389707
0 .7778091 .6366656
.2637679 .7758235 .6326945
.4597344 .7730447 .6279426
.6188519 .770338 .6230112
.7682879 .7685716 .6198339
.8891616 .7613999 .6170107
.9858257 .7575132 .6246276
0 .8877111 .6151592
0 .8875131 .6138113
0 .8871374 .610992
.1467266 .8863751 .6062951
.4176961 .8848745 .6017907
.5972155 .8837875 .6000651
.7504959 .8829696 .5981074
.8817684 .8815259 .5980572
.9945237 .8760036 .5914389
0 .9892834 .5919169
0 .9893131 .5908891
0 .9895255 .587976
0 .9902305 .5827535
.375823 .9906518 .5768433
.5745668 .9897341 .5743231
.7333272 .9899222 .5754552
.8719803 .990784 .5782986
.9906214 .9922121 .5781444
0 0 .7786745
.05977691 0 .7787499
.2402616 0 .7786915
.3883545 0 .7781621
.5240808 0 .7781972
.6560854 0 .7782961
.7748192 0 .7771484
.8862986 0 .7736914
.989022 0 .771328
0 0 .7782844
0 0 .7784945
.2318172 0 .7787306
.3834359 0 .7788225
.5211495 0 .7787132
.6549166 0 .7786028
.7750474 0 .7773716
.887836 0 .7740551
.9908819 0 .7711856
0 .2092339 .7787999
0 .2054585 .7789479
.1994282 .1954702 .7792175
.369296 .1837056 .7795721
.5143058 .1690201 .7794659
.6506773 .1529852 .779102
.7768207 .1506854 .7778918
.8910718 .1309544 .7744573
.9932953 .08565094 .7709232
0 .357625 .7795017
0 .3548009 .7796519
.1315839 .3475684 .7798611
.3408715 .3372597 .7802709
.5040575 .3279098 .7803953
.6456636 .32355 .7802559
.7788803 .320917 .7777523
.8950768 .3142078 .7749595
.9976725 .3051597 .7669345
0 .4985998 .7784018
0 .4969794 .7785313
0 .4928028 .7785522
.3122361 .484332 .7779428
.4802731 .4781151 .7787926
.634204 .4769293 .7781033
.7747504 .4764379 .7766379
.8958285 .4751989 .7719644
.9963768 .4705675 .7635443
0 .6398768 .7767631
0 .6389359 .7768685
0 .6364214 .7759061
.2612772 .6343812 .7751091
.4584671 .6297805 .7737557
.6235154 .6247371 .7725635
.7716078 .623002 .7721714
.8904554 .6224997 .7644582
.9906656 .6176373 .7587597
0 .77181 .7718813
0 .7717242 .771846
0 .7714968 .7716731
.2386883 .7708659 .7712565
.4481041 .7695938 .7692934
.6139387 .7661384 .7662005
.7633587 .7591256 .7625148
.8798217 .7578349 .7604703
.9847065 .7547384 .7576812
0 .8872778 .7590737
0 .8873345 .7586618
0 .8871734 .7569919
.1396607 .8865628 .7550259
.4132538 .8851102 .7519081
.5895138 .882789 .7482956
.7438644 .8802921 .7446215
.8795421 .8793798 .7439441
.993077 .873406 .7378039
0 .9914189 .7411964
0 .9914696 .7405571
0 .9915848 .7389097
0 .9917081 .7359029
.3546028 .9910802 .7328186
.555469 .990374 .727523
.7237386 .9919832 .7253228
.8689528 .991584 .7284442
.9926448 .9933494 .7294516
0 0 .8867017
0 0 .8868337
.2232151 0 .8869603
.3764835 0 .8869127
.5154505 0 .8861509
.6465861 0 .8862353
.7707629 0 .8853331
.8838337 0 .8839484
.9848754 0 .8828685
0 0 .8865741
0 0 .8867892
.2150571 0 .8870538
.3705737 0 .8868656
.511336 0 .8864505
.644209 0 .8864166
.7695396 0 .8858218
.8847487 0 .8843867
.9858856 0 .8831855
0 .1859358 .8869929
0 .1811206 .8871668
.1794755 .1679802 .8874811
.3524392 .1490776 .8876389
.502719 .1214733 .8874884
.638887 .09149251 .8873684
.7669456 .06446509 .8869552
.886144 .06766026 .8855301
.9886615 .00027496 .884002
0 .3379789 .8881761
0 .3350715 .888278
.06757502 .3284443 .8884634
.3260022 .3177035 .8882905
.4873888 .3054467 .8882079
.6292497 .2952219 .8884229
.7638015 .2894019 .8880759
.8873305 .2864144 .8867226
.9935202 .2761872 .8850272
0 .4803745 .8871424
0 .4787129 .8871256
0 .4746073 .8870746
.2710119 .4678276 .8873184
.4645121 .4594774 .8879361
.6187267 .4546131 .8879604
.7594784 .4533261 .8879664
.8865733 .4500691 .8873332
.9960982 .4442634 .8849503
0 .6209613 .8867688
0 .6197709 .8869238
0 .6174638 .8870566
.21003 .6137156 .8867815
.4323611 .608725 .8862935
.6019657 .6052525 .8868343
.7519491 .6028416 .8866342
.8846985 .6022215 .8850054
.9951411 .5998425 .8819952
0 .7573928 .8853058
0 .7569524 .8853486
0 .75573 .8854468
.1625648 .7535551 .8856239
.4114881 .7510019 .8854313
.5885081 .7469663 .8835853
.7423146 .7437787 .882634
.8810695 .7429841 .8816984
.9908916 .7443274 .8773117
0 .8810887 .8828971
0 .8811219 .8829865
0 .8812005 .8832245
.1101876 .8813428 .8836946
.4011115 .8808169 .8832042
.5827341 .879768 .8807335
.7330033 .878543 .8789816
.8748089 .8738863 .8771223
.9862785 .8761424 .8759491
0 .9914419 .8761064
0 .9916113 .8758738
0 .9920456 .8753326
0 .9922513 .8740591
.3633163 .9922133 .8720356
.559841 .9919376 .8718361
.7222038 .9910544 .8702534
.8664999 .9923061 .8702341
.9990367 .9934922 .8759618
0 0 .9859161
0 0 .9859385
.2032722 0 .9857802
.3602094 0 .9860695
.5090609 0 .9857768
.6399893 0 .9855407
.7652181 0 .9851888
.8821969 0 .9846367
.9839625 0 .9844323
0 0 .9864419
0 0 .9864362
.1865106 0 .9862276
.3565931 0 .9862595
.5044304 0 .9856538
.6362027 0 .9859025
.7628057 0 .9856772
.8816105 0 .9854605
.9842588 0 .985156
0 .1414484 .986337
0 .1335859 .9864008
.1532656 .1123569 .9865823
.3394824 .08458856 .986525
.4920915 .04336828 .986369
.6288108 0 .9870985
.7588035 0 .9871035
.8795971 0 .9871258
.9852733 0 .9868149
0 .3108431 .9876729
0 .3070853 .9878299
0 .2985796 .9880257
.3023978 .2859846 .9880746
.4690838 .2710317 .9882175
.6201282 .2566186 .9888311
.7531571 .2476492 .9889939
.8768184 .2411498 .9889321
.9877877 .2414778 .9887304
0 .4610332 .9880647
0 .4584002 .9883184
0 .452786 .9886855
.2377104 .4426644 .9889846
.4397536 .4345211 .9894385
.6050917 .4262852 .9901519
.7455121 .4220116 .9906604
.8747087 .419469 .9907389
.9882761 .4178561 .9907156
0 .602883 .9879559
0 .6017519 .9882318
0 .5986427 .9885302
.1261625 .5932885 .9889782
.4052926 .5863897 .9898723
.582849 .5802251 .9903041
.7360113 .5770012 .9908612
.8715724 .5771998 .9909883
.9890992 .5776955 .991331
0 .7402168 .9891561
0 .7394346 .989317
0 .7381639 .9894019
0 .7361807 .9893987
.371571 .7310371 .9893889
.5643981 .7271733 .9898806
.7252354 .7244633 .9905247
.8660967 .723847 .9903527
.9906066 .7251998 .991309
0 .8706869 .9889696
0 .8704583 .9890391
0 .8702555 .9891621
0 .8699044 .9893755
.3530881 .8693227 .9897881
.5543788 .8667021 .9912477
.7182733 .8640648 .9910478
.861424 .8645475 .9917849
.9922809 .8669065 .9925058
0 .9908554 .9913335
0 .991039 .9914622
0 .9914024 .9916279
0 .9919589 .9921414
.3449464 .9929298 .9924758
.5554713 .9939193 .9925761
.725327 .9935494 .9935008
.8718041 .9963439 .9968683
.9999999 .9982277 .9996623
