luts/Timeless 11.cube
# 3D LUT of size 33x33x33 converted by Filestar.
#   Input:
#     color space: sRGB
#     white point: default (D65)
#     transfer function: default (sRGB)
#   Output:
#     color space: sRGB
#     white point: default (D65)
#     transfer function: default (sRGB)
#   Exposure: +0.53999996
#   Contrast: +23
#   Whites: +8
#   Blacks: -20
#   Vibrance: +5
LUT_3D_SIZE 9
0 .00158175 .00933342
.1463757 0 .00368828
.320433 0 0
.4781708 0 0
.6233534 0 0
.7537305 0 0
.8662044 0 0
.9611216 0 0
.9999999 0 0
0 .1448857 0
.150609 .1417959 0
.3237973 .1442279 0
.4805369 .1425172 0
.6244835 .1375622 0
.7542241 .1332479 0
.8664044 .1294816 0
.9614192 .1216322 0
.9999999 .1199316 0
0 .2884084 0
.1673841 .2877449 0
.3276753 .2902493 0
.482574 .291159 0
.6249724 .2917418 0
.7553056 .290735 0
.8671813 .28916 0
.9622008 .2885778 0
.9999999 .2880172 0
0 .4326694 0
.1650573 .4326414 0
.3315931 .4330176 0
.4854855 .4335559 0
.6275067 .435115 0
.7566294 .434445 0
.8683034 .4359114 0
.9633449 .4340481 0
.9999999 .4337363 0
0 .569048 0
.145975 .5691431 0
.3280167 .569528 0
.4859272 .569352 0
.6295251 .5690957 0
.7568928 .5702408 0
.8690698 .5694516 0
.9642032 .5684093 0
.9999999 .5678173 0
0 .691137 0
.1485716 .6912853 0
.330339 .6917674 0
.4865586 .6920155 0
.630445 .6914521 0
.7574472 .6910075 0
.8682384 .691806 0
.9642891 .6910515 0
.9999999 .6910427 0
0 .8005719 0
.1361933 .8004711 0
.3269357 .8001503 0
.4870344 .8000969 0
.630025 .8001233 0
.7593378 .799685 0
.8699496 .7997118 0
.9636207 .8001359 0
.9999999 .7992556 0
0 .8954607 0
.1214283 .8954713 0
.3220567 .8953597 0
.4859914 .8950601 0
.6307234 .8953291 0
.7585512 .8954181 0
.8698 .8944281 0
.9635915 .8936992 0
.9999999 .8937863 0
0 .9768942 0
.1144509 .9768475 0
.317863 .9768146 0
.4829361 .9768701 0
.6305175 .9766951 0
.7580992 .9762045 0
.8692315 .9753935 0
.9625503 .9749702 0
.9999999 .9747857 0
0 .00337005 .1470661
.1487533 0 .1479642
.3239014 0 .1487515
.4810364 0 .1464912
.6249802 0 .1451007
.7544993 0 .1452244
.8668032 0 .1408627
.961455 0 .1383824
.9999999 0 .1348991
0 .1378906 .1507321
.1555179 .1412403 .1487382
.3255512 .1371141 .1465822
.4818311 .1347152 .1452053
.6254743 .1313408 .1430591
.7550668 .1276677 .1432249
.8669147 .1234931 .1389141
.9617097 .115581 .1366884
.9999999 .1142461 .133054
0 .2896059 .1472793
.1587737 .2896065 .1442167
.3275269 .2904717 .1437626
.4828674 .2896974 .1442679
.6260448 .2905054 .1419042
.7559345 .2894228 .1382487
.8677841 .2875576 .1373221
.9624375 .2867496 .1325224
.9999999 .2863436 .1288419
0 .4331865 .1397863
.1526962 .4334208 .137348
.330411 .4336894 .1383114
.4853519 .4340119 .1409256
.6281962 .4345536 .1392528
.7569826 .4338193 .136096
.8687931 .4339903 .1330687
.963592 .4333163 .1260274
.9999999 .4328064 .1254239
0 .569222 .1292688
.1387426 .5693841 .1274685
.3256784 .5696442 .1273224
.4853815 .5699376 .1307345
.6298981 .5692494 .1316586
.7573227 .5699854 .1290954
.8691151 .5690379 .1256125
.9643213 .5677468 .1237451
.9999999 .5673385 .1206304
0 .6913736 .1175945
.1382449 .6915703 .1161936
.3276475 .6918662 .115268
.4858724 .6924551 .113585
.630621 .6917875 .1201978
.7580444 .6909603 .1187388
.8689166 .6915488 .1093038
.9645045 .6907712 .1085414
.9999999 .6908933 .107367
0 .8008134 .1046987
.1271519 .8006331 .1025
.3238599 .8003404 .1031061
.4844554 .8004819 .09847162
.6291588 .8002831 .1031641
.7596464 .7995446 .1041165
.8704084 .79954 .1031827
.9639915 .8000285 .1019785
.9999999 .7988933 .1008004
0 .8956501 .09666368
.1124608 .8956103 .09550453
.3190297 .8955615 .09579621
.4841262 .8953214 .09513333
.6299292 .8955817 .09053683
.7585614 .8954682 .09051023
.8699798 .8943798 .09767074
.9640433 .8935385 .09955353
.9999999 .8935758 .09641331
0 .9771605 .08273187
.1049042 .9770457 .08447657
.3148036 .9769786 .09100183
.4813193 .9769605 .09100036
.6289102 .9769992 .08495181
.7573255 .9764029 .0818998
.8692195 .9753019 .08384334
.9625924 .9749135 .08407908
.9999999 .9746391 .08376514
0 0 .3027849
.1565793 0 .3046424
.3245457 0 .306063
.482145 0 .3075132
.6263108 0 .3073376
.7554494 0 .3074224
.8674865 0 .3067635
.9623358 0 .3046716
.9999999 0 .3042841
0 .1391346 .3060484
.1561852 .1372525 .3066055
.3276078 .134415 .3078991
.4831471 .1310593 .307471
.6263813 .1246419 .3065531
.7556467 .1203933 .3072721
.8676831 .1140381 .3060661
.9625186 .1064328 .3041225
.9999999 .101706 .303452
0 .2896723 .3086886
.1527397 .2903943 .308484
.3282153 .2892779 .3077575
.4828055 .2891777 .3069094
.6266735 .288638 .3064954
.7567562 .2872649 .306154
.8683097 .2847291 .3047097
.9631384 .282364 .3031066
.9999999 .2817804 .3016154
0 .4344073 .3061874
.1411218 .4342727 .304922
.3281685 .4337604 .3040077
.4841356 .4353124 .3042013
.6288639 .4346792 .3053026
.7578058 .4335041 .3044363
.8694373 .4317107 .303447
.9642819 .4311046 .3006456
.9999999 .4305663 .2998091
0 .5689474 .3018384
.1340213 .5689937 .3013498
.3227641 .5698584 .3005377
.4852437 .5701963 .3013129
.629564 .569445 .3016346
.7585063 .5693456 .2993656
.8697397 .5682883 .30006
.9649841 .5665858 .2986032
.9999999 .5658545 .2979807
0 .6918235 .2945236
.1185594 .6918852 .2948049
.3203564 .6925764 .2940339
.4842774 .692705 .2948272
.6306619 .6920688 .2952228
.7591656 .6914979 .2923715
.8706248 .6912199 .2895586
.9655387 .6907533 .2927131
.9999999 .6905023 .2939254
0 .8008196 .2903458
.1023707 .8008122 .2900613
.3162206 .8006865 .2892588
.4820813 .8005127 .2899137
.6285537 .8005727 .2885719
.7605429 .7998175 .2883554
.8721153 .7996336 .2870377
.9658384 .7997132 .2869701
.9999999 .7986226 .2874807
0 .895632 .2880561
.08698355 .8956737 .2877854
.3120049 .8957723 .2867963
.4787766 .8959578 .2857856
.6282497 .89577 .2861948
.7581107 .8958771 .2843059
.871286 .8944775 .2860475
.9650099 .8935872 .2859495
.9999999 .8933503 .2857788
0 .9772395 .2843922
.08022103 .9772251 .2842708
.3076484 .977156 .2841892
.4767424 .9772258 .2847961
.6267347 .9771884 .284596
.7561315 .9770094 .2812753
.868881 .9757261 .2817977
.9631074 .9749791 .2820495
.9999999 .9746136 .2819686
0 0 .4542868
.1554187 0 .4545808
.3280734 0 .4548159
.4845282 0 .4557162
.6273 0 .4566711
.7567225 0 .4562715
.8682108 0 .4555194
.9630439 0 .4542828
.9999999 0 .4539521
0 .1342458 .4550036
.1522946 .1318053 .4553061
.3286937 .1288625 .4559243
.4861116 .1234549 .4566193
.6283392 .1173117 .4564022
.7569579 .1118235 .4556356
.8683909 .1049357 .4549153
.9635723 .09178688 .4537562
.9999999 .08387963 .4531294
0 .2876852 .4559419
.1456669 .287679 .4561502
.327071 .2862261 .4564422
.4868329 .2863145 .4560793
.6289176 .2866823 .4553827
.7574468 .2840745 .454693
.8690015 .2806723 .4544234
.9639362 .2772433 .4534586
.9999999 .276672 .4529534
0 .4343424 .4558946
.1416722 .4343156 .455752
.3243551 .433262 .4558045
.4866888 .4325961 .4555739
.6304358 .4334516 .4546155
.7582663 .4331552 .4549772
.869298 .4304132 .4538205
.9644838 .4285687 .4530064
.9999999 .4281101 .452374
0 .5691078 .4549096
.1151527 .5692436 .4541369
.3159147 .5698247 .4524603
.4847543 .5698383 .4524621
.630948 .5697655 .4532846
.7587771 .5683139 .4537826
.8698525 .5671025 .452565
.9650443 .5655614 .4520257
.9999999 .5648389 .4521908
0 .6920274 .4501369
.104063 .6920528 .4496394
.3145638 .6920106 .4486686
.4806233 .6928261 .4478848
.6315866 .6917678 .4487229
.7591769 .691719 .4475024
.8712211 .690284 .4476707
.9647487 .6900327 .4519534
.9999999 .689633 .4522126
0 .8005527 .44708
.09456334 .8004248 .4467129
.3123595 .8002574 .4461725
.4793794 .8005486 .4457689
.6277028 .8006323 .4457
.7601267 .8003137 .4459054
.8709967 .8005527 .4454498
.9655367 .7993776 .4462556
.9999999 .79889 .4465592
0 .8956854 .4458036
.07183032 .8956287 .445628
.3058457 .8956769 .4453679
.4767452 .895821 .4449716
.6275514 .8954309 .4455938
.7583476 .8956081 .4452127
.8703945 .8948672 .4453468
.9648688 .894097 .4447092
.9999999 .8936228 .444694
0 .9769247 .4447206
.06452247 .9768943 .4445694
.3048032 .976853 .4442087
.4750131 .9768985 .4440549
.6259932 .9766533 .4460524
.756009 .976585 .445348
.867608 .976194 .4436643
.9626157 .9751286 .4422567
.9999999 .9745207 .4409938
0 0 .592796
.1552855 0 .5932297
.3299547 0 .5935276
.4865227 0 .5936868
.6282116 0 .5938422
.7567763 0 .5948219
.8692968 0 .5952159
.9638544 0 .5947342
.9999999 0 .5943934
0 .1285367 .5935789
.1464368 .1259705 .5940069
.3285523 .1196439 .5941957
.4865636 .1144365 .5943154
.6288994 .1109716 .5945605
.7577817 .10462 .5951295
.8693241 .09409308 .5949485
.9642949 .08298118 .5943392
.9999999 .07713192 .5940465
0 .2860774 .5941707
.1423365 .2849084 .5944007
.3253287 .2835661 .594652
.4856923 .2823783 .5946417
.6291687 .2816815 .5949704
.7586164 .2807918 .5946636
.8699339 .2777823 .5941406
.9647749 .275376 .5934584
.9999999 .273191 .5928462
0 .4331871 .5946809
.1261858 .432507 .5948217
.3190286 .4311407 .5946996
.4836554 .4294784 .5953819
.6314085 .430003 .5950009
.7594289 .4293616 .5931909
.8701869 .4277128 .5925074
.9651316 .4272391 .5921956
.9999999 .4269283 .592018
0 .568152 .595233
.1077081 .5682823 .5951113
.3160403 .5685375 .594894
.4837925 .5679267 .5947714
.6314543 .5676088 .5940793
.7580802 .5675091 .5934755
.8686193 .5670322 .5937195
.9645185 .5655938 .5924214
.9999999 .5646765 .592109
0 .69191 .5934291
.08663919 .6919497 .5931663
.3109175 .6919654 .5926835
.4782509 .6921372 .5918924
.6283823 .6916223 .5920266
.7607936 .6903861 .5902546
.8700571 .6895924 .5926376
.9642919 .6890006 .5916433
.9999999 .6891386 .5917948
0 .8012767 .5902924
.0637885 .8011879 .5901681
.3052936 .8009934 .5898533
.4775544 .8005158 .5889459
.6289159 .800279 .5881627
.759891 .79964 .5889168
.8701619 .8003773 .5884119
.9656348 .7993126 .5880313
.9999999 .79862 .5899381
0 .8960567 .5889937
.03272689 .8959945 .5887118
.2997417 .8958746 .5879549
.4744132 .895354 .5873553
.6261627 .895096 .5871715
.7588686 .8948503 .5871322
.8707899 .8946595 .5866916
.9641004 .8947225 .5867813
.9999999 .8938892 .5872326
0 .9768242 .587043
.01587747 .9766986 .5869062
.2985407 .9764869 .586578
.4750069 .9763868 .5864996
.6251776 .9762345 .5861204
.7547143 .9761682 .5873538
.8673681 .9758229 .5875065
.9628207 .9750518 .5840764
.9999999 .9745042 .583504
0 0 .7175577
.1446027 0 .7178539
.3278427 0 .7181512
.4861971 0 .7182633
.6295468 0 .7185232
.7581898 0 .7187869
.8692722 0 .7184967
.9645144 0 .7186362
.9999999 0 .7189486
0 .122401 .7177983
.1391322 .11862 .717962
.325372 .1116931 .7182059
.4854198 .1053875 .7184432
.6292768 .1040492 .7185909
.7580686 .09517711 .7189758
.8698219 .09147596 .718583
.9646593 .08037453 .7186663
.9999999 .07109395 .718796
0 .2844436 .7180932
.1315555 .2830963 .7182417
.3217529 .2806678 .7184533
.4839586 .2789005 .7188454
.6290088 .2788276 .7189996
.7583169 .275993 .7191598
.8716021 .2718667 .7192208
.9654534 .2708137 .7181742
.9999999 .2683147 .7181965
0 .4302947 .7190709
.1126548 .4299512 .7188617
.3160358 .4284434 .7188564
.4816964 .4270588 .7189974
.6310547 .4261357 .719382
.7594145 .4251522 .7197752
.8717415 .4245222 .7189935
.9662061 .4244753 .718093
.9999999 .4244045 .7180316
0 .5662217 .7197053
.08419859 .5660018 .7196212
.3106945 .5652729 .7191265
.4810649 .5647519 .7185906
.6284538 .5643476 .7193125
.7599639 .5638718 .7191914
.8710938 .5646977 .7175922
.9654639 .5645013 .7181552
.9999999 .5646695 .7179084
0 .6902305 .7191855
.07910732 .6903752 .7191842
.3115362 .6909984 .719179
.4789722 .6914182 .7190512
.6288628 .6905728 .7190384
.7586336 .6899604 .7185864
.8686033 .6902496 .7184684
.9628612 .6890532 .7180872
.9999999 .6886395 .7181154
0 .801663 .7185115
.06445716 .8015387 .7184821
.3052164 .8010841 .7185583
.4754258 .8007541 .7180418
.6269591 .7995901 .717612
.7582617 .7995029 .7181998
.87045 .7993147 .716107
.9632557 .7987067 .7173881
.9999999 .7983804 .7175367
0 .8960775 .7167835
.01631209 .8960105 .7165368
.2977251 .8957834 .7160159
.4737676 .8951862 .7156113
.6266505 .8943624 .7157081
.75811 .8942205 .7152683
.8691689 .8942744 .7149568
.9639935 .8934453 .714393
.9999999 .8927343 .7137666
0 .9767347 .7145708
.01858309 .9766997 .714419
.2963381 .9766986 .7136381
.4702705 .9762935 .7142352
.6260026 .9755998 .7136697
.7550347 .9755347 .7130844
.8663038 .975593 .714204
.960769 .9750405 .7142422
.9999999 .9746222 .713494
0 0 .8284284
.1356294 0 .8285128
.3221503 0 .8286957
.484062 0 .8289425
.6293124 0 .8286633
.7591743 0 .8288287
.8691702 0 .8291086
.9644298 0 .8288826
.9999999 0 .8287361
0 .1139099 .8284888
.1310403 .1094916 .8285832
.3203486 .1014092 .8287725
.4829406 .09560452 .8289747
.6288574 .09923086 .8287963
.758831 .08873291 .8289914
.8695425 .07975914 .8291816
.9646316 .0672465 .8291422
.9999999 .06007051 .8288547
0 .2813349 .8285217
.1149422 .2806782 .8285266
.3161105 .2793142 .8286737
.479694 .2772871 .8289975
.6273361 .277491 .8290898
.758045 .2731271 .8298488
.8702397 .2692428 .8297802
.965571 .2655552 .8295996
.9999999 .2627349 .8292277
0 .4286744 .828599
.09788194 .428102 .8286574
.3106827 .4273272 .8289778
.4776067 .4257074 .8296613
.6265312 .4235639 .829969
.7579203 .4225433 .8304381
.8710318 .4201761 .8297052
.9670666 .4187559 .8297484
.9999999 .4200709 .828682
0 .5650278 .8294693
.04883224 .5649278 .82953
.3028817 .5637675 .8297964
.4763682 .562436 .8299584
.6260117 .5618888 .8300114
.7576848 .5614144 .8303612
.8711308 .5605246 .8296732
.9665304 .5604944 .8286719
.9999999 .5619895 .8277918
0 .6886284 .8298596
.06231499 .6887571 .8297579
.3045936 .6888999 .8295047
.4744613 .688971 .8294592
.6261175 .6876497 .8298318
.7564956 .6871433 .8297015
.8702883 .687251 .829079
.9638698 .6882852 .8277535
.9999999 .6882413 .8271788
0 .799548 .8293444
.06390549 .7994981 .8292867
.3060369 .7994781 .8291205
.4764804 .7995622 .8290879
.6260464 .7991176 .8290097
.7572394 .7984261 .8288053
.8683457 .7988997 .8278921
.9616237 .7987645 .8277841
.9999999 .7985483 .827474
0 .895897 .828244
.0282385 .8957334 .8283315
.2991431 .895412 .8284755
.4738957 .8948278 .82842
.6261984 .8939766 .8281319
.7578887 .8929979 .8276806
.8676991 .8943548 .8285362
.962164 .8938042 .828826
.9999999 .8931789 .8285012
0 .9766917 .8273647
.00600653 .9765453 .8273713
.2975751 .976214 .827358
.4743094 .9761468 .8266096
.6265023 .9760569 .8259486
.7542945 .975248 .8268696
.8669079 .9749882 .827073
.9613469 .9742351 .8270877
.9999999 .9735625 .8258022
0 0 .922656
.1345569 0 .9227812
.3201198 0 .9230862
.481479 0 .9235433
.6263323 0 .9235962
.7577512 0 .9237886
.8691727 0 .9239279
.9637315 0 .9234216
.9999999 0 .9230899
0 .1098971 .9228012
.125834 .1062982 .9229155
.3175077 .1001366 .9231577
.480504 .09464028 .9235778
.6257807 .09127965 .9235193
.7569919 .08184037 .9238047
.8690776 .06834683 .9240564
.9639395 .05546633 .9234902
.9999999 .04845733 .9232978
0 .2787486 .9230349
.1099945 .278288 .9230981
.3132198 .2773571 .9233041
.4783 .2758708 .9237133
.6251214 .2748533 .9235729
.7553735 .2716484 .9239572
.8688866 .267536 .9242418
.9642845 .2636658 .9240332
.9999999 .2627448 .9238592
0 .4255339 .9234085
.07078753 .4244708 .9234508
.3046142 .4241187 .9237056
.4738731 .4234324 .9238241
.6242353 .4220768 .9237454
.7542942 .4209635 .9240271
.8686546 .4210023 .9241549
.9649296 .4182974 .9240844
.9999999 .4180795 .9246109
0 .5626173 .9234015
.05473962 .5624433 .9233857
.3041338 .5618983 .9233221
.4754779 .5613678 .9231951
.6253753 .5606089 .9233086
.7546874 .5605444 .9234886
.8686604 .5601242 .9236859
.9644267 .5589957 .9236798
.9999999 .5586466 .924055
0 .6867549 .9236316
.0326725 .6868377 .9235584
.2969498 .6866964 .9233959
.4734489 .6854609 .923183
.625201 .6853374 .9228678
.7559285 .6857389 .923212
.8688791 .6856257 .9240724
.964124 .6844839 .9241441
.9999999 .6845015 .9241768
0 .7974322 .9236163
.03261166 .7974724 .9235178
.296609 .7980591 .9233346
.4700938 .7981978 .9234157
.6231022 .797114 .9235343
.7558371 .7968034 .9235556
.8673174 .7973555 .9234059
.9629866 .796531 .9233876
.9999999 .7971935 .9231703
0 .8941133 .9236414
.03026462 .8940381 .9235751
.3015139 .8938927 .9234928
.4757467 .893615 .9234922
.6246388 .8938791 .9235219
.7539485 .8940268 .9232908
.8673053 .8935395 .923348
.9617291 .8936804 .9225197
.9999999 .8936743 .9222412
0 .976729 .922771
.00916371 .9767428 .9225578
.2973595 .9765585 .9224362
.4732901 .9763005 .9221889
.6254445 .9757043 .922347
.7551363 .9751582 .9222245
.8679872 .9742948 .9220225
.9600454 .9742041 .9235789
.9999999 .9743038 .9237612
0 0 .9999999
.1359526 0 .9999999
.3206597 0 .9999999
.4816266 0 .9999999
.6259912 0 .9999999
.7546523 0 .9999999
.8676385 0 .9999999
.9622124 0 .9999999
.9999999 0 .9999999
0 .1059575 .9999999
.1279705 .1036144 .9999999
.3178532 .09950284 .9999999
.4807339 .09484447 .9999999
.6258987 .08670931 .9999999
.7542878 .07412171 .9999999
.8675092 .07015086 .9999999
.962421 .05924583 .9999999
.9999999 .05703524 .9999999
0 .2783712 .9999999
.1114484 .2783718 .9999999
.3136012 .2783218 .9999999
.4789543 .2765655 .9999999
.6258436 .2741802 .9999999
.7538101 .2709552 .9999999
.8669234 .2687841 .9999999
.9628062 .2658522 .9999999
.9999999 .2655415 .9999999
0 .4240595 .9999999
.06495705 .4240676 .9999999
.303599 .4236225 .9999999
.4740952 .4235082 .9999999
.6246648 .4233033 .9999999
.7532107 .4229675 .9999999
.8671884 .4221129 .9999999
.9627886 .420966 .9999999
.9999999 .4201419 .9999999
0 .5606319 .9999999
.05180769 .559965 .9999999
.2976916 .5579477 .9999999
.4715703 .5585464 .9999999
.6238014 .5601264 .9999999
.7532369 .5609411 .9999999
.867337 .5613247 .9999999
.9624266 .5606485 .9999999
.9999999 .5597608 .9999999
0 .6848924 .9999999
.06051319 .6849182 .9999999
.3003069 .685158 .9999999
.4714099 .6846823 .9999999
.6202018 .6828601 .9999999
.7543234 .6848969 .9999999
.8661303 .6848752 .9999999
.9616035 .6843084 .9999999
.9999999 .6841726 .9999999
0 .7958521 .9999999
.04112528 .7958896 .9999999
.2975944 .7959776 .9999999
.4714179 .7958389 .9999999
.623328 .7954264 .9999999
.7535166 .7954819 .9999999
.864426 .7964413 .9999999
.9599637 .7956778 .9999999
.9999999 .7947354 .9999999
0 .8911442 .9999999
.06292357 .8911284 .9999999
.3049243 .8912725 .9999999
.4758283 .8911045 .9999999
.6243081 .8912244 .9999999
.7538942 .8910583 .9999999
.8658246 .8915545 .9999999
.9589562 .8925306 .9999999
.9999999 .8924083 .9999999
0 .9737352 .9999999
.04004787 .9736961 .9999999
.3038444 .9735714 .9999999
.4775816 .9732336 .9999999
.6250086 .9728343 .9999999
.754758 .9728246 .9999999
.8688889 .9724433 .9999422
.9631146 .9734008 .9996185
.9999999 .9748815 .9985054
