luts/Timeless 39.cube
# 3D LUT of size 33x33x33 converted by Filestar.
#   Input:
#     color space: sRGB
#     white point: default (D65)
#     transfer function: default (sRGB)
#   Output:
#     color space: sRGB
#     white point: default (D65)
#     transfer function: default (sRGB)
#   Exposure: +0.48
#   Contrast: +20
#   Whites: +7
#   Blacks: -18
#   Vibrance: +4
LUT_3D_SIZE 33
0 .00020838 .01245082
0 .00467824 .00530378
.0132303 .00520092 .00102967
.08613125 0 .00674132
.1347889 0 .00671111
.1768914 0 .0056823
.2183129 0 0
.2589352 0 0
.2987514 0 0
.3374739 0 0
.3758762 0 0
.4135039 0 0
.4503723 0 0
.4867957 0 0
.5226178 0 0
.5574898 0 0
.5919785 0 0
.6254917 0 0
.6580011 0 0
.6896591 0 0
.7207484 0 0
.7508063 0 0
.7796705 0 0
.8078581 0 0
.8350097 0 0
.8612335 0 0
.8866594 0 0
.9109969 0 0
.9343255 0 0
.9567369 0 0
.9784747 0 0
.9994151 0 0
.9999999 0 0
0 .02447688 .01402553
0 .03415815 .00550856
.00467646 .03390256 .00222336
.07822344 .02605009 .00415546
.132028 .01735507 .00586079
.1766432 .01329686 .00329419
.2192523 .01541639 0
.2600465 .01851302 0
.2993318 .02577136 0
.338345 .02981798 0
.376395 .02999273 0
.4139453 .02850545 0
.4507068 .02745715 0
.4872345 .02348107 0
.523019 .02036096 0
.5578591 .01790544 0
.5923181 .01163545 0
.625789 .00252942 0
.6580337 0 0
.6897672 0 0
.7208405 0 0
.7508361 0 0
.779741 0 0
.8079086 0 0
.8350598 0 0
.8612844 0 0
.8866848 0 0
.9110019 0 0
.934343 0 0
.9567544 0 0
.9785092 0 0
.9994646 0 0
.9999999 0 0
0 .06539498 0
0 .06741796 0
0 .0672431 0
.07414735 .06297802 0
.1337672 .05634744 .00255176
.1788436 .05609655 0
.2207203 .05884902 0
.2608458 .06344894 0
.3000589 .06854413 0
.3390456 .06956045 0
.3769359 .06954118 0
.4143673 .06854878 0
.4512276 .06714474 0
.4877289 .06444065 0
.5234677 .06218053 0
.5582755 .06049528 0
.592701 .05598607 0
.6258569 .05041534 0
.6580706 .04306544 0
.6898811 .03916844 0
.7209187 .03718598 0
.7508701 .03412306 0
.7798204 .03166098 0
.8079656 .03055494 0
.8351161 .02954346 0
.8613438 .02780138 0
.8867105 .02386456 0
.9110276 .01747127 0
.93434 .00813435 0
.9567743 .00214808 0
.9785644 .00284491 0
.999521 .0041198 0
.9999999 .00408657 0
0 .1048771 0
0 .1046873 0
.00287555 .1051287 0
.07425316 .1037777 0
.1363578 .09812803 0
.1812265 .09925195 0
.2222682 .1015264 0
.26214 .1042112 0
.3011637 .1062669 0
.3398133 .1065954 0
.3776455 .1065984 0
.4149407 .1061424 0
.4519899 .1042749 0
.4884344 .1025726 0
.5241013 .101077 0
.5587723 .1005381 0
.5928252 .09894966 0
.6259567 .09573881 0
.6581974 .09192912 0
.6899759 .09110474 0
.7209929 .08981093 0
.7509194 .08825589 0
.7799173 .08685007 0
.8080469 .08619969 0
.8351968 .08565537 0
.8614271 .08467003 0
.8867475 .08280819 0
.911048 .07837958 0
.9343354 .07262952 0
.9568473 .06953336 0
.9786436 .06986795 0
.9996007 .07070052 0
.9999999 .07067668 0
0 .1425111 0
0 .1419491 0
.01159915 .1422503 0
.077264 .1418843 0
.1402867 .1390232 0
.1837354 .1395678 0
.2244703 .1404001 0
.2636573 .1413591 0
.3022832 .142153 0
.3408211 .1425603 0
.3785909 .1426263 0
.4161597 .141567 0
.4530583 .1401184 0
.4893748 .139079 0
.5245941 .1390852 0
.5589716 .1397504 0
.592949 .1384071 0
.6260509 .1367879 0
.6583326 .1349461 0
.6901139 .1345113 0
.7211034 .133619 0
.7510076 .1326075 0
.7800342 .1316743 0
.8081554 .131171 0
.835305 .1308251 0
.8615386 .1301329 0
.8868248 .1291132 0
.9110673 .1259556 0
.9343883 .1220348 0
.9569348 .1212435 0
.9787305 .1214152 0
.9997075 .1217413 0
.9999999 .1215706 0
0 .1783299 0
0 .1783671 0
.02416282 .1791105 0
.08387766 .1794288 0
.1443286 .176875 0
.1859449 .1768547 0
.2264574 .177049 0
.2648358 .1776488 0
.3035271 .1779639 0
.3419884 .1781245 0
.3802122 .1774771 0
.4176956 .1765545 0
.4539223 .1762775 0
.4897617 .1765275 0
.524852 .1767235 0
.5591355 .1777263 0
.5929345 .1773984 0
.6261261 .1760986 0
.6585037 .1749925 0
.69024 .1744538 0
.7212467 .1741424 0
.7511126 .1735076 0
.7802103 .1725992 0
.8082933 .1723029 0
.8354555 .1719794 0
.8616815 .1714973 0
.8870017 .1706534 0
.9111919 .1679201 0
.9344647 .1656386 0
.9570394 .1657709 0
.9788322 .1658962 0
.9998311 .1657043 0
.9999999 .1653894 0
0 .2142541 0
0 .2140236 0
.04565655 .2139006 0
.09296893 .2143643 0
.1493896 .2122016 0
.1904787 .2117366 0
.229734 .2117139 0
.2679436 .2119485 0
.3051561 .2131529 0
.343144 .2137046 0
.3812579 .213342 0
.4182373 .2130328 0
.4543769 .2132442 0
.4901298 .2137717 0
.5250512 .2143999 0
.5592386 .215086 0
.5930709 .2149081 0
.6262085 .21411 0
.6586634 .2134213 0
.6903885 .2130011 0
.7213859 .2128687 0
.751186 .2125683 0
.780298 .2119823 0
.8084235 .2118433 0
.8357052 .2109797 0
.8619336 .2105983 0
.8871817 .2093093 0
.9113791 .2074013 0
.9346472 .206718 0
.9571736 .2071641 0
.9789657 .2072975 0
.9999538 .2067874 0
.9999999 .2065324 0
0 .2489161 0
0 .2486258 0
.05300353 .248495 0
.1015541 .2486772 0
.1525629 .2474317 0
.1923229 .247366 0
.2304236 .2477242 0
.268193 .2484112 0
.3057753 .2494642 0
.3439158 .2498012 0
.3814381 .250235 0
.4185734 .2500806 0
.4548568 .2501637 0
.4905187 .250612 0
.5253637 .251046 0
.5594129 .2517298 0
.5932062 .251746 0
.6262339 .2513993 0
.6587735 .250882 0
.6906217 .250723 0
.7215555 .2505126 0
.7513539 .2501252 0
.7805241 .2498239 0
.8087671 .2493953 0
.8360112 .2489167 0
.8622224 .2485163 0
.8874207 .2469658 0
.9115531 .2458347 0
.9349226 .2459842 0
.9574615 .2463492 0
.9791437 .2464534 0
.9999999 .2458967 0
.9999999 .2457427 0
0 .2843227 0
.00168971 .2841438 0
.05943929 .283995 0
.1091175 .2838074 0
.1535867 .2834397 0
.1931232 .2836304 0
.2309281 .2839323 0
.2685552 .2848583 0
.3066309 .285429 0
.3447821 .285565 0
.3817737 .2860855 0
.4185216 .286333 0
.4551008 .2864664 0
.4908848 .286704 0
.5256172 .2870885 0
.5596108 .2878924 0
.5931541 .2879733 0
.6262823 .2879179 0
.6590288 .2875503 0
.6910679 .2875102 0
.721831 .2872219 0
.751663 .286914 0
.7808648 .2866079 0
.8091325 .2862443 0
.8363454 .2859381 0
.8624817 .2851346 0
.8876271 .284103 0
.9118631 .2840663 0
.935242 .2840199 0
.9577807 .2839936 0
.9794298 .2840065 0
.9999999 .283746 0
.9999999 .2836225 0
0 .3196004 0
.00764775 .3195268 0
.06371504 .3194655 0
.1119836 .3193783 0
.1575221 .3190353 0
.1937091 .3196014 0
.2316197 .3198726 0
.2698005 .3203637 0
.3087441 .3202791 0
.3465539 .320367 0
.3833281 .3206864 0
.4185046 .3221247 0
.4550027 .322483 0
.4908745 .322658 0
.5258721 .3229041 0
.5597587 .3233713 0
.593492 .3235878 0
.6266363 .3239209 0
.659489 .3238355 0
.6913508 .3236738 0
.7220927 .323434 0
.7519765 .3231815 0
.7811933 .3228877 0
.8094621 .3226013 0
.8367556 .3220257 0
.8627666 .3211699 0
.8878723 .3210514 0
.9121772 .3214384 0
.9355747 .321003 0
.9580881 .320962 0
.9797203 .3208061 0
.9999999 .3205633 0
.9999999 .3204558 0
0 .3554195 0
.00434526 .3554468 0
.06197636 .3553755 0
.1113898 .3552825 0
.1550959 .355232 0
.1936196 .3556094 0
.2325934 .3556339 0
.2710661 .3556449 0
.3096496 .3555854 0
.3478043 .355341 0
.3851479 .3551307 0
.4216225 .3553609 0
.4555539 .3579128 0
.4910918 .3582464 0
.5259377 .3584543 0
.5604256 .3588087 0
.5941437 .359097 0
.6274418 .3593827 0
.6600328 .3595007 0
.6916692 .359326 0
.7223971 .3591062 0
.7523503 .3588311 0
.781555 .3585826 0
.8097997 .3583116 0
.8369418 .3574643 0
.8630797 .3568659 0
.8881556 .3576705 0
.9123802 .3584384 0
.9358543 .3574911 0
.95832 .3573277 0
.9799114 .3571918 0
.9999999 .3568996 0
.9999999 .3568206 0
0 .3907935 0
.00497179 .3907377 0
.06262473 .3906753 0
.1120715 .3905863 0
.1564871 .3904611 0
.1958071 .3906794 0
.2339944 .3908857 0
.2719857 .3909817 0
.3103578 .3909533 0
.3482703 .3908151 0
.3856101 .3908385 0
.4224727 .3912115 0
.4582127 .3916416 0
.4917257 .3931898 0
.5264755 .3935665 0
.5607625 .3939251 0
.5946926 .3943167 0
.6282339 .3944135 0
.660517 .3944846 0
.69209 .3943078 0
.7227662 .3940924 0
.7527709 .3938626 0
.7819001 .3936625 0
.8099497 .3931367 0
.8370485 .3928992 0
.8632811 .3934335 0
.8884296 .3938446 0
.9126316 .3938574 0
.9361023 .3929799 0
.9585335 .393006 0
.9800444 .3930664 0
.9999999 .3927922 0
.9999999 .3926939 0
0 .4261732 0
0 .4261039 0
.05548729 .4260258 0
.1074477 .4259691 0
.1524691 .4259273 0
.1948316 .4258701 0
.2331165 .4261726 0
.2714291 .4261969 0
.3103638 .4261167 0
.3484665 .4261028 0
.3860016 .4262334 0
.4228721 .4264972 0
.4587161 .4266728 0
.4934455 .426935 0
.5272868 .4279541 0
.5613732 .4283786 0
.5952004 .4288507 0
.6286049 .4290013 0
.660996 .4290141 0
.6925565 .4288103 0
.723139 .4286782 0
.7529964 .4287254 0
.7819703 .4283363 0
.8100644 .4282897 0
.8372341 .4287621 0
.863391 .4290409 0
.8886228 .4290377 0
.9129292 .4285641 0
.9363872 .4278255 0
.9588031 .4277749 0
.9802627 .4278155 0
.9999999 .4276816 0
.9999999 .4276392 0
0 .4609147 0
0 .4608502 0
.04041493 .4607773 0
.09880307 .460753 0
.1465019 .4607865 0
.1904046 .4608217 0
.2304942 .461096 0
.269698 .4613385 0
.3092007 .4613128 0
.3482753 .4611801 0
.3861457 .4611436 0
.4230206 .4612585 0
.458848 .4612008 0
.4941366 .4614143 0
.5283487 .4617625 0
.5622622 .4622244 0
.5959138 .4628364 0
.6285285 .4633977 0
.6609396 .4633678 0
.6924455 .4634658 0
.7232695 .4633354 0
.7531564 .4629053 0
.782222 .4629602 0
.8102723 .4633308 0
.8373882 .4634587 0
.8635156 .4633657 0
.8887864 .4631616 0
.9133155 .4623801 0
.9367198 .4620578 0
.9590423 .4618831 0
.9805128 .4619155 0
.9999999 .4618883 0
.9999999 .461854 0
0 .4952865 0
0 .4952575 0
.02566535 .4952385 0
.09142075 .4952551 0
.1417279 .4952773 0
.186929 .4953054 0
.2296117 .4953347 0
.2694016 .4955519 0
.3080242 .4957646 0
.3468845 .4958203 0
.3857822 .4956136 0
.4225011 .4954495 0
.4586477 .4956115 0
.4940814 .4957929 0
.5287955 .4960486 0
.5630654 .4961026 0
.5964029 .4964184 0
.628974 .4968228 0
.6609336 .4971217 0
.6922662 .4970672 0
.7231147 .497165 0
.7533663 .497208 0
.7824453 .4972668 0
.810452 .4972255 0
.8375106 .4969865 0
.8636742 .4968187 0
.8889236 .4966675 0
.9135162 .4957809 0
.9370327 .4955755 0
.9592964 .4955078 0
.9807399 .4954372 0
.9999999 .4953551 0
.9999999 .495329 0
0 .529074 0
0 .5290508 0
.0122009 .5290451 0
.08388614 .5290568 0
.1368459 .5290725 0
.1834005 .5290655 0
.2269022 .5290565 0
.2686597 .5290608 0
.3076254 .5292779 0
.3459719 .5294235 0
.3840033 .5293876 0
.4224796 .5290595 0
.4586687 .5291182 0
.4942412 .5292523 0
.5291987 .5293934 0
.5635386 .5293711 0
.5970691 .5290345 0
.629391 .5294109 0
.6612094 .5297432 0
.6923028 .5305108 0
.7230352 .5306322 0
.7532303 .5304349 0
.7824656 .5302047 0
.8106984 .5299615 0
.8377631 .5297048 0
.8638901 .5294458 0
.8891842 .529161 0
.9136795 .5288622 0
.9370749 .5288032 0
.9594439 .5285767 0
.98091 .5283849 0
.9999999 .5283189 0
.9999999 .5283296 0
0 .5614251 0
0 .5614316 0
.00920315 .5614372 0
.08179524 .5614222 0
.1354549 .5614552 0
.1822315 .5614901 0
.2259954 .5615277 0
.2679071 .5615709 0
.3074909 .5617719 0
.3460446 .5619635 0
.3838933 .5619868 0
.4215511 .5617861 0
.4589814 .5616434 0
.4945557 .5617899 0
.5294903 .5619373 0
.5634253 .5620039 0
.5973658 .5616141 0
.629949 .5616814 0
.6616841 .5622361 0
.6926402 .5627727 0
.7230667 .5632629 0
.7530273 .5630136 0
.7822744 .562782 0
.8104516 .5625693 0
.8377111 .5623531 0
.8640055 .5621294 0
.8892753 .5619313 0
.9135563 .5616809 0
.937041 .5614294 0
.9594483 .5612727 0
.9811537 .5608377 0
.9999999 .560684 0
.9999999 .5607767 0
0 .5931831 0
0 .5931954 0
.00659965 .5932092 0
.08056771 .5932287 0
.1348417 .5932559 0
.1819898 .5932913 0
.2258478 .5933346 0
.2677618 .5933858 0
.308508 .5934522 0
.346651 .5937701 0
.3839316 .5939226 0
.4210735 .5938919 0
.4579998 .593851 0
.4946595 .593777 0
.5292143 .5939087 0
.5634764 .5941052 0
.5974522 .5939562 0
.6304612 .5937298 0
.6620551 .5938721 0
.6930305 .5941887 0
.723457 .5946304 0
.7530536 .5950142 0
.7822635 .5945296 0
.8102473 .5943685 0
.8374848 .5941858 0
.8637404 .59396 0
.8891695 .593741 0
.9135888 .5935404 0
.9369463 .593331 0
.959356 .5931803 0
.9811398 .5932066 0
.9999999 .5929398 0
.9999999 .5929299 0
0 .6243683 0
0 .6243806 0
.00389034 .6243943 0
.07914933 .624414 0
.1340733 .6244403 0
.1814549 .6244737 0
.2254521 .6245144 0
.2676003 .6245667 0
.3084206 .6246318 0
.3480585 .6247273 0
.3842366 .6251649 0
.4210673 .6251537 0
.4579988 .6251566 0
.4941537 .6252607 0
.5298114 .6251843 0
.5640739 .6252093 0
.5976048 .6252031 0
.6306092 .6249863 0
.6624902 .6249538 0
.6934896 .6249961 0
.7238832 .6252782 0
.7532902 .6256624 0
.7819536 .6259675 0
.8101376 .6254746 0
.8370953 .625163 0
.8634585 .6248572 0
.8889152 .6246232 0
.9134311 .6244911 0
.9369784 .62432 0
.9596658 .6243455 0
.981273 .6243604 0
.9999999 .6243805 0
.9999999 .6243984 0
0 .6547854 0
0 .6547965 0
.00233332 .6548092 0
.07821908 .6548272 0
.1334991 .6548512 0
.1810351 .6548816 0
.2252397 .6549177 0
.2675019 .6549608 0
.3087871 .655045 0
.3485387 .6551695 0
.3855258 .6555806 0
.422189 .6556495 0
.458467 .6555393 0
.4942204 .6554756 0
.5299639 .6554032 0
.5647466 .6553038 0
.5982751 .6552603 0
.6310066 .6551991 0
.66308 .6550518 0
.6942781 .6550527 0
.7243392 .6550598 0
.7536188 .6553275 0
.7821465 .655638 0
.8099157 .6557951 0
.8371457 .6553822 0
.8633831 .6549646 0
.8888854 .6546423 0
.9134511 .6545334 0
.9370303 .6545802 0
.959767 .654604 0
.9816123 .6545987 0
.9999999 .6547977 0
.9999999 .6548606 0
0 .6842993 0
0 .6843194 0
.00597453 .6843452 0
.08086937 .6843822 0
.1355012 .6844315 0
.1829614 .6844962 0
.2271918 .684568 0
.2694816 .6845983 0
.3101399 .6846399 0
.3495407 .6846707 0
.3877529 .6847013 0
.422957 .6850664 0
.4589049 .6849744 0
.4947272 .6848592 0
.5300198 .6848077 0
.5652783 .6845959 0
.5990396 .6845078 0
.6316849 .6844774 0
.6636695 .6843977 0
.6948423 .6844748 0
.7248421 .6843556 0
.7541292 .6842026 0
.7824 .6846361 0
.8100498 .6849333 0
.8371499 .6848225 0
.8635058 .6846303 0
.8891947 .6841872 0
.9134158 .6843042 0
.9370499 .6843577 0
.9597061 .6842398 0
.9815988 .6841624 0
.9999999 .6842405 0
.9999999 .6843078 0
0 .7131062 0
0 .7131169 0
.01579695 .7131287 0
.08528378 .7132099 0
.1385608 .7132306 0
.1853273 .7132618 0
.2289312 .7133031 0
.2703934 .7133551 0
.3103023 .7133601 0
.3494283 .7133819 0
.3877203 .7134097 0
.4232739 .7137343 0
.4593647 .7137542 0
.4950516 .7136506 0
.5300214 .7137169 0
.5646457 .7137167 0
.5991243 .7134386 0
.6318684 .7133011 0
.6639411 .7131772 0
.6950371 .7131546 0
.7253338 .7129481 0
.7547586 .7127739 0
.7831435 .7127057 0
.8103418 .7132896 0
.8372707 .7136723 0
.8635902 .7136812 0
.8890483 .7137453 0
.9136863 .7133111 0
.9369069 .7132652 0
.9595802 .7131625 0
.981316 .7130997 0
.9999999 .7130619 0
.9999999 .713129 0
0 .7412976 0
0 .7413016 0
.01451022 .7413065 0
.08639888 .7413136 0
.1392963 .741323 0
.1854693 .7413344 0
.2286529 .7413391 0
.2696484 .7414771 0
.3094321 .7415863 0
.3486844 .7415923 0
.3869763 .7416083 0
.4245082 .7416331 0
.4594412 .741967 0
.4951142 .741824 0
.5302398 .7416974 0
.5642928 .7417232 0
.598259 .741599 0
.6319104 .7413182 0
.6640475 .7411835 0
.695281 .7410747 0
.7257475 .7408513 0
.7552465 .7406688 0
.7836996 .7407205 0
.8112817 .7408726 0
.8377878 .7415578 0
.8638687 .7418072 0
.8892463 .7417579 0
.9135936 .7417399 0
.9367828 .741528 0
.9594669 .7412898 0
.9811245 .7412943 0
.9999999 .7411755 0
.9999999 .7410975 0
0 .7687882 0
0 .7687888 0
.00411097 .7687894 0
.07955117 .7687903 0
.1345242 .7687916 0
.181955 .7687832 0
.2261908 .7687542 0
.26837 .7687388 0
.3088789 .7687141 0
.3480634 .7687207 0
.3864779 .7687305 0
.423867 .7687948 0
.4590977 .769059 0
.4950478 .7690048 0
.5302884 .7688829 0
.5645247 .7688454 0
.5979663 .768845 0
.6312602 .7687028 0
.6642601 .768473 0
.695467 .7683253 0
.7260638 .768149 0
.7556612 .7681012 0
.7843758 .7681366 0
.8120368 .7682119 0
.8387651 .7683414 0
.8643984 .76884 0
.8893662 .7689771 0
.9132435 .7690847 0
.9365641 .7691643 0
.9592842 .7689998 0
.9811097 .7685608 0
.9999999 .7682627 0
.9999999 .7681703 0
0 .7952693 0
0 .7952572 0
0 .7952421 0
.07424083 .7952204 0
.1313939 .7951971 0
.1796463 .7951847 0
.2241842 .7951657 0
.266549 .7951303 0
.3073871 .7950938 0
.3469682 .7950984 0
.3856117 .7951097 0
.4233983 .7951223 0
.4603671 .795136 0
.4949368 .7954213 0
.5302581 .7952906 0
.5646926 .7951981 0
.5979447 .795224 0
.6311169 .7951789 0
.6638287 .7951009 0
.6958113 .7949538 0
.7263801 .7949441 0
.7559844 .7948871 0
.7848099 .7948166 0
.8127159 .7947721 0
.839452 .7948222 0
.8650712 .7949166 0
.8894009 .7952849 0
.9130161 .795713 0
.9364127 .795675 0
.959086 .7953962 0
.9809058 .7951195 0
.9999999 .7946429 0
.9999999 .794517 0
0 .8209894 0
0 .8209709 0
0 .820955 0
.06642046 .8209323 0
.126927 .8209022 0
.1765262 .8208702 0
.2217854 .8208331 0
.2648024 .8207668 0
.306177 .8207183 0
.3461414 .8206957 0
.3848847 .8207067 0
.4227503 .8207187 0
.459784 .8207316 0
.4962076 .8207504 0
.5304006 .8208855 0
.5646179 .8208125 0
.5982428 .820917 0
.6313593 .821021 0
.6636895 .8210813 0
.6956379 .8210009 0
.7265428 .8208708 0
.7562658 .8208535 0
.7851231 .82081 0
.8130443 .820676 0
.8398942 .8206141 0
.8653816 .8206518 0
.8897579 .8207926 0
.9134126 .8208191 0
.9362191 .8211136 0
.9588987 .8208463 0
.9807225 .8205862 0
.9999999 .8203292 0
.9999999 .8202473 0
0 .8459312 0
0 .8459045 0
0 .8458805 0
.05692597 .8458632 0
.1215231 .84584 0
.1727622 .8458092 0
.2191024 .845769 0
.2626933 .8457189 0
.3045409 .8456444 0
.3450417 .8455598 0
.3841493 .8455174 0
.4220956 .845529 0
.4592837 .8455258 0
.4957459 .8455117 0
.5299714 .8457569 0
.5646846 .8457976 0
.598774 .845832 0
.6315437 .8459402 0
.6634974 .846076 0
.6951583 .8461102 0
.7265891 .8459154 0
.7564363 .8457201 0
.7851735 .8456249 0
.8131064 .8455481 0
.8398933 .8454561 0
.8654585 .8453358 0
.8899521 .8453103 0
.9135494 .8453767 0
.9367695 .845172 0
.9587006 .8455518 0
.9805301 .8453023 0
.9999999 .8450549 0
.9999999 .8449763 0
0 .8700997 0
0 .8700736 0
0 .870043 0
.04638048 .870007 0
.1164996 .8699818 0
.1694454 .86995 0
.2165544 .8699111 0
.2606148 .869865 0
.3027428 .8698076 0
