luts/Timeless_27.cube
# 3D LUT of size 33x33x33 converted by Filestar.
#   Input:
#     color space: sRGB
#     white point: default (D65)
#     transfer function: default (sRGB)
#   Output:
#     color space: sRGB
#     white point: default (D65)
#     transfer function: default (sRGB)
#   Exposure: +0.16
#   Contrast: -59
#   Whites: +22
#   Blacks: -12
LUT_3D_SIZE 9
0 0 .00704859
.1209789 0 .00252022
.2605794 0 .00065511
.4010123 0 0
.5438029 0 0
.6776844 0 0
.8093116 0 0
.9338294 0 0
.9999999 0 0
0 .1295511 0
.1316593 .129481 0
.265432 .1346501 0
.4051402 .1349059 0
.5443381 .13298 0
.6781766 .1308363 0
.8091083 .1254109 0
.9341285 .118896 0
.9999999 .1240953 0
0 .2757591 0
.1285952 .2762056 0
.2690127 .2780116 0
.4058816 .2814911 0
.5442028 .2812408 0
.6795485 .2812893 0
.8094295 .2816868 0
.9349234 .2791307 0
.9999999 .2827695 0
0 .421692 0
.1154821 .4219062 0
.2675826 .4225333 0
.4080884 .4240647 0
.5463513 .4243042 0
.6814333 .425057 0
.8108429 .4263913 0
.935529 .4259985 0
.9999999 .4291673 0
0 .5642869 0
.1054565 .5644853 0
.265958 .5649016 0
.4096268 .5652955 0
.548505 .5660923 0
.6830745 .5660322 0
.8124595 .5675225 0
.9358072 .5687081 0
.9999999 .5686356 0
0 .7025725 0
.1029302 .7027115 0
.2671374 .7029631 0
.4130547 .7032331 0
.5512774 .7040156 0
.6848815 .7037796 0
.8140209 .7031754 0
.935872 .7043837 0
.9999999 .7040817 0
0 .8339877 0
.1072418 .8340493 0
.2707415 .8341432 0
.4140728 .8345625 0
.5510204 .8349082 0
.6850126 .8348292 0
.8136622 .8346897 0
.9353608 .833544 0
.9999999 .8334848 0
0 .9555853 0
.1442116 .9556312 0
.2829545 .9559531 0
.4199811 .9564936 0
.556664 .9564179 0
.689198 .9562928 0
.814024 .9562628 0
.9334735 .9559986 0
.9999999 .9525194 0
.09516201 .9999999 .1060406
.1813144 .9999999 .1070384
.3005815 .9999999 .1054025
.4291641 .9999999 .1021112
.5600829 .9999999 .09143876
.6872583 .9999999 .07707231
.8101019 .9999999 .06171781
.9204941 .9999999 .04848873
.9999999 .9999999 .05243758
0 .00013626 .1192471
.1263973 0 .1182426
.2643465 0 .1174493
.4038924 0 .1152954
.5442094 0 .1145545
.6782675 0 .111704
.8095554 0 .1122054
.9341411 0 .1097237
.9999999 0 .1173013
0 .1282428 .1185025
.128944 .1289444 .1171883
.2657076 .1332192 .1184643
.4061361 .1317132 .1156003
.5448149 .1270108 .1122001
.6787395 .1256068 .1091625
.809745 .1185874 .109249
.9344745 .1129104 .1088698
.9999999 .1172466 .1189197
0 .2750848 .1161279
.1240731 .2758529 .1135979
.2694864 .276977 .114329
.4064869 .2797723 .1136983
.5444914 .278832 .1089764
.679912 .2800504 .1042337
.8098304 .2794771 .104124
.9351748 .2776127 .1101146
.9999999 .2810032 .1216636
0 .4212394 .112306
.112607 .4214704 .1119507
.26656 .422143 .1117528
.4074392 .4235715 .1121662
.5465406 .4237537 .1091585
.6816221 .4245461 .1038687
.8110981 .4257314 .1003204
.9355007 .4253562 .1089988
.9999999 .4281522 .1168083
0 .5642183 .1015851
.1025391 .5644239 .1012056
.2646419 .5648977 .1001731
.4089355 .5653482 .09997647
.5481383 .5658857 .1003392
.6831983 .5658416 .09891582
.812589 .5672725 .09037369
.9360705 .5683334 .09239212
.9999999 .5682986 .1017474
0 .7025654 .08618388
.09953245 .7027192 .08492803
.2652761 .703036 .08507708
.4120306 .7032871 .0880431
.5509617 .7039212 .08694906
.6848658 .7036417 .08628453
.814169 .7030545 .08216465
.9361409 .7041957 .08025502
.9999999 .7038986 .08993163
0 .8339978 .09515075
.1032155 .8340621 .09469136
.2687101 .8341745 .09423954
.4128957 .8344775 .09254824
.550564 .8348889 .08152939
.6848592 .8348755 .07710326
.8136552 .8347014 .06813086
.9354962 .8335307 .07240411
.9999999 .8334083 .07751837
0 .9555381 .1317053
.144578 .9555842 .1320392
.2833095 .9558129 .1310721
.4201437 .9563262 .1266675
.5563484 .9563635 .1178827
.6889701 .9561972 .1049147
.814006 .9562119 .0919928
.9335114 .9559161 .08136962
.9999999 .9524216 .07250733
.0980035 .9999999 .1789895
.1828333 .9999999 .1795821
.3016635 .9999999 .1800512
.4298932 .9999999 .1781622
.559983 .9999999 .1725852
.6872149 .9999999 .1651222
.8100712 .9999999 .15806
.9202442 .9999999 .1520368
.9999999 .9999999 .1540933
0 0 .2467096
.1243467 0 .2481874
.2647852 0 .2491168
.4043706 0 .2500255
.5448324 0 .2501385
.6789382 0 .2505248
.8098487 0 .2507566
.9348809 0 .2491231
.9999999 0 .2511429
0 .1305852 .2485588
.129928 .1294248 .2490183
.2668302 .1300078 .2491972
.4064175 .1264653 .2496096
.5456423 .1208914 .2494189
.6794859 .1188116 .2494925
.8101155 .1116152 .2496969
.9352016 .1005447 .2487779
.9999999 .102261 .2517602
0 .2751378 .2498201
.1225376 .2751889 .2498735
.2684747 .2757918 .2493877
.4078271 .2771798 .248822
.545823 .2762967 .2466708
.6809752 .2765156 .2462575
.8109862 .2752742 .2483107
.9358303 .2736903 .2482051
.9999999 .2766077 .2541267
0 .4212452 .2494811
.1104344 .4215157 .2486919
.266352 .4222437 .2483268
.4079019 .4231083 .2483655
.5474749 .4231817 .2468427
.6824164 .4235626 .2451079
.8119077 .424403 .2445438
.9358082 .4237791 .2497613
.9999999 .4260094 .2550617
0 .5642759 .2462904
.09698298 .5644668 .2460813
.263393 .5647312 .2455328
.4094337 .5650944 .24472
.5491679 .5653294 .2446176
.6837435 .5656703 .2438538
.8130454 .5668855 .2421967
.936226 .5674824 .2460897
.9999999 .5681028 .251272
0 .7024889 .2435066
.08929987 .7026494 .2431587
.2636939 .7028761 .2428479
.4113263 .7032973 .2431359
.5502653 .7037507 .2447116
.6855559 .7032261 .2410348
.8144776 .7029115 .2401176
.9368156 .7040027 .2399229
.9999999 .7035471 .2480286
0 .8340343 .2449422
.09899396 .8340383 .2457098
.2670159 .8341537 .2455932
.4120002 .8342869 .2464769
.5501027 .835069 .243524
.685194 .8348889 .2408479
.814069 .8345755 .2382905
.9361029 .8334346 .2378497
.9999999 .8331422 .2425627
.00089085 .9554093 .262767
.145929 .9554552 .262927
.2841071 .9555638 .2633201
.4199321 .9559454 .2622067
.5553219 .9563147 .2588298
.6881883 .9561675 .2534263
.8136742 .956147 .2472832
.933452 .9556952 .2418476
.9999999 .9519522 .2399913
.1054407 .9999999 .2876519
.186938 .9999999 .2880056
.3041736 .9999999 .2888955
.4318711 .9999999 .2894083
.559953 .9999999 .2867647
.6872365 .9999999 .2820919
.8100111 .9999999 .2782886
.9195431 .9999999 .2750214
.9999999 .9999999 .2748988
0 0 .3799485
.1292308 0 .3802052
.267619 0 .380222
.4059352 0 .3807109
.5462832 0 .3818794
.6804323 0 .3840818
.8104077 0 .3853451
.9353698 0 .3846385
.9999999 0 .3827415
0 .1318291 .3802749
.1251845 .1290228 .3802188
.268454 .1276969 .3803665
.4078333 .124888 .3807019
.5472388 .1174482 .3811901
.6809331 .1124228 .3834206
.8107026 .1063924 .384482
.9357572 .08933147 .3833316
.9999999 .08269762 .3816899
0 .2771539 .3807874
.1191052 .2767729 .3810414
.2673707 .2762121 .3811912
.40947 .2753568 .3802792
.5474012 .2738362 .3794426
.6817999 .2740088 .381482
.8114323 .27158 .382172
.9367408 .2658982 .380696
.9999999 .269156 .3822226
0 .421672 .3817217
.1028155 .421925 .3817865
.2623664 .4227492 .3816054
.4091631 .4219604 .3810473
.5484907 .421966 .3805911
.6826735 .4228376 .3805489
.812581 .4219075 .3816707
.9364394 .4212252 .3820789
.9999999 .4241353 .3854997
0 .564578 .3820833
.0825185 .5647085 .3819359
.2600475 .5649498 .3813862
.4087363 .5651047 .3812049
.5499153 .56465 .3810126
.6834471 .5654927 .3801889
.8130308 .5661843 .380001
.9359896 .5661352 .3838812
.9999999 .5679203 .3878692
0 .7026228 .3804823
.0755853 .702644 .3807
.2608584 .7027937 .3804457
.4106387 .7030902 .3804013
.5500898 .7035676 .3810373
.6857458 .7030172 .3791203
.8151131 .7032395 .3776066
.9368131 .7036305 .3806242
.9999999 .7027236 .3871337
0 .8340049 .381071
.08799329 .8340291 .3815674
.2665316 .834042 .3828945
.4116789 .8343857 .3839243
.5494643 .8348649 .3836524
.6851804 .8347099 .380873
.8143317 .8344274 .3785582
.9361553 .8333657 .3782707
.9999999 .8325874 .3834361
0 .955686 .389369
.13443 .955573 .3903329
.2837754 .9553414 .3924988
.4199967 .9555588 .3928411
.5546051 .9558812 .3925379
.6871117 .9559276 .3893912
.8127682 .9559032 .3856867
.933052 .9550974 .3813615
.9999999 .9513826 .380964
.1210501 .9999999 .4073913
.1959324 .9999999 .4076877
.3092038 .9999999 .4084343
.4352478 .9999999 .4099039
.5628245 .9999999 .410602
.6874839 .9999999 .4067438
.8101338 .9999999 .4043205
.9182629 .9999999 .40235
.9999999 .9999999 .4005954
0 0 .5110589
.1176959 0 .5111266
.2680407 0 .5113884
.4100033 0 .5115926
.5488875 0 .5126191
.6818058 0 .5141097
.8110453 0 .5157315
.9358967 0 .5161324
.9999999 0 .5166714
0 .1317034 .5113218
.1126661 .1298209 .5112534
.2674322 .1306246 .5112507
.4097391 .1263979 .5118241
.5491679 .1170959 .5127823
.6821602 .1122436 .5141214
.8114496 .1049137 .5153893
.9359073 .09742805 .5159175
.9999999 .1012052 .5160863
0 .280212 .5117576
.1050142 .2796119 .5116957
.2645248 .2773939 .5116841
.4097441 .2755794 .5122061
.5486226 .2750307 .5124285
.6826507 .273694 .5135165
.811982 .2724749 .5144705
.9355782 .2722182 .5152531
.9999999 .2731333 .515004
0 .423602 .5126879
.09029103 .4237073 .5125889
.2603925 .4236053 .5124433
.4088106 .4220651 .5122695
.5495918 .4211779 .5119463
.6834127 .4220966 .5124565
.811636 .4223703 .5131164
.9356331 .4212133 .5128969
.9999999 .4222679 .5135921
0 .5647919 .512852
.07484383 .5648113 .5128639
.2579116 .5649853 .5127162
.4084683 .5640565 .5124771
.5502078 .5640134 .5122864
.6831976 .5648109 .5115371
.8122295 .5660845 .5118878
.9358169 .5650924 .5141055
.9999999 .5668701 .5174804
0 .7028273 .513199
.06458317 .7028658 .5130934
.2568752 .7028914 .5129109
.4085425 .7031873 .5124286
.5499739 .7031894 .5126511
.6854063 .7027932 .5131887
.8144415 .7030972 .5118544
.9358248 .7031336 .5148375
.9999999 .7027668 .5183946
0 .8338844 .5147684
.08237728 .8339241 .5141437
.2605144 .834224 .5131423
.4108774 .8342078 .5152302
.549013 .8344544 .5159856
.6843473 .8341693 .5147987
.8137305 .8337506 .5131589
.9350659 .8330398 .5132346
.9999999 .8322071 .5165213
0 .9555557 .5153649
.1144568 .9555021 .5159888
.2741787 .9555592 .5175418
.4199872 .9551888 .520023
.5548043 .9551153 .5207114
.6861798 .9552479 .5206043
.812173 .9552434 .517899
.9319393 .9542909 .5145236
.9999999 .9509274 .5137256
.113754 .9999999 .5261708
.1968374 .9999999 .5274032
.3170398 .9999999 .5304292
.4404626 .9999999 .5315709
.5665418 .9999999 .5330735
.6889813 .9999999 .531741
.8100785 .9999999 .5295113
.9176205 .9999999 .5278367
.9999999 .9999999 .5264559
0 0 .6400201
.1188343 0 .6400874
.2715929 0 .6401699
.4123639 0 .6404589
.5503231 0 .6406801
.6833853 0 .6407642
.8117654 0 .641394
.9366573 0 .6424415
.9999999 0 .6428452
0 .1294465 .640138
.1136464 .1292235 .6401302
.2706931 .1285515 .640284
.4120642 .1250225 .6405734
.5500678 .1192413 .6406856
.6836472 .1110109 .6407171
.8121484 .09997918 .6416258
.9371418 .08702072 .6422379
.9999999 .1005297 .6427254
0 .2765583 .6404386
.103173 .2768427 .6404508
.2669849 .277635 .6405037
.4115557 .2762333 .6408907
.5497423 .2755743 .6407598
.6831935 .2733232 .6413576
.812858 .2708648 .641623
.9366426 .2706358 .6420906
.9999999 .2746349 .6425942
0 .4232182 .640793
.08608725 .422967 .6407817
.2612258 .4224802 .6407465
.4102342 .421626 .640807
.5503232 .4211704 .6410291
.6835791 .4207835 .6410687
.8127547 .4214395 .6409621
.9357722 .4221394 .6416861
.9999999 .4248992 .6422184
0 .5659928 .640957
.05902014 .5658611 .6409458
.2568829 .5652382 .6410088
.4099026 .5640927 .6411093
.5501764 .5638993 .6408954
.6849045 .5643693 .6407221
.8123414 .5658554 .6409855
.9346918 .5661839 .6406844
.9999999 .5660796 .6409503
0 .7029957 .6412374
.06180219 .7030193 .6411684
.2564579 .7031006 .6410165
.4097157 .7026532 .6411189
.5491314 .7028063 .6409689
.6847047 .7025071 .6409964
.8122647 .7035071 .64105
.9341657 .7035844 .6421822
.9999999 .7036546 .6441341
0 .8345687 .6417447
.07786443 .8344898 .6417536
.2606838 .8344002 .6417805
.4091813 .8341691 .641827
.5501603 .8337722 .6418448
.684172 .8333573 .6422712
.8141292 .8327803 .6405594
.9342372 .8327476 .6411914
.9999999 .8319558 .6439862
0 .955236 .6433457
.1368208 .9552134 .6433693
.2776985 .95533 .6429299
.4115791 .9556424 .6406552
.5558115 .9547147 .6438076
.6873884 .9544484 .6450973
.8123828 .95438 .6443925
.9315389 .9533852 .6419299
.9999999 .9504372 .6423597
.1184777 .9999999 .6459199
.1921437 .9999999 .6456832
.3045476 .9999999 .6450954
.4423002 .9999999 .6491159
.571552 .9999999 .6521922
.6935268 .9999999 .6526958
.8130689 .9999999 .65242
.9177287 .9999999 .6521333
.9999999 .9999999 .6510741
0 0 .7633867
.1110165 0 .7634072
.2701078 0 .7635021
.41469 0 .7637655
.5533153 0 .7640194
.6848873 0 .7646206
.8132799 0 .7650567
.936425 0 .7645321
.9999999 0 .7652014
0 .1233873 .7634749
.1062703 .1229627 .7635
.268586 .1224342 .7636095
.4141178 .119722 .7638999
.5531272 .1139217 .7641668
.6851507 .1074991 .7646363
.8137047 .09549715 .7651216
.9368501 .08719447 .7645752
.9999999 .09396882 .7651286
0 .2765066 .7637261
.09405931 .2766156 .7637625
.2646528 .2766198 .7639061
.4119577 .2762261 .7642161
.551856 .2749572 .7644819
.6847291 .2728103 .7647002
.8135808 .2693278 .7650497
.9372728 .2687593 .7649425
.9999999 .2722067 .7650462
0 .4223219 .7642514
.08793791 .4219586 .7643239
.2614907 .4208221 .7645388
.4110402 .4213856 .7645105
.5507511 .4230243 .7642704
.6840329 .4224132 .764318
.8137105 .4204093 .7645549
.9363178 .4204279 .7646149
.9999999 .4236315 .7645895
0 .5657689 .763981
.09194098 .5655311 .763917
.2670819 .5651467 .7637794
.4141016 .5647728 .7637538
.5508177 .5648351 .7640309
.683843 .5651823 .7642608
.8123003 .5642942 .7640546
.9350055 .5651017 .7643023
.9999999 .5669594 .7642656
0 .703 .7644095
.06543408 .7029973 .7643902
.2583977 .7028836 .7643558
.4097686 .7024789 .764295
.5514058 .7018192 .7641022
.6840439 .7015164 .7640816
.8116929 .7026833 .7635049
.9330354 .7039307 .7633644
.9999999 .7032129 .763996
0 .8334291 .76371
.08463005 .8334311 .7636856
.2621525 .8334367 .7636537
.4102168 .8334513 .7636529
.5499118 .8335736 .7635387
.6843835 .8333701 .7636402
.8134791 .832697 .7635717
.9329377 .832994 .7643576
.9999999 .8328262 .7654243
0 .9558429 .7641487
.1243435 .9557583 .7641849
.2772288 .9555306 .7642885
.419367 .955211 .764411
.556682 .9547314 .7648528
.6887074 .9541084 .7652982
.8129464 .9536328 .7662508
.9315 .9525844 .7644722
.9999999 .9499395 .7661905
.1719851 .9999999 .7652974
.2328802 .9999999 .7653105
.3362569 .9999999 .7655159
.4540526 .9999999 .7664573
.5761704 .9999999 .7675598
.7002457 .9999999 .7695096
.817976 .9999999 .7710758
.921699 .9999999 .7716126
.9999999 .9999999 .7696444
0 0 .8803943
.1130254 0 .8804276
.2717861 0 .880545
.4160154 0 .8807062
.554761 0 .880919
.6865315 0 .8810973
.8139466 0 .8816096
.9366781 0 .881538
.9999999 0 .8798953
0 .1271291 .8804973
.1081565 .1266307 .8805342
.270062 .1247972 .8806553
.4152231 .1226254 .8807819
.5542541 .119258 .880932
.6862503 .1161386 .8811504
.8140094 .1016162 .88161
.9364246 .08951981 .8815269
.9999999 .08409049 .8799992
0 .2779374 .8807608
.09578533 .2778112 .8807991
.2663203 .2774828 .8808826
.4136099 .2781454 .8808143
.5535831 .2799571 .8805903
.6855602 .2784957 .8809107
.8134826 .2725505 .8815693
.9356963 .2702923 .8813263
.9999999 .2688374 .8803355
0 .4218912 .8808168
.08452708 .4221171 .8807886
.2644895 .423144 .8806478
.4135968 .4245292 .8803365
.5522779 .4269797 .8801308
.6851649 .4261555 .8804722
.8130375 .4232991 .8811146
.9348298 .4217154 .8809003
.9999999 .4221165 .8800915
0 .5650864 .8801289
.1063826 .5649003 .8801251
.2681487 .5645896 .880116
.4130724 .5650148 .880107
.5515703 .5665571 .879832
.6849159 .5676751 .87982
.8119992 .5667402 .880277
.9343663 .56478 .8806179
.9999999 .5658846 .8800899
0 .7029726 .880333
.1156481 .7028235 .8802783
.2750703 .702401 .8802654
.4179909 .7022851 .8801128
.5540115 .702485 .8798176
.6844546 .7027352 .8799704
.8118355 .7030711 .8801723
.9334735 .702765 .8803612
.9999999 .7037639 .8799044
0 .8328367 .8806888
.1008179 .8328065 .8806835
.2666481 .8326832 .8806676
.4125202 .8325583 .8806101
.5519073 .8325316 .8805367
.6866866 .8319537 .8806697
.8128782 .8325751 .8804279
.9327153 .8328708 .8798102
.9999999 .8330575 .8796858
0 .956054 .8791435
.103625 .9560174 .8791575
.2685359 .9559447 .8791915
.4139726 .9557863 .8793935
.5539403 .9553216 .8797694
.688108 .954209 .8800549
.8140484 .9532676 .8803681
.9307179 .9524187 .8800684
.9999999 .9501364 .8825126
.1202247 .9999999 .8777356
.2003205 .9999999 .8777618
.319131 .9999999 .8778567
.4497311 .9999999 .8780228
.5805182 .9999999 .8784148
.7063053 .9999999 .8799853
.8243405 .9999999 .8829658
.9290397 .9999999 .8843127
.9999999 .9999999 .8811471
0 0 .988524
.1441041 .00110706 .9885569
.2859816 .00686175 .9885339
.4241489 .01263337 .9884489
.5581589 .01598942 .9886916
.6867217 .01217074 .9889761
.8130189 0 .9897613
.9341975 0 .9907342
.9999999 0 .9907488
0 .1451868 .9884952
.1400585 .1469766 .9885295
.2847443 .1500093 .9885417
.4236432 .1527247 .9884601
.5578393 .1559376 .9886107
.6868092 .1551613 .9888939
.8130184 .141907 .9896677
.9338973 .1200729 .990624
.9999999 .09939183 .9906971
0 .2862742 .9883202
.1297962 .2872696 .9883519
.2812611 .2899622 .9884115
.4225218 .2931119 .9883419
.5569856 .295882 .9883314
.6863979 .296467 .988642
.8129951 .2912854 .9893818
.932972 .2823866 .9902421
.9999999 .2753579 .9901423
0 .4264499 .9878951
.115213 .4271463 .9879065
.275866 .4290193 .9879252
.4204214 .4325743 .9879547
.5558537 .4355244 .987876
.6860162 .4372829 .9881443
.8122782 .434882 .9888471
.9320773 .4290797 .98977
.9999999 .4253923 .9893768
0 .5677675 .9873939
.133657 .5673551 .9873927
.2769747 .5663239 .9873931
.4161907 .5668538 .9874677
.5553873 .5707611 .9875978
.6868832 .5733428 .9873853
.8110951 .5729941 .9881133
.9318689 .5705051 .9884617
.9999999 .5681738 .9881743
.08656519 .70336 .9872064
.1771534 .7033453 .9871357
.2986404 .7032501 .9869687
.4278508 .7031633 .9866663
.5550254 .7029693 .9863122
.6855102 .7050299 .9859927
.8110815 .7067846 .9863542
.93093 .7057281 .9867029
.9999999 .7049711 .9863573
.0990658 .8317716 .987009
.1854352 .8317228 .9868935
.3061869 .8315995 .9866024
.4356533 .8314818 .9861426
.565353 .8315033 .9855817
.6921744 .8319657 .9849356
.8130307 .8338482 .984382
.9305091 .8335778 .9843938
.9999999 .8333806 .9833744
.08072629 .9514713 .9857436
.1776767 .9514243 .9856412
.3039558 .9513063 .9853823
.4369637 .9510818 .9851183
.5696021 .9507983 .9847646
.6970848 .9507883 .9842848
.8192585 .9511173 .9832838
.9336991 .951748 .9820315
.9999999 .9541401 .9833869
.1356084 .9999999 .9805788
.2091 .9999999 .9804941
.3234714 .9999999 .9803031
.4518072 .9999999 .9800501
.5811934 .9999999 .979724
.7092361 .9999999 .9793345
.8328352 .9999999 .9779643
.9427514 .9999999 .9790047
.9992028 .9999999 .9807853
