luts/Timeless 36.cube
# 3D LUT of size 33x33x33 converted by Filestar.
#   Input:
#     color space: sRGB
#     white point: default (D65)
#     transfer function: default (sRGB)
#   Output:
#     color space: sRGB
#     white point: default (D65)
#     transfer function: default (sRGB)
#   Exposure: -0.01
#   Contrast: -25
#   Whites: -25
#   Blacks: -14
#   Vibrance: +43
LUT_3D_SIZE 9
0 .02561936 .01484949
.07985299 .0076717 .01159641
.2271095 0 .00718814
.3448409 0 0
.4699944 0 0
.59326 0 0
.7104146 0 0
.830942 0 0
.9529086 0 0
0 .1206553 0
.09265638 .1194033 0
.2247121 .1224102 0
.3474962 .1210848 0
.4717062 .1092434 0
.5910461 .1083718 0
.7100578 .08795024 0
.8311594 .05977382 0
.9530584 0 0
0 .2565729 0
.1018979 .2568496 0
.2319748 .2541783 0
.3487704 .2561358 0
.4711642 .2533063 0
.5915176 .2490692 0
.7101132 .2440302 0
.8312876 .2323986 0
.9530678 .2148919 0
0 .3980453 0
.02903774 .3977467 0
.2151821 .396036 0
.350872 .3937643 0
.4707003 .3920839 0
.5907826 .388337 0
.7097943 .3831291 0
.8309186 .3764773 0
.9522687 .3658752 0
0 .5315711 0
0 .5311544 0
.1793106 .5306319 0
.3308251 .5293947 0
.4654015 .5266787 0
.5867864 .5236801 0
.7108864 .5194953 0
.8314152 .5124348 0
.9499835 .5087869 0
0 .6617455 0
0 .6616781 0
.1161358 .661525 0
.3024374 .6609986 0
.4484566 .6600823 0
.5822039 .6571991 0
.7060193 .6541835 0
.8289276 .6496437 0
.9499102 .6461914 0
0 .7937401 0
0 .7936874 0
0 .7934657 0
.2621912 .7928687 0
.4247932 .7917061 0
.5660365 .7906434 0
.6975681 .7881732 0
.8234978 .7861958 0
.9464162 .7834017 0
0 .9273254 0
0 .9272239 0
0 .92697 0
.2009496 .9265125 0
.3933586 .9259157 0
.5470415 .9251407 0
.6856645 .9244876 0
.8176128 .9229028 0
.9453222 .9221848 0
0 .9899411 0
0 .9898909 0
0 .9897581 0
.1443654 .9895012 0
.3745681 .9890814 0
.532346 .988885 0
.6787549 .9889526 0
.814323 .9882247 0
.9485057 .9877567 0
0 .0184841 .100248
.1015533 0 .1004689
.2283416 0 .1041267
.3513234 0 .09918969
.4742235 0 .08526073
.5941823 0 .05893455
.7132435 0 .01224792
.8336266 0 0
.9543797 0 0
0 .1185267 .1043074
.09833281 .1168738 .1016342
.224633 .1201553 .1000301
.3519848 .1139343 .09276896
.4739586 .1015879 .07570306
.5941183 .07577386 .04534781
.7134123 .03812246 .00055959
.8339286 0 0
.9544144 0 0
0 .2604251 .06945561
.08139706 .2614123 .05844317
.2289303 .2586798 .05671294
.3530918 .2560974 .05913904
.4720796 .251641 .05981947
.5924751 .2442897 .02226227
.7122062 .2348931 0
.8330022 .2224333 0
.9542567 .207413 0
0 .3996545 0
0 .3991743 0
.2032749 .3980359 0
.3511711 .3959719 0
.4742047 .3928011 0
.5939339 .3869444 0
.7107252 .3821162 0
.8317371 .3742527 0
.9530534 .3628121 0
0 .5325422 0
0 .5322394 0
.166905 .5314448 0
.3266266 .5302026 0
.4651057 .5281107 0
.5915514 .5249636 0
.7136722 .5187322 0
.8326286 .5112983 0
.9508181 .5070388 0
0 .662492 0
0 .6624674 0
.09913135 .6623295 0
.2974232 .6618378 0
.4464431 .660922 0
.5811891 .6581178 0
.7068645 .6548798 0
.8301924 .6497387 0
.9512342 .6448728 0
0 .7941949 0
0 .7941488 0
0 .7940022 0
.2544706 .7936034 0
.4208958 .792406 0
.5644106 .7912829 0
.6969563 .788825 0
.8241898 .786634 0
.9476381 .7833537 0
0 .9278119 0
0 .9277213 0
0 .9274902 0
.1823415 .9270487 0
.3868483 .9265587 0
.5433326 .9257668 0
.6844496 .925066 0
.8172172 .923471 0
.9461809 .9224636 0
0 .9904976 0
0 .9904488 0
0 .9903243 0
.1168452 .9901004 0
.364545 .9897928 0
.5282425 .9896603 0
.6758424 .9897037 0
.8134293 .9888276 0
.9490919 .9880663 0
0 .00101033 .223118
.1028419 0 .2237632
.2265685 0 .2279466
.3537198 0 .2297248
.4764761 0 .2184001
.5966488 0 .2069928
.7151694 0 .1944659
.8349701 0 .1825497
.9554458 0 .1633034
0 .1068732 .2277328
.08500663 .1028265 .2289596
.2303198 .1006903 .2302052
.3554383 .08927799 .2224648
.4759005 .07867954 .2142482
.596177 .03914548 .2031972
.7150552 0 .1908641
.8351238 0 .1777374
.9556172 0 .159556
0 .260699 .2246611
.01133372 .2581739 .2210451
.2173036 .2543806 .2160248
.3499944 .2519726 .2177545
.471401 .247808 .2129929
.5932411 .2367711 .2006166
.7135825 .2255992 .1869309
.8345014 .2110979 .1691258
.9554501 .1932265 .1482569
0 .4014828 .1842837
0 .4012367 .1809126
.1711172 .4004269 .1731703
.3454817 .3988205 .1668153
.4775127 .3918523 .1674136
.5940183 .3831132 .1838198
.7119598 .3786792 .1774872
.8333455 .3688949 .1559908
.9550008 .3550856 .1210438
0 .533417 .134262
0 .5331398 .1289094
.1236615 .5332211 .1194801
.3155908 .5324849 .1153936
.4624846 .5307409 .1181315
.5954316 .5253589 .1236316
.7185614 .5158532 .1068959
.8333222 .5087734 .1335661
.9527021 .5032217 .100801
0 .6644117 .00551054
0 .6644443 0
.02900418 .6643128 0
.2847124 .6639367 0
.440712 .6631151 .00158437
.5789782 .6600172 .02915053
.707633 .6561591 .05850912
.8337917 .6495477 .01414649
.9539021 .6419755 0
0 .7956771 0
0 .7956502 0
0 .7955067 0
.2276362 .795154 0
.4091687 .7941581 0
.5598828 .793038 0
.695479 .7904388 0
.8254215 .7877094 0
.9508271 .7831706 0
0 .9291512 0
0 .9291198 0
0 .9289537 0
.129949 .9287006 0
.3672449 .9282658 0
.5324416 .9274979 0
.6803817 .9267206 0
.8158724 .9249081 0
.9480739 .9232377 0
0 .9917474 0
0 .9917653 0
0 .9917089 0
0 .9916413 0
.343648 .9915383 0
.5161314 .9915517 0
.6690497 .9915987 0
.8109746 .9904712 0
.9492254 .9890094 0
0 0 .3492946
.09748299 0 .3510151
.2232149 0 .3531423
.3537337 0 .3545563
.4776942 0 .3514878
.598852 0 .341023
.7194055 0 .3296847
.8381068 0 .3222026
.9577548 0 .3093193
0 .08215243 .3555756
.02237478 .07270134 .3561344
.2117156 .05016211 .3565922
.3567567 .03424937 .3565758
.4799746 .0208305 .3487558
.5995107 0 .3378377
.7186683 0 .3285634
.8377904 0 .3189631
.957827 0 .305715
0 .2469918 .3559982
0 .2435026 .3559252
.1916977 .2350804 .3546352
.3512735 .2322645 .3524109
.4744679 .2350428 .3412093
.5947679 .2255508 .3353128
.7153631 .2122681 .3266116
.8355518 .1967491 .3144778
.9572555 .1683593 .2980869
0 .4004348 .3450732
0 .4001473 .3433932
.1385917 .3983042 .3367609
.3292657 .3927134 .3284996
.4705783 .3852853 .3290724
.5894379 .3798313 .3302958
.7122147 .3726635 .3217933
.8343841 .3602768 .3075292
.957406 .343237 .2873608
0 .5342492 .3051738
0 .5338883 .302285
0 .5330872 .2962226
.2858718 .532317 .286621
.4574325 .5306246 .2807081
.5968382 .5247207 .2794301
.715942 .514034 .2917767
.8327087 .5073715 .2960226
.9557371 .4967215 .2747129
0 .66572 .2548895
0 .6656404 .2515484
0 .66574 .2448902
.2483368 .6658491 .2371792
.4251671 .6646069 .2386661
.5756953 .6617963 .2452811
.7119481 .6567523 .2413087
.8398752 .6461661 .2290534
.9574504 .6375918 .2338801
0 .7975006 .1809425
0 .7975662 .1770225
0 .7975509 .170681
.1640248 .7973994 .1611679
.3824298 .7962459 .1613049
.5473217 .7946958 .1657197
.6925159 .7927402 .1784533
.8274463 .7890199 .184425
.9562947 .7813319 .1608153
0 .9308085 0
0 .9308432 0
0 .9309312 0
0 .9310997 0
.3330292 .9306471 0
.5152079 .9296238 0
.6708705 .9287561 0
.813382 .9272465 0
.9494687 .9249821 .04065603
0 .9934592 0
0 .9935361 0
0 .9936835 0
0 .9939283 0
.3054233 .9938852 0
.4984088 .9935251 0
.6592551 .9932427 0
.8056135 .9928886 0
.9484218 .9909734 0
0 0 .4712422
.08410101 0 .471569
.214985 0 .4725681
.3400096 0 .4749717
.4746935 0 .4740009
.5968999 0 .4710789
.7196575 0 .4626421
.8404878 0 .4521533
.9614838 0 .4416964
0 .0624411 .474049
0 .04569217 .4741852
.1911075 .01107147 .4754984
.3397472 0 .4767169
.476262 0 .4757732
.5993291 0 .470363
.7209893 0 .4604626
.8415959 0 .4502867
.9617952 0 .4395764
0 .2207977 .4762806
0 .2164531 .4765859
.1457445 .2093051 .4766696
.3265262 .1987665 .4767439
.476123 .1943415 .4763442
.6013902 .1949475 .465655
.7203442 .1878968 .4557946
.8399547 .16145 .4472132
.9614823 .1179245 .4336424
0 .3836237 .475487
0 .3820227 .4752348
.08406741 .378319 .47372
.2968682 .370253 .4717468
.4679238 .3650948 .46874
.5913468 .3682385 .4568365
.7121625 .3622279 .4520211
.8346654 .3496207 .4426982
.9590366 .3290903 .4265429
0 .5330138 .4609073
0 .5330587 .459796
0 .5322704 .4569046
.2624869 .5288994 .448658
.4415425 .5224568 .4398021
.5911497 .5140072 .4387114
.7081835 .5085111 .4436402
.8331657 .5000823 .4335121
.958098 .4876706 .4175027
0 .6679589 .4189806
0 .6676908 .4166167
0 .6669789 .4105326
.166828 .665231 .4008475
.3935733 .6640155 .395184
.5670992 .6617175 .394489
.7154049 .6556718 .391537
.8406855 .6431805 .3893827
.9568903 .634059 .4004597
0 .7990737 .3670577
0 .7989195 .3650977
0 .7984786 .3600233
0 .7979969 .3548365
.3475739 .7973591 .350145
.5301821 .7963401 .3471822
.6893945 .7941304 .3479973
.8303272 .7891062 .3439019
.9627295 .7786337 .3262356
0 .9326979 .2980892
0 .9326541 .2961519
0 .9326178 .2914109
0 .9327484 .2857275
.2726826 .9328365 .2779827
.487285 .9324227 .2711539
.6576647 .9309818 .2768048
.8095011 .9290128 .2857722
.9508081 .9266039 .2908677
0 .9950724 .2583727
0 .9950885 .2568297
0 .9951378 .2528657
0 .9954036 .2453614
.2312646 .9956898 .2348422
.4682238 .9957138 .2254959
.6449397 .9951106 .2320312
.7984027 .9948238 .2410426
.9475823 .993264 .2570885
0 0 .589438
.06300484 0 .5899648
.2047784 0 .5912248
.3348809 0 .5930842
.4619616 0 .5938915
.5934284 0 .5933936
.7172091 0 .5901303
.8393602 0 .582435
.961618 0 .5723423
0 0 .5922292
0 0 .5925165
.1753615 0 .5930671
.3260099 0 .5941147
.4599314 0 .5951215
.5949379 0 .5951687
.7198266 0 .5907825
.8406913 0 .5807683
.9624814 0 .5703498
0 .1959437 .594009
0 .1935994 .5939888
.1187201 .1855517 .5945079
.3064124 .170231 .5954497
.4544834 .1548793 .5970773
.5956085 .1529195 .5969226
.7232358 .1435822 .5892432
.8446105 .1183955 .5758576
.9645105 .02242081 .565467
0 .3589287 .5948202
0 .3565506 .5948744
0 .3508684 .5949683
.2583293 .3412853 .5944961
.437621 .3312161 .5948837
.5920091 .3292889 .5940422
.7217873 .3339976 .5822547
.8418766 .325132 .570358
.964039 .3023006 .5584401
0 .515872 .5933956
0 .5152897 .5932569
0 .5134033 .5925772
.2165048 .5092186 .5902965
.4107616 .5007663 .5865712
.5830487 .4967026 .5819176
.7101882 .4980363 .5711235
.8335759 .490815 .564886
.9569172 .4794542 .5544727
0 .666992 .5770612
0 .6668296 .5764568
0 .6662585 .5748506
.141943 .6647487 .5700564
.3740584 .661153 .560198
.5511578 .655821 .5512202
.7085901 .6482177 .5474488
.829058 .6400182 .5570494
.9548733 .6312425 .5459782
0 .8006709 .5353268
0 .8006037 .533869
0 .800045 .5301936
0 .7987184 .5231177
.2998151 .7967148 .5137728
.5068567 .7958701 .5085077
.6811909 .7940491 .5077925
.8329261 .7882072 .5020378
.9664922 .7736029 .4912441
0 .9338994 .4835983
0 .9338011 .4818072
0 .9337019 .4781947
0 .9336274 .4717943
.1944924 .9331375 .4658025
.4574819 .9325734 .4620221
.6419786 .9321022 .4596179
.8049656 .9309809 .459049
.9518083 .9274339 .4577343
0 .9965976 .4547205
0 .9966448 .4533914
0 .9967682 .4501681
0 .9967636 .4448168
.0919608 .9966719 .4389351
.4321923 .9964722 .4376579
.6286573 .9964798 .437428
.7939706 .997039 .4366996
.9474631 .9955556 .443995
0 0 .7100131
.00194468 0 .7101896
.1897131 0 .7106457
.3239213 0 .7116272
.4526145 0 .7126283
.5805699 0 .7125273
.7118009 0 .7117369
.8360729 0 .7084782
.9599305 0 .7024809
0 0 .710858
0 0 .7110081
.1564774 0 .7113337
.3114849 0 .7122529
.4500866 0 .713219
.5798449 0 .7135703
.7128631 0 .712684
.8383648 0 .7091897
.9619835 0 .7016832
0 .1818377 .7124387
0 .1777044 .7126063
.07514287 .167028 .7131505
.286395 .1454606 .7137494
.439227 .1155876 .7145678
.5773099 .08988861 .7150483
.7138489 .08723532 .7141476
.8436307 .01332849 .7103614
.9651064 0 .6996155
0 .3342783 .7133673
0 .3316586 .7133982
0 .3259607 .7136573
.2292367 .3159096 .7140425
.4141726 .3037073 .7147984
.5700241 .2971019 .7151646
.7135649 .291022 .7141866
.8477892 .2810881 .707689
.9688579 .2652662 .6943735
0 .4894453 .7135482
0 .487811 .7136262
0 .4836395 .7137856
.1573509 .4771627 .7132427
.3722622 .4675742 .7123455
.5502781 .4609767 .712198
.7117699 .4579077 .7119281
.8455694 .459502 .7008924
.9663823 .4523702 .6881817
0 .6503019 .7106618
0 .6498174 .7106049
0 .6487412 .710339
0 .6466702 .7095545
.3434883 .642701 .7068602
.5248198 .6368801 .7038094
.6973442 .6323932 .6998228
.8291241 .6320218 .6906372
.953868 .6256027 .6826784
0 .7996484 .6928774
0 .7995183 .6923923
0 .7991942 .6909128
0 .7986857 .6880608
.2744126 .7978594 .6836816
.4903474 .7937804 .6758574
.6653508 .7898871 .6668938
.8294426 .7835735 .6625073
.9538345 .7736807 .6724173
0 .935788 .6536199
0 .9357249 .6526604
0 .9355254 .6501821
0 .9347804 .6461313
.1242579 .9333969 .6382806
.4301476 .9325386 .6290996
.628245 .9318206 .6265361
.798833 .9302485 .6274723
.9542262 .926401 .6255076
0 .9983935 .6321219
0 .9983917 .6308818
0 .9984058 .6277062
0 .9984046 .6220369
0 .9980903 .6145263
.3965895 .9985164 .6095763
.6067513 .9980934 .6090911
.7836433 .9974255 .6109051
.9459769 .9974487 .6154619
0 0 .8289054
0 0 .8290146
.1691515 0 .8293227
.3110337 0 .8300701
.4415834 0 .831125
.5709671 0 .8310931
.7012631 0 .8306372
.8312614 0 .8296953
.9555386 0 .8274413
0 0 .8294451
0 0 .829602
.1179985 0 .829931
.2968149 0 .8307377
.4331182 0 .8314416
.5688374 0 .8316832
.7012407 0 .8312311
.8323363 0 .8302583
.9573491 0 .8279656
0 .148653 .8307035
0 .1427693 .8308928
.00193158 .1268275 .8314022
.2685811 .09002294 .8321319
.4184462 .02309337 .8326043
.5636684 0 .8330222
.6999944 0 .8328029
.8338796 0 .8317496
.9621664 0 .8295817
0 .3086039 .8325357
0 .3055058 .8327852
0 .2980456 .8333113
.199055 .2866208 .8337092
.3874092 .2726389 .8336291
.5451238 .256846 .8341727
.6937094 .2430142 .8345636
.8349173 .2329693 .8339062
.9671698 .2194184 .8306054
0 .4623779 .8320585
0 .4600992 .832233
0 .4546112 .8326052
.0108995 .4462344 .8328752
.3392768 .435721 .8330044
.5171186 .4265749 .8333783
.6831881 .4207505 .8343882
.8342509 .4154869 .834609
.971172 .4138458 .8278753
0 .6224986 .8313764
0 .6215017 .8314411
0 .6183541 .8316166
0 .6139616 .8312984
.2836087 .6085272 .8306208
.4910268 .6009066 .8306261
.6679172 .5965421 .8310829
.8310928 .5941953 .8302537
.9668731 .5968188 .8194605
0 .7864524 .8283574
0 .7863462 .8283299
0 .7860745 .8282607
0 .7854875 .8281633
.2243483 .7843039 .8278788
.4663141 .7810184 .8259254
.6477668 .7766328 .8230589
.8165369 .7713983 .8196011
.9514213 .7705731 .8119031
0 .9354873 .812491
0 .935504 .8122196
0 .9355379 .8115224
0 .9355186 .8102788
.0933952 .9354678 .8082965
.4215939 .9348603 .8036299
.6199046 .9315002 .7955595
.7899996 .9295187 .7923706
.9546534 .9246141 .7909342
0 .9999999 .7974818
0 .9999999 .796854
0 .9999999 .7954112
0 .9999999 .7938471
0 .9999999 .7905544
.382307 .9996106 .7859432
.5983271 .9980564 .7800493
.7792652 .9982147 .7803905
.9449925 .9987578 .7853389
0 0 .9486478
0 0 .9487531
.1412575 0 .949042
.2965954 0 .9496312
.4294243 0 .9503605
.5576936 0 .951353
.6902915 0 .9506854
.8206414 0 .9500743
.9497374 0 .949848
0 0 .949706
0 0 .9498836
.05017745 0 .9503457
.2713586 0 .9510255
.4177535 0 .951494
.552872 0 .9513245
.6880824 0 .9512834
.8195617 0 .9509783
.9502608 0 .9504969
0 .08389357 .9504066
0 .07326079 .9505183
0 .03747179 .950835
.2422035 0 .951426
.4007015 0 .951977
.5412526 0 .9522159
.6824064 0 .952617
.8186579 0 .952504
.9512876 0 .9520741
0 .2776671 .9513907
0 .2742234 .9514884
0 .266686 .9517395
.1514719 .2529055 .9522291
.3655233 .2305526 .9528604
.5214381 .2049671 .9536608
.6725228 .1772214 .9541085
.8153929 .1580698 .9545496
.9535739 .1451322 .9546663
0 .4338687 .9520928
0 .4315235 .9521802
0 .4255156 .9524309
0 .4162316 .9530447
.2967021 .4035363 .9536645
.4908165 .3918772 .9543757
.655284 .3806168 .955503
.8093256 .3735855 .956386
.9558749 .3704439 .9567865
0 .5937682 .9524233
0 .5924265 .9524803
0 .5890929 .9525406
0 .5839589 .9528638
.2090021 .5763981 .9534361
.4543781 .5666887 .9537349
.6341414 .5606331 .9553133
.8007386 .5589776 .9564647
.9561414 .5589437 .9566684
0 .759978 .9532586
0 .7593471 .95336
0 .7579349 .9536331
0 .756125 .9535424
.07074275 .7522198 .9533319
.414466 .7476673 .9531462
.6153148 .742231 .9526063
.790144 .7385854 .9531513
.9546918 .7371343 .9544867
0 .9259316 .9511643
0 .9259092 .9511996
0 .9256668 .9511566
0 .925224 .9510625
0 .9249101 .9512346
.3960212 .924633 .9511247
.607834 .9231457 .9509847
.7858532 .922552 .9513897
.9474453 .9213405 .949907
0 .9979891 .9496965
0 .9979869 .9497553
0 .9980269 .9500063
0 .9982571 .9504797
0 .9990667 .9501228
.390411 .9999999 .9490781
.6058134 .9999999 .9486076
.7856324 .9987087 .9477114
.945602 .9976055 .9487953
