luts/Timeless 43.cube
# 3D LUT of size 33x33x33 converted by Filestar.
#   Input:
#     color space: sRGB
#     white point: default (D65)
#     transfer function: default (sRGB)
#   Output:
#     color space: sRGB
#     white point: default (D65)
#     transfer function: default (sRGB)
#   Contrast: -30
#   Whites: +16
#   Blacks: +16
#   Vibrance: +18
#   Saturation: +21
LUT_3D_SIZE 33
.03096774 .04123139 .09344283
.05436123 .03781615 .08594995
.07427587 .03536883 .0733509
.1038077 .02889311 .05808254
.13802 .01789401 .0436997
.1698114 .01292183 .0246298
.2081736 .01035225 0
.2472644 .00323916 0
.2874596 0 0
.3254085 0 0
.3581591 0 0
.3908607 .00067541 0
.4221889 .00212726 0
.4533736 .00456799 0
.486367 0 0
.5208763 0 0
.5558521 0 0
.5906457 0 0
.6255708 0 0
.6595436 0 0
.6932453 0 0
.7265021 0 0
.7589666 0 0
.7911032 0 0
.822892 0 0
.853815 0 0
.8839025 0 0
.9132245 0 0
.943476 0 0
.9737919 0 0
.9999999 0 0
.9999999 0 0
.9999999 0 0
.02756962 .05647221 .07777395
.04962012 .05625902 .06403013
.0704949 .05600657 .0449767
.1029288 .05551842 .0310321
.1353199 .05494085 .01171845
.1665527 .05574657 0
.2044162 .05265627 0
.2416052 .05399998 0
.2830448 .04044598 0
.3223323 .03008887 0
.356547 .03091624 0
.3898442 .0386685 0
.4214009 .03951356 0
.45283 .04089469 0
.4858178 .03485193 0
.5204037 .02013317 0
.5553525 .00419719 0
.5900818 0 0
.6250279 0 0
.6590088 0 0
.6928096 0 0
.7260271 0 0
.7587726 0 0
.7906652 0 0
.8224586 0 0
.8534316 0 0
.8835843 0 0
.9129462 0 0
.9432095 0 0
.9735189 0 0
.9999999 0 0
.9999999 0 0
.9999999 0 0
.01001519 .08894915 .04269393
.03302418 .08892452 .0216158
.06383834 .08895413 .0077935
.09693443 .08905026 0
.1299656 .08860151 0
.1611535 .0893598 0
.1992346 .08759335 0
.2400455 .08331678 0
.280637 .07515355 0
.3199503 .06820729 0
.3552471 .06850893 0
.3888233 .0727155 0
.420436 .07299539 0
.4528682 .07140323 0
.4852729 .06898828 0
.5198604 .05881677 0
.5547805 .04558545 0
.5893526 .02928751 0
.6243998 .00392213 0
.6583898 0 0
.6923069 0 0
.725503 0 0
.7583904 0 0
.7901583 0 0
.8219659 0 0
.8529968 0 0
.8832242 0 0
.9126312 0 0
.9429076 0 0
.9732081 0 0
.9999999 0 0
.9999999 0 0
.9999999 0 0
0 .1205318 0
.02422251 .1203121 0
.05815687 .1201147 0
.0911025 .1199042 0
.123088 .120515 0
.1573974 .1205121 0
.1957434 .1187218 0
.2384861 .1130255 0
.2776712 .1092464 0
.3176941 .1034382 0
.3538885 .1039101 0
.387219 .1064641 0
.4190817 .1062318 0
.4519014 .104761 0
.4844877 .1030986 0
.5184341 .09809386 0
.5539236 .08811847 0
.5882964 .07876717 0
.6234773 .06166184 0
.6574988 .04887114 0
.6915734 .0320378 0
.7247418 .01673718 0
.7576132 0 0
.7894902 0 0
.8212648 0 0
.8523698 0 0
.8827072 0 0
.9121791 0 0
.9424748 0 0
.9727532 0 0
.9999999 0 0
.9999999 0 0
.9999999 0 0
0 .153064 0
.01759719 .1525723 0
.0544305 .1522609 0
.08904005 .1524404 0
.1229086 .1525871 0
.1569462 .1522649 0
.1925159 .1506814 0
.2351561 .1462224 0
.2764796 .141642 0
.315279 .1376663 0
.3521024 .1386823 0
.3850065 .1401604 0
.4176265 .1398005 0
.4507841 .1385747 0
.4835429 .1377154 0
.517361 .1343555 0
.5525061 .1271231 0
.5868213 .1205117 0
.6221147 .1095121 0
.6563449 .1012805 0
.6904947 .09244656 0
.7237179 .0839581 0
.7566122 .07322582 0
.7885745 .06455994 0
.8203225 .05523495 0
.8514829 .04087668 0
.882013 .01799934 0
.9115716 0 0
.9418894 0 0
.9721339 0 0
.9999999 0 0
.9999999 0 0
.9999999 0 0
0 .1869823 0
.00307158 .1867186 0
.04185802 .1865333 0
.08247489 .1859699 0
.121432 .1848407 0
.1569079 .1839144 0
.189761 .183375 0
.2307788 .1801856 0
.2743229 .1749713 0
.3130283 .1720031 0
.3499835 .174061 0
.3830495 .1743254 0
.4160207 .173647 0
.4494005 .172541 0
.4823003 .1719524 0
.515528 .1694454 0
.5505342 .1643559 0
.5848033 .1593325 0
.6197357 .1527037 0
.6548237 .1447879 0
.6889805 .1386479 0
.7224689 .1325911 0
.7553897 .1263472 0
.7873859 .121206 0
.8191075 .1158893 0
.8503633 .1081929 0
.881035 .0973359 0
.9107649 .08067485 0
.9413022 .0540682 0
.9715441 .02006109 0
.9999999 0 0
.9999999 0 0
.9999999 0 0
0 .2203639 0
0 .2201864 0
.0197633 .2199867 0
.06978024 .2195847 0
.1122143 .2188661 0
.1510682 .2177521 0
.1873442 .2166653 0
.2260343 .214686 0
.2694288 .2106918 0
.3114906 .2063921 0
.3483492 .2080598 0
.3811525 .2077909 0
.4141094 .2073765 0
.4474628 .2063048 0
.4802596 .2056592 0
.513641 .2040817 0
.5474052 .2014255 0
.5823202 .1969408 0
.6170546 .1923213 0
.6528568 .1849656 0
.6871408 .1799223 0
.7208917 .175461 0
.7538969 .1708668 0
.7859201 .1672296 0
.8175637 .163092 0
.8489833 .1576123 0
.8793029 .1531202 0
.910032 .1382832 0
.9405442 .1236592 0
.9707739 .1088658 0
.9999999 .09569921 0
.9999999 .08361626 0
.9999999 .06424028 0
0 .253827 0
0 .2536893 0
.00391818 .2534705 0
.05832426 .2531316 0
.1041856 .2526535 0
.1454187 .2519203 0
.1835465 .2509049 0
.2229859 .2487692 0
.2650461 .245163 0
.309718 .2418846 0
.3491057 .239693 0
.3786806 .2414351 0
.4116244 .2408758 0
.4449068 .2399867 0
.478215 .239009 0
.5114155 .2384319 0
.5450619 .2364944 0
.5790363 .2342554 0
.6144769 .2292977 0
.650416 .2233474 0
.6850319 .219366 0
.7189966 .2153549 0
.7520831 .2117275 0
.7841281 .2088018 0
.8157095 .2054276 0
.847496 .2009746 0
.8777498 .1957671 0
.9092122 .1847785 0
.9395768 .1752296 0
.9697863 .165439 0
.9999047 .1570156 0
.9999999 .1486348 0
.9999999 .1385334 0
0 .2876532 0
0 .2874334 0
0 .2871387 0
.04901159 .2865134 0
.1008433 .2857027 0
.1439216 .2846853 0
.1831675 .2836453 0
.2219662 .2821162 0
.2603221 .2799902 0
.3058538 .2771686 0
.3442836 .2745611 0
.377819 .2736704 0
.4088694 .2744974 0
.4421329 .2738657 0
.4755421 .2732732 0
.5087782 .2728041 0
.5423985 .2716698 0
.5762932 .2694828 0
.6117817 .2652549 0
.6475933 .2609816 0
.6825463 .2573389 0
.7171742 .2537125 0
.7498252 .2507989 0
.7822263 .2474998 0
.8140266 .2442152 0
.8457732 .2405302 0
.8765117 .2351784 0
.9081699 .2273244 0
.9383553 .2206647 0
.9686014 .2139039 0
.9986733 .2083396 0
.9999999 .1995792 0
.9999999 .1924177 0
0 .3211645 0
0 .3208472 0
0 .3205114 0
.03339976 .3199964 0
.09228265 .3192918 0
.1376402 .3183855 0
.1783584 .3172659 0
.21812 .3157474 0
.2580612 .3145624 0
.2995253 .3126737 0
.3382749 .3099433 0
.3735902 .308414 0
.4070394 .3077922 0
.4390505 .308324 0
.4725527 .3075296 0
.5059114 .3072606 0
.5395247 .3064017 0
.5737107 .3044797 0
.608595 .3017496 0
.6439878 .2983446 0
.6800236 .2941484 0
.7148265 .2906689 0
.7477972 .287909 0
.7800898 .2847612 0
.8120907 .2813867 0
.8439339 .278255 0
.8751333 .27314 0
.906331 .2689233 0
.9370041 .2627577 0
.9672487 .2577916 0
.9974062 .2533382 0
.9999999 .2451845 0
.9999999 .2379484 0
0 .3547347 0
0 .3546808 0
0 .3544737 0
.01094791 .3536287 0
.07934774 .3529854 0
.1288529 .3521895 0
.170705 .3513868 0
.210108 .3506206 0
.2542221 .349674 0
.2920781 .3483278 0
.3305502 .346296 0
.3660462 .3450674 0
.402606 .3433729 0
.4365631 .3426085 0
.4687684 .342932 0
.5031067 .341656 0
.5363902 .3406196 0
.5708853 .3391859 0
.6058212 .3370342 0
.6409247 .3343606 0
.6773213 .3297298 0
.7120114 .3266978 0
.7452013 .3241373 0
.7775299 .3213155 0
.8097819 .3180354 0
.8415013 .3146693 0
.873503 .3108129 0
.9045811 .3079018 0
.9355 .3032369 0
.9657437 .2992041 0
.9958882 .2956092 0
.9999999 .2887139 0
.9999999 .2787731 0
0 .3881555 0
0 .3882458 0
0 .3880394 0
0 .387701 0
.06260648 .3867704 0
.1164114 .3863299 0
.1601833 .3858429 0
.2047655 .3856343 0
.2478468 .384865 0
.2855793 .3838715 0
.3226113 .3826043 0
.3581305 .3815862 0
.3947179 .3802809 0
.4311801 .3783267 0
.4655139 .3770335 0
.4994445 .3760554 0
.5342397 .3742682 0
.5681887 .3726352 0
.6028594 .3715071 0
.6381823 .3691182 0
.674554 .3656129 0
.7089549 .3625006 0
.7421854 .3596836 0
.7745824 .3570479 0
.8073215 .3540035 0
.8394008 .350614 0
.8715724 .3482119 0
.9027994 .3454882 0
.9339775 .3420132 0
.9640067 .3391382 0
.9942114 .3358765 0
.9999999 .3286346 0
.9999999 .3189917 0
0 .4216847 0
0 .4218333 0
0 .4217476 0
0 .4216261 0
.02645496 .4214643 0
.1034902 .4207567 0
.1558695 .4206165 0
.1999404 .4203782 0
.2387335 .4197899 0
.2783142 .4187945 0
.315545 .4177625 0
.3511297 .4167702 0
.386089 .4155017 0
.4230424 .4138903 0
.45967 .4121524 0
.4950682 .4104884 0
.530091 .409037 0
.5648586 .4075048 0
.5999002 .4054447 0
.6350877 .4034355 0
.6703685 .4015916 0
.7055267 .3984117 0
.7391713 .3953021 0
.7715806 .3926504 0
.804006 .3896076 0
.83672 .3872381 0
.8692231 .3848181 0
.9007815 .3827933 0
.9319562 .3804305 0
.9623812 .3772737 0
.992385 .3742725 0
.9999999 .3663481 0
.9999999 .3570754 0
0 .4563839 0
0 .4565292 0
0 .4564257 0
0 .4562998 0
0 .4561533 0
.07227389 .4560616 0
.143398 .4552483 0
.1865295 .4549224 0
.2269343 .4544805 0
.2684387 .4534746 0
.3071031 .4523894 0
.3435438 .4512675 0
.3784998 .4503 0
.4135168 .4491897 0
.4519901 .4476113 0
.4888851 .4458416 0
.5252218 .4437545 0
.5602655 .4424481 0
.5959061 .440477 0
.6320938 .4381099 0
.667064 .4356791 0
.7014471 .433622 0
.734879 .4313223 0
.7679916 .428907 0
.8008254 .4262316 0
.8338395 .4233969 0
.8664837 .4212596 0
.8985792 .4192804 0
.9294118 .4172192 0
.9606029 .4141901 0
.9906932 .4104412 0
.9999999 .402723 0
.9999999 .3939578 0
0 .4902256 0
0 .4903284 0
0 .4902326 0
0 .4901137 0
0 .489953 0
.04731223 .4897582 0
.116422 .4895674 0
.1704217 .488958 0
.2162734 .4881945 0
.2586336 .4873796 0
.2998094 .4862773 0
.3371989 .4853125 0
.3727364 .4845561 0
.4081765 .4836658 0
.4447762 .4823595 0
.4836911 .480443 0
.5207633 .4784672 0
.5569189 .4765043 0
.5924242 .4751425 0
.6285561 .4729174 0
.6632795 .4708224 0
.6971053 .4685425 0
.7308543 .4668321 0
.7640656 .4649826 0
.7980707 .4619203 0
.8312447 .4595706 0
.8639919 .4572507 0
.8957244 .4549875 0
.9268914 .4530185 0
.9584554 .4504557 0
.9890636 .4450427 0
.9999999 .438595 0
.9999999 .4300281 0
0 .5234581 0
0 .5234463 0
0 .5233746 0
0 .5232506 0
0 .5230458 0
0 .5227823 0
.08811339 .5225824 0
.1488303 .522348 0
.1998176 .521845 0
.2491158 .5207288 0
.2922242 .5198505 0
.3330488 .5188756 0
.3684735 .5183972 0
.4041882 .5176432 0
.4404352 .5165797 0
.4775926 .515087 0
.5158652 .513368 0
.5526806 .5115522 0
.5892107 .5097717 0
.6247289 .5079509 0
.6588047 .5059736 0
.6921753 .5044945 0
.7266189 .5020071 0
.7611694 .499773 0
.7947314 .4974444 0
.8279694 .4950655 0
.860425 .4930323 0
.8927813 .4905614 0
.9248133 .4880583 0
.9569138 .4843586 0
.9880255 .479369 0
.9999999 .4725674 0
.9999999 .4656062 0
0 .5573865 0
0 .5572904 0
0 .5571815 0
0 .5570224 0
0 .5568041 0
0 .5565322 0
.03729671 .556226 0
.1242702 .5559644 0
.1807899 .5557036 0
.2305317 .555148 0
.281217 .5537393 0
.3253787 .5526142 0
.3636164 .5520397 0
.3994582 .5515519 0
.4355439 .5508679 0
.4725747 .5496154 0
.5095258 .5482036 0
.5479485 .5464942 0
.5837871 .5447797 0
.6191568 .5427659 0
.654149 .5404461 0
.6885724 .5379547 0
.7225528 .535445 0
.7574876 .5324168 0
.7917053 .5303273 0
.8248661 .5283772 0
.8573725 .5264777 0
.8903733 .5247335 0
.9232486 .5218145 0
.9555656 .5172085 0
.9865648 .5125634 0
.9999999 .5064419 0
.9999999 .5002671 0
0 .5909513 0
0 .5908408 0
0 .5907153 0
0 .5905343 0
0 .5901295 0
0 .5896479 0
0 .5892999 0
.09749138 .5888796 0
.1639108 .5884747 0
.2153763 .5881465 0
.2689036 .5868247 0
.315479 .5856772 0
.3571692 .584782 0
.3957252 .584038 0
.4325451 .5832991 0
.4683763 .5825112 0
.5054318 .5812373 0
.5417266 .5798411 0
.5782573 .5781423 0
.6136777 .5764502 0
.6487499 .5739323 0
.6835018 .5714825 0
.7181218 .5687454 0
.7533489 .5656765 0
.7880092 .5626633 0
.8214452 .5608583 0
.8550093 .5592067 0
.8888825 .5565131 0
.9223956 .5532911 0
.953394 .5501056 0
.984642 .5458722 0
.9999999 .5420215 0
.9999999 .5374159 0
0 .6231595 0
0 .6230468 0
0 .622919 0
0 .6227357 0
0 .6224895 0
0 .6221703 0
0 .6217488 0
.06434841 .6210506 0
.1468504 .6206802 0
.2041751 .6203399 0
.2545876 .6198279 0
.3080031 .6182435 0
.351356 .617251 0
.3905995 .6165191 0
.4280704 .6157005 0
.4655766 .6147614 0
.5013428 .6137825 0
.5356973 .6127961 0
.5718426 .6114411 0
.6074823 .6095099 0
.6429393 .6073448 0
.6784575 .6048414 0
.7127655 .6026676 0
.7480378 .5997914 0
.7832231 .5966282 0
.8179706 .5935884 0
.8526427 .5909415 0
.8871928 .5885277 0
.9198701 .585781 0
.9510307 .5834853 0
.9817073 .5812315 0
.9999999 .5782066 0
.9999999 .5741435 0
0 .654514 0
0 .6544247 0
0 .6543317 0
0 .6541978 0
0 .6540181 0
0 .6538237 0
0 .6536008 0
.02329297 .6532878 0
.1307959 .6527621 0
.1929996 .6523577 0
.2437981 .6519867 0
.293549 .6511467 0
.3431759 .6496121 0
.3836799 .6489131 0
.4229874 .6480768 0
.4601028 .6472496 0
.4961511 .6463621 0
.5312647 .6452699 0
.5650087 .6441818 0
.6011268 .6424797 0
.6369368 .6406236 0
.6723567 .6385992 0
.7078622 .6361409 0
.7424729 .6339135 0
.7774913 .6312001 0
.8149415 .6278667 0
.8496591 .6257096 0
.8829014 .6234998 0
.9156529 .6207876 0
.9488229 .618035 0
.9800259 .615768 0
.9999999 .6131744 0
.9999999 .609669 0
0 .6862003 0
0 .686129 0
0 .6860482 0
0 .6859359 0
0 .6858047 0
0 .685651 0
0 .6854619 0
0 .6852497 0
.1021737 .6849961 0
.1748535 .6846619 0
.2315157 .6840705 0
.2819604 .683439 0
.3300789 .6824766 0
.3757201 .6813984 0
.4155962 .6807338 0
.452848 .6799082 0
.4903863 .678898 0
.5260726 .6778076 0
.5606994 .6766352 0
.5952819 .6751838 0
.6306702 .6735892 0
.6664118 .6717429 0
.7024469 .6697259 0
.7388923 .6674309 0
.7749389 .6652436 0
.8102325 .6629192 0
.8451658 .6600332 0
.8788369 .6576017 0
.9123738 .6552401 0
.9456697 .65271 0
.9776207 .6503369 0
.9999999 .6480219 0
.9999999 .6444106 0
0 .7183717 0
0 .718301 0
0 .7182209 0
0 .718106 0
0 .717979 0
0 .7178135 0
0 .7175972 0
0 .7173488 0
.06304681 .7171749 0
.1540286 .7169207 0
.2169286 .7165218 0
.2705562 .7158419 0
.3203966 .7151017 0
.3656963 .7141015 0
.4073035 .713267 0
.4472725 .7123664 0
.4853049 .7114005 0
.5207028 .7103606 0
.5556267 .709195 0
.5901773 .7079615 0
.6250322 .706416 0
.6620781 .70455 0
.6982718 .7027476 0
.7349527 .7009315 0
.7706138 .6990796 0
.8055917 .6973109 0
.8408011 .6946173 0
.8751541 .6916828 0
.9084959 .6895208 0
.9417875 .6873296 0
.9747698 .6849833 0
.9999999 .6825397 0
.9999999 .6787263 0
0 .7510188 0
0 .7509602 0
0 .7508909 0
0 .7507899 0
0 .7506469 0
0 .7504767 0
0 .7502673 0
0 .750002 0
0 .7496796 0
.1255509 .749335 0
.1967603 .7488306 0
.2539304 .7482666 0
.3080163 .7471285 0
.3556887 .7461965 0
.3995062 .7452898 0
.4402997 .7445149 0
.4790572 .7436093 0
.5150915 .7427234 0
.5503614 .7417789 0
.5846257 .7408415 0
.6181712 .7398561 0
.6523311 .7386036 0
.6919933 .736472 0
.7288883 .7349567 0
.7662694 .7328965 0
.8018667 .7308303 0
.8363317 .7287102 0
.8706019 .7264991 0
.9044278 .7239472 0
.9378251 .7216051 0
.971432 .7191199 0
.9999999 .7163914 0
.9999999 .7125739 0
0 .7832828 0
0 .7832324 0
0 .7831784 0
0 .7831008 0
0 .7829969 0
0 .7827972 0
0 .7825716 0
0 .7822788 0
0 .7818704 0
.04421302 .7813946 0
.1576567 .7809299 0
.22565 .7803978 0
.2838216 .7796148 0
.3376538 .778587 0
.3848236 .7779527 0
.428363 .7774341 0
.4687545 .7767863 0
.5053579 .7761564 0
.5399154 .7754532 0
.5737072 .7747502 0
.6090984 .773714 0
.6463649 .7722472 0
.6842545 .7705688 0
.7232928 .7686991 0
.7598079 .7669131 0
.796008 .7647457 0
.8310345 .7625741 0
.8658671 .760229 0
.9005435 .7578571 0
.934773 .7552252 0
.9688117 .7524089 0
.9999999 .7497916 0
.9999999 .7460907 0
0 .8150445 0
0 .8149861 0
0 .8149201 0
0 .8148252 0
0 .8146975 0
0 .8145343 0
0 .8143337 0
0 .8140938 0
0 .8138106 0
0 .813495 0
.08097828 .8131366 0
.1811312 .8126349 0
.248798 .8120273 0
.3087792 .8110034 0
.3586119 .8103769 0
.4062626 .8097212 0
.4486006 .8092862 0
.4892038 .8087511 0
.5277489 .8082098 0
.5684297 .8073041 0
.6057653 .8061798 0
.6426831 .8051476 0
.6784199 .8041439 0
.7144648 .8027229 0
.7508401 .8013623 0
.7877278 .7993203 0
.8249425 .7966622 0
.8609319 .7940416 0
.8965982 .7911718 0
.9311324 .7888507 0
.9653928 .7862475 0
.9995207 .7831898 0
.9999999 .7796321 0
0 .8463269 0
0 .846279 0
0 .8462251 0
0 .8461474 0
0 .8460432 0
0 .84591 0
0 .845746 0
0 .8455499 0
0 .8453938 0
0 .845215 0
0 .8450114 0
.112761 .8447732 0
.2020581 .8444236 0
.2713981 .8436906 0
.3298831 .8428976 0
.3804696 .8422707 0
.4280628 .8414288 0
.4734605 .8407565 0
.518062 .8398855 0
.5594114 .8392268 0
.5980762 .8387778 0
.6359752 .8382949 0
.6716655 .837446 0
.7071109 .8361825 0
.7433629 .834583 0
.7796866 .8330168 0
.8169078 .8309009 0
.8542865 .8282738 0
.8901784 .8256404 0
.9260718 .822449 0
.9605139 .8203257 0
.9949927 .8175742 0
.9999999 .8136116 0
0 .8777918 0
0 .8777521 0
0 .8777073 0
0 .8776429 0
0 .8775566 0
0 .8774478 0
0 .8773146 0
0 .877155 0
0 .8769586 0
0 .8767301 0
0 .8764874 0
0 .8762429 0
.1417147 .8760129 0
.2270069 .8756599 0
.2955315 .8750947 0
.3540252 .8745944 0
.4077539 .8739149 0
.4574251 .873038 0
.5019556 .8724084 0
.5444806 .8716971 0
.5846465 .8710418 0
.6228705 .8704828 0
.660317 .8699251 0
.6981499 .8692132 0
.7346762 .8679575 0
.7712979 .8662333 0
.8077678 .864568 0
.8456494 .8624344 0
.8836002 .8597221 0
.9201589 .8569297 0
.9557443 .8540142 0
.9899309 .8515255 0
.9999999 .84872 0
0 .9096582 0
0 .909626 0
0 .9095894 0
0 .909537 0
0 .909465 0
0 .9093618 0
0 .909236 0
0 .909085 0
0 .9089049 0
