luts/Timeless_47.cube
# 3D LUT of size 33x33x33 converted by Filestar.
#   Input:
#     color space: sRGB
#     white point: default (D65)
#     transfer function: default (sRGB)
#   Output:
#     color space: sRGB
#     white point: default (D65)
#     transfer function: default (sRGB)
#   Exposure: -0.01
#   Contrast: +9
#   Whites: +10
#   Blacks: -20
#   Vibrance: +24
LUT_3D_SIZE 5
0 .07099957 .05889381
.1977492 0 .03207609
.4559397 0 0
.7045083 0 0
.9523006 0 0
0 .2670429 0
.216447 .2688548 0
.4608307 .2704579 0
.7068421 .2634822 0
.9537051 .2509241 0
0 .5609337 0
.1814123 .5608823 0
.4602359 .5596093 0
.7112185 .5572644 0
.9548722 .553023 0
0 .8460993 0
.1062743 .8460523 0
.4428018 .8461736 0
.7054045 .8455651 0
.9538073 .8416551 0
0 .9999999 0
0 .9999999 0
.4209674 .9999999 0
.6964653 .9999999 0
.9474762 .9999999 0
0 .01862846 .212821
.2135851 0 .2166129
.4635882 0 .2159388
.7075212 0 .2072607
.9535365 0 .192115
0 .2704929 .2188429
.2003256 .2717041 .2111803
.4636038 .2660506 .2095358
.7091092 .2574317 .2023338
.955077 .2422329 .1824025
0 .5631096 .1678139
.152025 .5629121 .1680601
.4544771 .5625274 .1683745
.7145991 .5572899 .1615153
.9562613 .5507195 .1698989
0 .8470162 .05069896
.03109927 .8468214 .03812437
.4334586 .8468251 .04456031
.703003 .8465857 .07485557
.9558581 .8419252 .0768215
0 .9999999 0
0 .9999999 0
.4085446 .9999999 0
.6933388 .9999999 0
.9475257 .9999999 0
0 0 .4627845
.2090302 0 .4660695
.4640888 0 .4672293
.7123244 0 .463812
.9579371 0 .4545728
0 .2527131 .4693099
.173323 .2495951 .4700553
.4700379 .2386954 .4681259
.7145696 .2370537 .4606514
.9586696 .2179091 .4502944
0 .5632526 .4613945
.09153493 .5635824 .4580495
.4442124 .5623547 .4512494
.7132392 .5546924 .4527697
.9575405 .5452937 .4484944
0 .8485941 .4163598
0 .8484488 .4148106
.4085728 .848392 .4114767
.6994404 .8473535 .4091001
.9589559 .8415802 .4050705
0 .9999999 .3876764
0 .9999999 .3876384
.3838052 .9999999 .3865045
.6816465 .9999999 .3886524
.9468601 .9999999 .382437
0 0 .709468
.1862561 0 .7105682
.4569015 0 .7116114
.7103615 0 .7128879
.9607833 0 .7100298
0 .2349429 .7120565
.1486613 .2278523 .7124954
.4490581 .2116968 .7138386
.7144759 .202177 .7148932
.9635772 .1845441 .7085824
0 .5464079 .7147825
0 .5440331 .7148545
.4237268 .5387985 .7144976
.7139173 .5354356 .713537
.9602119 .5364226 .7044404
0 .851374 .7019901
0 .8511636 .7012588
.3892886 .8491979 .6984776
.6935766 .8455046 .6930302
.9581395 .8395596 .6889588
0 .9999999 .6771489
0 .9999999 .675963
.3608484 .9999999 .672707
.6715082 .9999999 .6717186
.9454821 .9999999 .6727728
0 0 .9516225
.1512091 0 .9518309
.4401682 0 .952406
.6976891 0 .9538042
.9530423 0 .9539892
0 .2055313 .9523094
.08894787 .1981615 .9524916
.4259821 .1783359 .9533644
.6948338 .1564032 .9550899
.9530267 .1327375 .9556124
0 .5190315 .9533357
0 .5161968 .9535231
.3914435 .5087718 .9539862
.6855084 .507563 .9549368
.955595 .5044659 .9566533
0 .8350052 .9545391
0 .8343772 .9544008
.3622285 .833313 .9541002
.6769838 .8298173 .9534935
.951682 .8303128 .9520562
0 .9999999 .9482699
0 .9999999 .948069
.3646356 .9999999 .9472824
.6758218 .9999999 .9456623
.9458151 .9999999 .9457133
