luts/Timeless 17.cube
# 3D LUT of size 33x33x33 converted by Filestar.
#   Input:
#     color space: sRGB
#     white point: default (D65)
#     transfer function: default (sRGB)
#   Output:
#     color space: sRGB
#     white point: default (D65)
#     transfer function: default (sRGB)
#   Exposure: +0.53999996
#   Contrast: +23
#   Whites: +8
#   Blacks: -20
#   Vibrance: +5
LUT_3D_SIZE 9
0 .00158175 .00933342
.1490124 0 .00367313
.3243251 0 0
.483171 0 0
.6293336 0 0
.7601976 0 0
.8726932 0 0
.9674256 0 0
.9999999 0 0
0 .1397383 0
.152633 .1362121 0
.3275725 .1390604 0
.4854517 .137228 0
.6303567 .131528 0
.7606735 .1269613 0
.8728712 .1229086 0
.9677069 .1148173 0
.9999999 .1130419 0
0 .2799452 0
.1692216 .279235 0
.3312401 .2818866 0
.4875003 .2826469 0
.630856 .2830351 0
.7616411 .2819461 0
.8735807 .2800768 0
.96844 .2796379 0
.9999999 .2791344 0
0 .4208926 0
.1693573 .4209368 0
.3353077 .4213537 0
.4901862 .4220382 0
.6333522 .4236452 0
.7629429 .4228961 0
.8747225 .4242583 0
.9695602 .4224846 0
.9999999 .4222045 0
0 .5553041 0
.149288 .5553785 0
.3310699 .5560308 0
.4908572 .5556621 0
.6351188 .555283 0
.7631688 .5566092 0
.8754217 .5555661 0
.9703893 .5543085 0
.9999999 .5539023 0
0 .6757818 0
.1509202 .6759266 0
.3342951 .676407 0
.4915162 .6768264 0
.636205 .67622 0
.7631836 .6763531 0
.8749323 .6761721 0
.9706441 .675823 0
.9999999 .6759146 0
0 .7847282 0
.1428067 .7846363 0
.3321487 .7843037 0
.4919589 .7843788 0
.6356186 .7842124 0
.765442 .7837027 0
.8759183 .784045 0
.9700446 .7843262 0
.9999999 .7833526 0
0 .8793467 0
.1266348 .8793244 0
.3264594 .8793519 0
.4915153 .8790447 0
.6366265 .8793709 0
.765846 .8791959 0
.87631 .8785195 0
.9699338 .8777162 0
.9999999 .8777889 0
0 .9615063 0
.1218469 .9615006 0
.3237118 .9614982 0
.4885627 .9614303 0
.6361507 .9614301 0
.7646028 .9609514 0
.8756328 .9599585 0
.969242 .9596054 0
.9999999 .9592447 0
0 .00382485 .1493926
.150955 0 .1501584
.3279144 0 .1509674
.4860846 0 .148809
.6309206 0 .1474373
.7609882 0 .1475128
.8732907 0 .1432188
.9677606 0 .1405322
.9999999 0 .137583
0 .1323768 .15299
.1578664 .1359121 .1509564
.329389 .1309954 .1489641
.4868405 .128915 .1475256
.6313699 .1248721 .1456403
.7614356 .1209212 .1456897
.8733888 .1161916 .1415435
.9680035 .1082428 .1388873
.9999999 .1068417 .1358755
0 .2811014 .1499625
.1607018 .281134 .1467517
.3314858 .2817029 .1462543
.4878382 .2809375 .1466369
.6319855 .2817132 .1442948
.7623151 .2803233 .1411
.8741361 .2783898 .1407688
.968721 .277631 .1349384
.9999999 .277173 .1318254
0 .4216411 .1425667
.1563125 .4218446 .1401995
.3342253 .4219682 .1416724
.4896529 .4229005 .1439072
.634025 .4231021 .141799
.7633548 .4220811 .1387537
.87525 .4221105 .1361325
.9698408 .4215407 .1291977
.9999999 .4210699 .1285024
0 .5555308 .1329757
.1411599 .5557966 .1314862
.3298803 .5559864 .131458
.490234 .5561625 .1348866
.6354686 .555414 .1359962
.7635731 .5561876 .1344149
.87562 .5551268 .1293048
.9706865 .5535994 .1271475
.9999999 .5533184 .1239212
0 .676134 .1216476
.1407896 .6762369 .1204617
.3296966 .6767686 .1174781
.490824 .6772847 .1193175
.6364724 .6764975 .1233498
.7638574 .6763559 .121682
.8753944 .6760042 .1122548
.9709582 .6756023 .1129327
.9999999 .6757044 .1115586
0 .7849832 .109806
.1327316 .7848089 .1070453
.3289549 .7844998 .1074161
.4900807 .7847292 .1027815
.6351306 .7842962 .1093223
.7657396 .7835477 .11051
.8762295 .7839496 .1054926
.9704886 .7840474 .1055863
.9999999 .7832575 .1036367
0 .8795938 .101929
.1172057 .8794279 .1001538
.3234744 .8795128 .1005095
.4895655 .8792892 .1006966
.6358094 .8796434 .09534507
.7659498 .8792285 .09770668
.8764983 .8784685 .1025408
.9703749 .8775843 .1040162
.9999999 .8776636 .1021302
0 .9618476 .08861089
.1111997 .9618205 .08856773
.3202851 .961737 .09372076
.4870256 .9615746 .09711181
.6353037 .9616875 .09102165
.7638056 .9611618 .08842374
.8755962 .9598735 .09077825
.9692755 .9595447 .09351831
.9999999 .9590098 .09250667
0 0 .3065726
.1592699 0 .3084177
.3284584 0 .3097819
.4873144 0 .311215
.6322498 0 .3109617
.761967 0 .3110397
.8739982 0 .3103792
.9686584 0 .3082843
.9999999 0 .3080278
0 .1333118 .309723
.1589862 .1316085 .3102431
.3314114 .1285899 .3115888
.4882556 .1246547 .3111926
.6323566 .1176441 .3102238
.7620369 .113044 .3109862
.8741851 .1060166 .3097441
.9688644 .09766959 .3077918
.9999999 .09314974 .3072537
0 .2812825 .3121586
.1553836 .2817146 .3122908
.3321626 .2804812 .3116995
.4878225 .2802784 .310674
.6325935 .2796144 .3102652
.7630411 .2781362 .3099008
.874691 .2755064 .3084693
.9694708 .2728618 .3068082
.9999999 .2723954 .3055039
0 .4229208 .3103909
.1448869 .4227639 .3089955
.3326336 .4220081 .3080027
.4892247 .4236384 .30818
.6345443 .4232648 .3090934
.7642048 .4216654 .3082438
.875781 .4197122 .3072328
.9705285 .4193025 .304514
.9999999 .4188598 .3037585
0 .5551114 .3061315
.1373881 .5551871 .3056775
.3269415 .5560691 .3046749
.4905002 .5564337 .3054059
.6351439 .5560002 .3056701
.7649453 .555535 .3034596
.8762649 .5543247 .3042046
.971224 .552438 .3026095
.9999999 .5517563 .3022412
0 .6762301 .3002219
.1236619 .6764702 .2999446
.3241787 .6771801 .2984867
.4895099 .6776024 .2996253
.6364602 .676986 .2994827
.7654184 .6765239 .2968969
.8771248 .6756988 .2941298
.9716473 .6754128 .2981074
.9999999 .674938 .2993856
0 .7849942 .2945559
.110615 .7849168 .2946706
.321532 .7848144 .2938174
.4876684 .7847444 .2943432
.6344393 .784762 .2934691
.7667068 .7838982 .2926826
.8779471 .7842348 .290608
.9722195 .7835249 .2908477
.9999999 .7829638 .291937
0 .8796778 .2923131
.0925043 .8796786 .2920676
.3152983 .8797309 .2904654
.4842941 .8799116 .2904594
.6342152 .8799313 .2901904
.7656012 .8797264 .289063
.87802 .8785115 .2903008
.9712991 .877879 .2897095
.9999999 .8775141 .2902257
0 .9620592 .2896037
.0842386 .9620798 .2884712
.3124867 .9620762 .2875079
.482474 .9618753 .2887981
.6332654 .9618381 .2896227
.7625474 .9617675 .2863548
.8758323 .9601764 .2868328
.96997 .9595038 .2874415
.9999999 .9590002 .2874715
0 0 .4591494
.1581377 0 .4593694
.3320492 0 .459675
.4896544 0 .4604793
.633297 0 .4615179
.7631537 0 .4611178
.8747103 0 .460279
.9694163 0 .4590799
.9999999 0 .4588305
0 .1281569 .4598175
.1556936 .1255386 .4601244
.3326155 .1225527 .460714
.4911616 .1168147 .4613535
.6343346 .1093911 .4613469
.7633374 .1039177 .4604575
.8748938 .09592741 .4597186
.9699307 .08145561 .4585406
.9999999 .0741278 .458032
0 .2789998 .4606947
.1476519 .2789423 .4609443
.3310025 .2771637 .4612
.4918891 .2772801 .4608949
.6348264 .2772875 .4603482
.7637767 .2747332 .4595467
.8755584 .2709109 .4591683
.9703476 .2672337 .4581977
.9999999 .2667523 .45781
0 .4224823 .460794
.1462861 .4221159 .4607608
.328759 .4213614 .4607646
.4923518 .4201723 .4605026
.6362583 .4218017 .4593544
.7645971 .4209051 .4598202
.8756353 .4185482 .4586942
.9707591 .4165477 .4579288
.9999999 .4161672 .4574004
0 .5553761 .4600329
.118834 .5555218 .4594973
.320562 .5559755 .4580289
.4898703 .5560005 .4580017
.6374078 .5555439 .4578649
.7649526 .5543523 .4590857
.8761995 .5530255 .4575416
.9712402 .5515507 .456966
.9999999 .5509232 .4570821
0 .67675 .4560138
.1094183 .6768619 .4552895
.319084 .6767127 .4540485
.4859875 .6775544 .4536101
.6372758 .6766094 .4540234
.7655914 .6763906 .4532741
.8777781 .6748631 .4531346
.9711668 .674225 .4569701
.9999999 .6740918 .4569895
0 .784812 .4522068
.1006788 .7846254 .4520583
.3173358 .7844037 .4514647
.484971 .7847207 .4509783
.6342718 .7847114 .4509124
.7664698 .7843277 .4510095
.8770437 .7848462 .4511361
.9717055 .783633 .4516093
.9999999 .7831775 .4518957
0 .8796514 .4511912
.08276924 .8795723 .4509208
.3111686 .8796033 .4504814
.4822804 .8797947 .4500492
.6336179 .8795691 .4507029
.7654643 .8796319 .4503692
.8770714 .8789902 .4503832
.9713884 .878212 .4501107
.9999999 .8777775 .4502837
0 .9617062 .4499993
.06334678 .9617848 .4500543
.3078623 .9617499 .4497612
.4802532 .9617165 .4493207
.6325415 .9613467 .4506519
.7626755 .9612617 .4502693
.8751412 .9607866 .4493852
.9693585 .9597843 .4480786
.9999999 .9592206 .4467592
0 0 .5985914
.1560512 0 .5988482
.3339509 0 .5993038
.4914868 0 .5994918
.6340976 0 .5996661
.7632214 0 .6005244
.8758116 0 .600868
.9702104 0 .600453
.9999999 0 .6001571
0 .1223402 .5993295
.1497884 .1190087 .5997809
.3325585 .1125302 .5998942
.4915294 .1075585 .6000566
.6347442 .1038236 .6003371
.7641053 .0963388 .6007264
.8758408 .08396076 .6006168
.970661 .07173777 .6000671
.9999999 .06619947 .5998346
0 .2769805 .5998985
.1433077 .2764658 .6001136
.3292875 .2743244 .6003841
.4908374 .2733015 .6004127
.6350449 .2724105 .6006499
.7648621 .2713138 .6003315
.8764563 .268067 .5999497
.9712319 .2649723 .5992312
.9999999 .2630293 .5987892
0 .4210554 .6004284
.130701 .4204875 .600557
.3241595 .4191784 .6005024
.4892702 .4175625 .601
.6369214 .4182267 .6007555
.7658024 .4172518 .5991007
.8767262 .415719 .59833
.9714211 .4151721 .5980993
.9999999 .4154243 .5975085
0 .5543946 .6008262
.1113666 .5541652 .6007906
.3200747 .5539474 .6005961
.4890267 .5530807 .6005989
.6381865 .5527558 .5999947
.7643721 .5534801 .59903
.8750265 .5529218 .5995709
.9707436 .5515123 .5982394
.9999999 .5506908 .5980309
0 .6766581 .5995439
.09504373 .6767768 .5992796
.3155166 .6768081 .5987874
.4842445 .6768268 .5981102
.6351687 .6762374 .598127
.7661467 .6748797 .5979968
.8762785 .6742318 .5984676
.9704437 .6734285 .5974844
.9999999 .6735352 .597507
0 .7854424 .5965511
.07158206 .7853083 .5964832
.3107228 .7850721 .596242
.483023 .7846968 .595542
.636037 .7841184 .5948827
.7664043 .7836701 .5952204
.8771774 .783874 .5940933
.9714673 .7833038 .59496
.9999999 .7828835 .597559
0 .8800789 .5948155
.04782706 .8800132 .5950049
.3052682 .8798905 .5942284
.480355 .8794535 .5931999
.6323625 .8792025 .5930123
.7658988 .8788589 .5930401
.8768153 .8790444 .5923817
.9704513 .87875 .5931519
.9999999 .8773907 .5932272
0 .9617017 .5932817
.01587458 .9615826 .5929922
.3012372 .9613077 .592653
.4795127 .961219 .592697
.631468 .9609171 .5923588
.7615009 .9608443 .5929789
.8748978 .960537 .5933859
.9693355 .9600413 .5901771
.9999999 .9595403 .5894891
0 0 .7237936
.1467799 0 .7240818
.3315724 0 .724383
.491174 0 .7244774
.6355326 0 .7247232
.7644895 0 .7250087
.8757738 0 .7247734
.9708763 0 .7249252
.9999999 0 .7251431
0 .1161739 .7240158
.1416386 .1120946 .7241829
.3293603 .1036731 .7244238
.4904506 .09700157 .7246296
.6353049 .09594589 .724708
.7644107 .08561563 .7252015
.8763278 .08141626 .7248758
.9709602 .06913698 .7249337
.9999999 .06077082 .7250035
0 .2752886 .7243375
.1319007 .2746949 .724355
.3255196 .2712318 .724685
.4889583 .2697035 .7249277
.6349398 .2694913 .7251284
.7646484 .2663616 .7254254
.8781099 .2620588 .7255009
.9716837 .260882 .7244979
.9999999 .2587248 .7244341
0 .419032 .725005
.1177264 .4182481 .7249601
.3206517 .4166773 .7250086
.4866865 .4150726 .7253128
.6367952 .4141545 .7256593
.7657365 .4130997 .7259492
.8783446 .4115287 .7253495
.9724442 .4121518 .7242754
.9999999 .4120675 .724176
0 .5522175 .7259663
.09041236 .5519729 .7258471
.3153315 .5509697 .7253641
.4864305 .5502159 .7248657
.6347928 .5500603 .7256172
.7664154 .5492027 .7256445
.8776187 .5505399 .7238594
.972135 .5496919 .7245441
.9999999 .5500038 .7244378
0 .6749 .7253891
.0829454 .6745656 .7254236
.3151134 .6750575 .7254033
.4843265 .6752738 .7253303
.6348807 .6740979 .7253273
.7654133 .6738057 .7251405
.8754382 .6744041 .7244456
.969042 .6739489 .7248118
.9999999 .6735858 .724441
0 .7856721 .7249847
.07713789 .7855631 .724883
.3100773 .7854223 .7248548
.4809374 .7850267 .724768
.633248 .7836943 .724237
.7642795 .7836185 .7250599
.8751473 .7835664 .7241197
.9693738 .7826455 .7237489
.9999999 .7823831 .723819
0 .8800365 .7239343
.03502763 .879973 .7237623
.3037563 .8797815 .7231539
.479794 .879238 .7225487
.632882 .8783703 .7226861
.7649839 .8782116 .7224327
.8761331 .878271 .7217428
.9708831 .8774593 .7202852
.9999999 .8769284 .719711
0 .9615083 .7211474
.01863045 .9614292 .7210484
.3014978 .961292 .7206859
.476051 .9609981 .7209078
.6321419 .9602212 .7203578
.7619208 .9601969 .7199081
.8729525 .9604222 .7205817
.967284 .9597879 .7208083
.9999999 .9592879 .7203608
0 0 .8348591
.1385975 0 .8349445
.3265346 0 .8352156
.48881 0 .8354034
.6352473 0 .8351875
.7654584 0 .83533
.875582 0 .8354705
.9706774 0 .8352391
.9999999 0 .8351614
0 .1069192 .8349124
.1341822 .1021147 .8350076
.3244108 .09290553 .8352166
.4877091 .08773259 .8354066
.6346841 .09064692 .8352922
.7651592 .07882252 .8354385
.8759377 .06881628 .8355352
.970875 .05389043 .8354899
.9999999 .04348596 .8353674
0 .2718971 .8349857
.1180018 .2711209 .8349904
.3202301 .2699262 .8351329
.4850549 .2679473 .8354821
.6332006 .268189 .8355737
.764342 .2634241 .8361131
.8766497 .2594822 .8360642
.9717179 .2555835 .8359533
.9999999 .2529252 .8356388
0 .4169139 .8349645
.1034495 .4162572 .8350487
.3154021 .4153089 .8354403
.4830143 .4136879 .836069
.6326219 .4116919 .8362907
.764173 .4103535 .8367803
.8774539 .4078327 .8360986
.9732178 .4063928 .8361526
.9999999 .4071563 .8353394
0 .5512742 .835758
.06192067 .550665 .8358684
.308589 .5493922 .8361453
.481497 .5483199 .8363819
.6318765 .5477573 .8363636
.7643033 .5469581 .8367767
.8774092 .5462065 .8360162
.9729381 .5454957 .8353333
.9999999 .5470172 .8343378
0 .672994 .8362253
.06851686 .6731422 .8361195
.3079227 .6735638 .8357804
.4800624 .6729362 .8357943
.6320388 .671482 .8362759
.7627 .6713126 .836188
.8770123 .6713467 .8355278
.9702559 .6727073 .8342819
.9999999 .6726813 .8337484
0 .7831739 .8356883
.07306682 .7831028 .8357019
.3091818 .7832465 .8356943
.4811592 .7832296 .8356821
.6314437 .7825853 .835528
.7635748 .7815119 .835494
.8749888 .7822276 .8343031
.9684785 .7819653 .8340033
.9999999 .7822669 .8340451
0 .8796919 .8350263
.04869112 .8796549 .8348571
.3055278 .879331 .8348554
.4794353 .8788604 .8348485
.631219 .8782292 .8346747
.7641929 .8773862 .8344162
.8740577 .8785824 .8351589
.9682396 .8778819 .8351498
.9999999 .8773581 .8348567
0 .9614845 .83409
.01492227 .9612934 .8341494
.3027111 .9608719 .8343336
.4799205 .9605344 .8340956
.6335997 .9603 .8332972
.7621859 .9597115 .8335074
.873948 .9596819 .8342897
.9679487 .9589346 .8337849
.9999999 .958561 .8325383
0 0 .9289561
.1376345 0 .929082
.3241192 0 .9293947
.4866621 0 .9298588
.6322179 0 .9298941
.7639846 0 .9300718
.8754702 0 .9302277
.9699937 0 .929719
.9999999 0 .9293342
0 .1028887 .9290919
.1296101 .09896783 .9292076
.3218229 .09196501 .9294579
.4858591 .08594071 .9298824
.6316714 .08123479 .9297913
.7632754 .07104721 .9300868
.8753995 .05569919 .9303364
.9701794 .03933251 .9297884
.9999999 .03354293 .9295138
0 .2696714 .9293213
.1151718 .2691869 .9293858
.317807 .268192 .9295902
.4835934 .2664133 .9299818
.6311733 .2654064 .9298241
.7617811 .2620291 .9302
.8752562 .2576917 .9304891
.9704612 .253736 .9302731
.9999999 .2529709 .9300432
0 .4136158 .9296107
.07928426 .4132386 .9296879
.3087426 .4122662 .9299567
.4788784 .4113648 .9300972
.6299617 .4100503 .9299849
.7607037 .408844 .9303426
.8750616 .4089022 .9304025
.9711185 .4061257 .9303725
.9999999 .4062218 .9308739
0 .5480747 .929724
.06130845 .5478671 .9297047
.3084945 .5473161 .9296487
.4794722 .5464126 .9294717
.6312708 .5461698 .9296322
.7609288 .546297 .9298124
.8751337 .5459279 .9300083
.9706005 .5447375 .9299898
.9999999 .544463 .9303391
0 .6710736 .9297572
.04071696 .6711434 .9297149
.3026505 .6707839 .9296207
.4792981 .6700187 .9293939
.6312771 .6699516 .9290254
.7620096 .6701232 .9294993
.8755286 .6695123 .9303141
.9703321 .6688052 .9303717
.9999999 .6686944 .9303855
0 .7811054 .9300056
.03371232 .7814082 .9298015
.2997182 .7818018 .929587
.4761308 .7816332 .9295273
.6296517 .7804985 .929793
.7623373 .7802531 .9298172
.8734481 .7809436 .9296921
.9693242 .7800438 .9299024
.9999999 .7805166 .9298836
0 .8779231 .9299453
.04200987 .8777885 .9299543
.3058757 .8774613 .9300181
.4803373 .877304 .929898
.6296316 .8775294 .9300098
.7606748 .8767703 .9298201
.8740798 .876645 .9296158
.9683166 .87707 .9288814
.9999999 .8771079 .9284177
0 .9613391 .9293639
.02100349 .9612733 .9292195
.3024381 .9611096 .9289685
.4781676 .9609202 .9289827
.6308359 .9604844 .9289261
.7605789 .9603328 .9288883
.8738478 .9596154 .9285782
.9660286 .9594433 .930088
.9999999 .9592654 .9300748
0 0 .9999999
.1400077 0 .9999999
.3247542 0 .9999999
.4870461 0 .9999999
.6320453 0 .9999999
.760814 0 .9999999
.8738806 0 .9999999
.9683917 0 .9999999
.9999999 0 .9999999
0 .09902612 .9999999
.1326762 .09651519 .9999999
.322542 .09210861 .9999999
.4861571 .0873066 .9999999
.6319908 .07810824 .9999999
.760614 .06449769 .9999999
.8738137 .05903941 .9999999
.9686279 .04663603 .9999999
.9999999 .04329295 .9999999
0 .2692288 .9999999
.1172297 .2693971 .9999999
.318252 .269367 .9999999
.4844979 .2675988 .9999999
.6321277 .2651115 .9999999
.7601389 .2617028 .9999999
.8733576 .2594227 .9999999
.9689645 .2558195 .9999999
.9999999 .2556145 .9999999
0 .4126616 .9999999
.07750408 .412655 .9999999
.3091297 .4122496 .9999999
.4800688 .4119781 .9999999
.6303481 .4123409 .9999999
.7597508 .4115132 .9999999
.8736228 .4100791 .9999999
.9689434 .408809 .9999999
.9999999 .4081954 .9999999
0 .5460185 .9999999
.05416907 .5449677 .9999999
.30156 .5434166 .9999999
.4775785 .5448361 .9999999
.6299781 .5463265 .9999999
.7594839 .5470417 .9999999
.8738861 .5474914 .9999999
.9685954 .546286 .9999999
.9999999 .5454878 .9999999
0 .6694719 .9999999
.07039178 .6695632 .9999999
.3052399 .6697044 .9999999
.4765206 .6691188 .9999999
.6268076 .6675713 .9999999
.760974 .6696846 .9999999
.8727422 .6695963 .9999999
.9676819 .6687753 .9999999
.9999999 .6686711 .9999999
0 .7794015 .9999999
.05613095 .7794211 .9999999
.3037516 .7794505 .9999999
.4772782 .7791045 .9999999
.6288448 .7791554 .9999999
.7596543 .7794403 .9999999
.8706616 .7800323 .9999999
.9662891 .7790654 .9999999
.9999999 .7780942 .9999999
0 .8749152 .9999999
.0661222 .8749357 .9999999
.3093423 .8749051 .9999999
.4814284 .874805 .9999999
.6307835 .8746705 .9999999
.76117 .874459 .9999999
.8718987 .8752945 .9999999
.9647422 .8765526 .9999999
.9999999 .8766628 .9999999
0 .9579774 .9999999
.06443559 .9578454 .9999999
.3112197 .9575238 .9999999
.4843041 .9571678 .9999999
.6314145 .9569651 .9999999
.7614053 .9566472 .9999999
.8751629 .9562203 .9999999
.9682878 .9579465 .9999999
.9999999 .9595236 .9999999
