luts/Timeless 17.cube
# 3D LUT of size 33x33x33 converted by Filestar.
#   Input:
#     color space: sRGB
#     white point: default (D65)
#     transfer function: default (sRGB)
#   Output:
#     color space: sRGB
#     white point: default (D65)
#     transfer function: default (sRGB)
#   Exposure: +0.53999996
#   Contrast: +23
#   Whites: +8
#   Blacks: -20
#   Vibrance: +5
LUT_3D_SIZE 5
0 .00158175 .00933342
.3243251 0 0
.6293336 0 0
.8726932 0 0
.9999999 0 0
0 .2799452 0
.3312401 .2818866 0
.630856 .2830351 0
.8735807 .2800768 0
.9999999 .2791344 0
0 .5553041 0
.3310699 .5560308 0
.6351188 .555283 0
.8754217 .5555661 0
.9999999 .5539023 0
0 .7847282 0
.3321487 .7843037 0
.6356186 .7842124 0
.8759183 .784045 0
.9999999 .7833526 0
0 .9615063 0
.3237118 .9614982 0
.6361507 .9614301 0
.8756328 .9599585 0
.9999999 .9592447 0
0 0 .3065726
.3284584 0 .3097819
.6322498 0 .3109617
.8739982 0 .3103792
.9999999 0 .3080278
0 .2812825 .3121586
.3321626 .2804812 .3116995
.6325935 .2796144 .3102652
.874691 .2755064 .3084693
.9999999 .2723954 .3055039
0 .5551114 .3061315
.3269415 .5560691 .3046749
.6351439 .5560002 .3056701
.8762649 .5543247 .3042046
.9999999 .5517563 .3022412
0 .7849942 .2945559
.321532 .7848144 .2938174
.6344393 .784762 .2934691
.8779471 .7842348 .290608
.9999999 .7829638 .291937
0 .9620592 .2896037
.3124867 .9620762 .2875079
.6332654 .9618381 .2896227
.8758323 .9601764 .2868328
.9999999 .9590002 .2874715
0 0 .5985914
.3339509 0 .5993038
.6340976 0 .5996661
.8758116 0 .600868
.9999999 0 .6001571
0 .2769805 .5998985
.3292875 .2743244 .6003841
.6350449 .2724105 .6006499
.8764563 .268067 .5999497
.9999999 .2630293 .5987892
0 .5543946 .6008262
.3200747 .5539474 .6005961
.6381865 .5527558 .5999947
.8750265 .5529218 .5995709
.9999999 .5506908 .5980309
0 .7854424 .5965511
.3107228 .7850721 .596242
.636037 .7841184 .5948827
.8771774 .783874 .5940933
.9999999 .7828835 .597559
0 .9617017 .5932817
.3012372 .9613077 .592653
.631468 .9609171 .5923588
.8748978 .960537 .5933859
.9999999 .9595403 .5894891
0 0 .8348591
.3265346 0 .8352156
.6352473 0 .8351875
.875582 0 .8354705
.9999999 0 .8351614
0 .2718971 .8349857
.3202301 .2699262 .8351329
.6332006 .268189 .8355737
.8766497 .2594822 .8360642
.9999999 .2529252 .8356388
0 .5512742 .835758
.308589 .5493922 .8361453
.6318765 .5477573 .8363636
.8774092 .5462065 .8360162
.9999999 .5470172 .8343378
0 .7831739 .8356883
.3091818 .7832465 .8356943
.6314437 .7825853 .835528
.8749888 .7822276 .8343031
.9999999 .7822669 .8340451
0 .9614845 .83409
.3027111 .9608719 .8343336
.6335997 .9603 .8332972
.873948 .9596819 .8342897
.9999999 .958561 .8325383
0 0 .9999999
.3247542 0 .9999999
.6320453 0 .9999999
.8738806 0 .9999999
.9999999 0 .9999999
0 .2692288 .9999999
.318252 .269367 .9999999
.6321277 .2651115 .9999999
.8733576 .2594227 .9999999
.9999999 .2556145 .9999999
0 .5460185 .9999999
.30156 .5434166 .9999999
.6299781 .5463265 .9999999
.8738861 .5474914 .9999999
.9999999 .5454878 .9999999
0 .7794015 .9999999
.3037516 .7794505 .9999999
.6288448 .7791554 .9999999
.8706616 .7800323 .9999999
.9999999 .7780942 .9999999
0 .9579774 .9999999
.3112197 .9575238 .9999999
.6314145 .9569651 .9999999
.8751629 .9562203 .9999999
.9999999 .9595236 .9999999
