luts/Timeless 44.cube
# 3D LUT of size 33x33x33 converted by Filestar.
#   Input:
#     color space: sRGB
#     white point: default (D65)
#     transfer function: default (sRGB)
#   Output:
#     color space: sRGB
#     white point: default (D65)
#     transfer function: default (sRGB)
#   Exposure: +0.35
#   Contrast: -43
#   Whites: +8
#   Blacks: -20
#   Vibrance: +30
LUT_3D_SIZE 9
.04832771 .00962059 .02690313
.1203809 0 .02598443
.270365 0 .01494868
.4234565 0 0
.5608149 0 0
.6906607 0 0
.8108767 0 0
.9181284 0 0
.9999999 0 0
0 .140021 0
.1211909 .1363257 0
.278107 .1357283 0
.4254954 .1324069 0
.5633509 .1243369 0
.6917704 .1066934 0
.8117953 .08945025 0
.9191296 .06266727 0
.9999999 .03306146 0
0 .2839583 0
.139248 .2832842 0
.2871822 .2861489 0
.4295494 .2855403 0
.564739 .2812919 0
.6932327 .2761505 0
.8131248 .2699432 0
.9200673 .2619391 0
.9999999 .2571202 0
0 .4313315 0
.09066413 .4317987 0
.2840571 .4312296 0
.4322538 .4301276 0
.5695032 .4292044 0
.6971552 .4259439 0
.8127806 .4238333 0
.9204487 .419454 0
.9999999 .4143738 0
0 .5704549 0
.01500903 .5705891 0
.2630591 .5709363 0
.4255551 .5701157 0
.5674919 .5692372 0
.6974226 .5666657 0
.8156246 .5637869 0
.9220524 .5598261 0
.9999999 .5566664 0
0 .6972803 0
0 .6973863 0
.2483759 .6978173 0
.417627 .6981789 0
.5637978 .6970087 0
.6963422 .6956519 0
.8140869 .6939018 0
.9217857 .6909605 0
.9999999 .6883344 0
0 .8149019 0
0 .8148678 0
.2181149 .814777 0
.4007795 .8148263 0
.5543981 .814657 0
.6914958 .8131359 0
.8132669 .8121091 0
.9203275 .8104827 0
.9999999 .8071958 0
0 .9206943 0
0 .9206662 0
.1763383 .9206301 0
.3850276 .9206793 0
.5420174 .9206796 0
.6836154 .9198012 0
.808163 .9179884 0
.9167965 .9166145 0
.9999999 .9136716 0
0 .9999999 0
0 .9999999 0
.1300345 .9999999 0
.3639736 .9999999 0
.5281088 .9999999 0
.6732453 .9999999 0
.7999387 .9999999 0
.9113691 .9999999 0
.9999999 .9999999 0
.00102156 .01655757 .1369326
.1280276 0 .1386497
.278641 0 .1404328
.4281681 0 .1312183
.563765 0 .1239975
.6928355 0 .1120695
.8128895 0 .09515408
.920279 0 .07214632
.9999999 0 .03875558
0 .1376303 .1384343
.1190615 .1405467 .1360743
.2793699 .1325414 .137439
.4281854 .1179113 .1290206
.5648893 .1105026 .1178763
.6939806 .09100249 .1026691
.813603 .06813046 .08503
.9205626 .03651371 .06396981
.9999999 0 .02672653
0 .2862834 .1224862
.110455 .2871854 .1159703
.2884139 .2860081 .1096038
.4333267 .2812071 .1052972
.565834 .2784205 .1117153
.6949463 .2725347 .09328138
.8146655 .2654106 .06761415
.9212999 .2563324 .04862675
.9999999 .2526915 .00284082
0 .4322608 .06695202
.04148492 .4327396 .05763119
.2764913 .4321969 .06319826
.4332858 .4322167 .07488225
.5727364 .4287543 .05550317
.6987034 .4233564 .06594622
.813757 .421297 .06940658
.9216397 .4164388 .02268065
.9999999 .4114133 0
0 .5721778 0
0 .572286 0
.2516716 .5721404 0
.4227934 .5713962 0
.5676216 .5706319 .005128
.7002688 .5662628 0
.8172824 .5628985 0
.9235456 .5579684 0
.9999999 .5554739 0
0 .6984729 0
0 .6987163 0
.234582 .6989345 0
.4127385 .6988766 0
.5619866 .6982239 0
.6966399 .6964815 0
.8160132 .6940646 0
.9239507 .6901834 0
.9999999 .6874469 0
0 .8157984 0
0 .81578 0
.2033523 .8156626 0
.3957583 .8153229 0
.5517376 .8151043 0
.6909658 .8140503 0
.813837 .8126987 0
.9217041 .8106087 0
.9999999 .8070356 0
0 .9214081 0
0 .9214219 0
.1574428 .9214594 0
.3793207 .9212217 0
.5391467 .9209958 0
.681485 .9206716 0
.80858 .9186195 0
.9172049 .9171896 0
.9999999 .9138586 0
0 .9999999 0
0 .9999999 0
.1054998 .9999999 0
.358757 .9999999 0
.5248527 .9999999 0
.6709445 .9999999 0
.7984038 .9999999 0
.9112924 .9999999 0
.9999999 .9999999 0
0 0 .2825081
.1346203 0 .2851505
.2835331 0 .2882671
.4308301 0 .2871716
.5697311 0 .2819026
.6976666 0 .2762861
.8153217 0 .2714348
.9220724 0 .263655
.9999999 0 .2554829
0 .1225589 .2888104
.1164313 .1179821 .2897511
.289021 .1068946 .2915157
.4329187 .1033272 .2860335
.5689449 .0899095 .2807752
.6969662 .07265893 .2754415
.8152713 .04013669 .2698166
.9222684 0 .261685
.9999999 0 .2520923
0 .2838077 .2892136
.08912685 .2829747 .289348
.2770397 .2801201 .286475
.4268051 .2799295 .2849046
.5660905 .2740929 .280528
.6966496 .2671416 .2734892
.8163643 .2581962 .2646206
.9232811 .2480484 .2559657
.9999999 .2397527 .2455916
0 .4345265 .2705961
0 .4342782 .2674096
.2521705 .4334416 .2620034
.4317658 .432515 .2592697
.5735547 .4265175 .2579454
.6970947 .4229533 .2691439
.8165953 .417609 .2586803
.9237341 .4112566 .2486354
.9999999 .4045654 .2381136
0 .5724391 .2444816
0 .5727553 .2419598
.2292079 .5733861 .2374836
.4177941 .5733092 .2383249
.5674845 .5723314 .2397925
.7056013 .5645222 .2294244
.8213173 .5586973 .2361723
.9234957 .5574632 .2444991
.9999999 .5516666 .23409
0 .7000962 .2115201
0 .7003047 .2082595
.1996648 .7008578 .2021931
.4004052 .700615 .2060059
.5581587 .699857 .2086756
.697251 .6980223 .2057917
.819888 .6943629 .2024635
.9278994 .6892009 .1907862
.9999999 .6837674 .1973093
0 .8170524 .1778362
0 .8170739 .1740288
.162122 .8171266 .1660272
.3797772 .8167252 .163772
.5458319 .8160521 .1652199
.6882538 .8155962 .1653768
.8155776 .8141726 .1773
.9249725 .8110667 .1757499
.9999999 .8055432 .1592697
0 .9223083 .1078255
0 .9223096 .1033348
.1002163 .92247 .09223267
.3622176 .9222553 .09273777
.53209 .9217191 .09804759
.6781932 .9215258 .1092383
.8060117 .9204044 .1213179
.9185784 .9183463 .1307338
.9999999 .9144433 .135908
0 .9999999 .02136678
0 .9999999 .01260929
0 .9999999 0
.3447398 .9999999 0
.517211 .9999999 0
.6658626 .9999999 0
.7952596 .9999999 .00297467
.9088777 .9999999 .01092414
.9999999 .9999999 .05724223
0 0 .4312066
.1229064 0 .43245
.2817215 0 .432813
.43319 0 .4339809
.5718461 0 .4326763
.6998399 0 .4265639
.81864 0 .4212322
.9251118 0 .4138651
.9999999 0 .4072821
0 .1000343 .4333096
.08934186 .08598446 .433891
.2790191 .07197208 .4358046
.435901 .05538841 .4365543
.5742504 .05070499 .4322667
.7012817 .01016025 .4245153
.819184 0 .4200177
.925132 0 .4133655
.9999999 0 .4071202
0 .2693183 .4363523
0 .2665586 .4366415
.2634632 .2595776 .4360992
.4334053 .2585043 .4351079
.5733698 .2632125 .4270845
.7005997 .2580629 .4222758
.8185256 .2493124 .418519
.925221 .2382548 .4122976
.9999999 .2253775 .4062105
0 .4325596 .4345678
0 .4326534 .4345067
.2433868 .4309433 .432862
.423404 .424362 .4290064
.5668483 .4227348 .4254522
.6971426 .4196668 .4221174
.8160625 .413215 .4176002
.9240286 .4055988 .4115164
.9999999 .398232 .403638
0 .5745783 .4162725
0 .574233 .4142919
.2009218 .572897 .4101649
.3991115 .5724176 .405388
.5713654 .5706795 .4037204
.7034022 .5630304 .4044016
.8153484 .5595147 .4140661
.9236977 .5536008 .4078596
.9999999 .546658 .3999915
0 .7012877 .3921799
0 .7012374 .3899143
.1354355 .7015857 .3857716
.3782047 .7015473 .3823602
.5526858 .7016644 .3791987
.6973649 .6995238 .378113
.8242211 .6926722 .373836
.9304407 .6861024 .3767652
.9999999 .682358 .3845151
0 .8180646 .3668059
0 .8180189 .3646814
.06211916 .8179548 .3615197
.3541902 .8176814 .3587119
.5379037 .8173394 .3582661
.6862218 .8169613 .3604516
.8163328 .8148474 .3620431
.9276416 .8111244 .3547739
.9999999 .8034137 .3466753
0 .9236725 .338455
0 .9236615 .3376997
0 .9236333 .3358058
.3239711 .9235359 .3325745
.5189266 .9229302 .3321552
.6736381 .9224142 .3366294
.8035245 .921381 .3376047
.9194306 .918713 .3384772
.9999999 .9147263 .334236
0 .9999999 .3197227
0 .9999999 .3186093
0 .9999999 .3158151
.3100363 .9999999 .3111053
.4992581 .9999999 .3085492
.656545 .9999999 .3114323
.7911521 .9999999 .3099456
.9079539 .9999999 .309594
.9999999 .9999999 .3123187
0 0 .5663838
.1189012 0 .5673763
.2760494 0 .5688791
.4281865 0 .570154
.5720758 0 .5715551
.7008869 0 .5726432
.8197266 0 .567162
.9262313 0 .5606477
.9999999 0 .555233
0 .0788518 .5688865
.06375457 .06566556 .5695645
.2643593 .03267905 .570934
.4261125 .00060797 .5721982
.5736874 0 .5740231
.7034692 0 .5730309
.8207801 0 .5662141
.9271227 0 .559338
.9999999 0 .5538183
0 .2514586 .5723937
0 .2491378 .5726736
.2495091 .2427603 .5735379
.4175247 .2375582 .5749266
.5739509 .2339731 .575531
.7073246 .2361586 .57127
.8223379 .2298773 .5636713
.9277396 .2177465 .5568169
.9999999 .201445 .5520957
0 .415931 .5739536
0 .4145436 .5738551
.2102782 .4116497 .5737863
.4046339 .403618 .5730918
.5715134 .4020782 .5732255
.7052355 .4058556 .5648593
.8198283 .4031938 .5586356
.9261265 .3973357 .5541734
.9999999 .3915115 .5499421
0 .5706694 .5726496
0 .5707607 .5728165
.1785037 .5709277 .5726231
.3941255 .5670151 .5699076
.5631182 .5593359 .564983
.6953039 .5594069 .5621142
.8132108 .5567679 .5593379
.9215481 .5512667 .5551445
.9999999 .5451824 .5505458
0 .7038817 .5557846
0 .7036383 .5543809
.09912501 .7024505 .5514945
.3646018 .7004473 .5472668
.5377372 .6990157 .5426195
.6976123 .6965628 .5418575
.8220065 .6896026 .5413752
.9230527 .6864239 .5520479
.9999999 .683295 .5486538
0 .8200315 .531331
0 .8197371 .5295958
0 .8192716 .526967
.3264239 .8182152 .5241298
.518733 .8170348 .5225157
.6806705 .8167693 .5231555
.8165313 .8146191 .5215612
.9293782 .809982 .517832
.9999999 .8025431 .5161385
0 .924088 .5144421
0 .9241427 .5136594
0 .9239387 .5112839
.2953862 .9236695 .507448
.501439 .9226389 .5069664
.6644141 .9219118 .5055565
.8019159 .9216368 .5038632
.9187316 .9201627 .502584
.9999999 .914539 .4991617
0 .9999999 .4963999
0 .9999999 .4961038
0 .9999999 .4945767
.2836051 .9999999 .4929441
.4908608 .9999999 .4919473
.6485586 .9999999 .4913967
.7856914 .9999999 .4881262
.9070719 .9999999 .4869074
.9999999 .9999999 .4860083
0 0 .6950293
.09069229 0 .6955689
.2655607 0 .6963575
.4175662 0 .6972333
.5625144 0 .6983526
.6982866 0 .6992013
.8191674 0 .698307
.9281533 0 .6953924
.9999999 0 .6916146
0 .03129904 .6959474
.02479696 .01121508 .6963994
.2570184 0 .6972916
.4141911 0 .6982082
.5613245 0 .6995084
.6992516 0 .700496
.8220925 0 .6993051
.9292043 0 .6955482
.9999999 0 .6903758
0 .2412032 .6979282
0 .2377055 .6982093
.2341429 .2288684 .6991082
.4074163 .219605 .7006417
.5576487 .2129025 .7020217
.7017912 .2065498 .7027384
.8251862 .1991775 .7002359
.9313516 .1937612 .6937898
.9999999 .1678634 .6873873
0 .3996142 .7009733
0 .3977681 .7010435
.1853594 .3917645 .700855
.3876195 .3839095 .7014999
.5525967 .3794104 .7030082
.7032316 .3762605 .7032853
.827615 .3795485 .6982226
.9323874 .3795137 .6902758
.9999999 .3740349 .6837389
0 .5535686 .702208
0 .5520071 .702298
.1231316 .5498918 .7014307
.367192 .545181 .6998996
.5438444 .5413452 .6989979
.7007299 .540752 .7003757
.8229921 .5424139 .693022
.9273291 .5415022 .6863117
.9999999 .540071 .6832631
0 .6988188 .699715
0 .6988993 .6997643
.03175205 .6989368 .6999539
.3550173 .6978599 .6990104
.5355738 .694625 .6963893
.6924623 .6870054 .6927786
.8120157 .6878465 .6907067
.9198409 .6852251 .6880611
.9999999 .68191 .684388
0 .822387 .686381
0 .8223426 .6855122
0 .8212785 .684594
.3210635 .8193882 .6816895
.5121055 .8168496 .6783371
.6737825 .814223 .6739566
.8156956 .8126392 .6729497
.9264107 .807776 .669718
.9999999 .8038724 .6780895
0 .925317 .6681687
0 .9251256 .6674297
0 .9246728 .6656066
.280681 .9235271 .6632618
.4922248 .9217513 .6603402
.6610303 .9205516 .6592813
.7981412 .9200432 .6587603
.9187793 .9183465 .6581411
.9999999 .9127647 .6505812
0 .9999999 .6508315
0 .9999999 .650034
0 .9999999 .6479804
.2404023 .9999999 .6443028
.4754971 .9999999 .6422198
.6413863 .9999999 .6431445
.781431 .9999999 .6440534
.9037455 .9999999 .6431106
.9999999 .9999999 .6403787
0 0 .8124955
.02911622 0 .8128459
.2525842 0 .8135415
.4125891 0 .8140268
.5540292 0 .8150185
.692663 0 .8158167
.8142384 0 .8159956
.92454 0 .8147515
.9999999 0 .8128992
0 0 .8127269
0 0 .8132237
.2454377 0 .8140211
.4078749 0 .8149477
.5512733 0 .8157206
.6917287 0 .8165809
.8150231 0 .8168513
.9266077 0 .815286
.9999999 0 .8130822
0 .2273365 .8147675
0 .2231967 .8150041
.2116175 .2125932 .8156099
.3914587 .2000973 .8163544
.545526 .1860089 .8171885
.6890387 .1714046 .8185837
.817525 .1721423 .8185136
.9300592 .1550186 .8166707
.9999999 .1361511 .813494
0 .3854855 .816572
0 .3828102 .816719
.1544124 .3769663 .8170168
.3698542 .3685303 .8181516
.5368949 .3602746 .8195834
.6851124 .3585035 .8206148
.820049 .3548926 .820304
.9344697 .3523298 .8179021
.9999999 .3520389 .8113327
0 .5373319 .8178051
0 .5360853 .8179678
0 .5330859 .8180198
.346777 .5258925 .8180518
.524125 .5229731 .8192793
.6787197 .521905 .8200825
.8183318 .5228255 .8191922
.9345583 .5214846 .8154665
.9999999 .5240693 .8080133
0 .6810061 .8188326
0 .6804589 .8188412
0 .6797132 .8186502
.3228944 .6788023 .8182791
.511026 .6759927 .8171962
.6731177 .6727991 .8167088
.8157582 .6720588 .8161954
.926864 .6741956 .8099332
.9999999 .6727952 .8055221
0 .8158782 .8165144
0 .81578 .8165844
0 .8154794 .8168076
.3111272 .8148259 .8167569
.5044947 .8137737 .8152885
.6660833 .8107105 .8124408
.8082922 .8057677 .810207
.914928 .8064462 .8085302
.9999999 .8042861 .8063723
0 .9262612 .8072326
0 .9261873 .8068158
0 .9255539 .8058437
.2817506 .924422 .8042077
.492762 .9219553 .8024616
.6553145 .9191992 .7997829
.7937578 .9178369 .796957
.9174972 .915893 .7968794
.9999999 .9103528 .7935243
0 .9999999 .79141
0 .9999999 .7907603
0 .9999999 .7891292
.2478038 .9999999 .7872899
.4754181 .9999999 .7845757
.6435981 .9999999 .7810572
.7813836 .9999999 .7819507
.9034194 .9999999 .7818664
.9999999 .9999999 .7797749
0 0 .9177584
0 0 .9180476
.2389634 0 .9188421
.4001895 0 .9197355
.5448366 0 .9200321
.6834238 0 .9212642
.8090137 0 .92167
.9192711 0 .9213954
.9999999 0 .9205758
0 0 .9179677
0 0 .9183689
.2325519 0 .9192184
.3941454 0 .9199023
.54135 0 .9205959
.6814416 0 .9217145
.8077561 0 .9224253
.9194707 0 .9221637
.9999999 0 .9210585
0 .2101886 .9190334
0 .2052501 .9193272
.2004797 .193827 .9201798
.3796514 .1784942 .9211229
.5352922 .1611173 .9218408
.6765302 .1480411 .9226966
.8060305 .1271916 .9236882
.9215431 .129395 .9235815
.9999999 .09792424 .9220628
0 .3698801 .9210076
0 .3668822 .9212328
.1180359 .3613101 .9213848
.358252 .3545857 .9217205
.5264429 .348899 .9224791
.670804 .3429188 .9231359
.8040662 .336159 .9242546
.9237866 .3340328 .924952
.9999999 .3292124 .923264
0 .5230296 .9214354
0 .5215734 .9214545
0 .5180951 .9214696
.3243922 .5128191 .9216264
.5108207 .508571 .9223521
.6653507 .5055766 .9234311
.8024679 .5045933 .9247133
.9227856 .5030245 .9249578
.9999999 .4987957 .9237182
0 .6650895 .9225626
0 .6646422 .922518
0 .6642641 .9223253
.2973286 .6612723 .922003
.4988068 .657132 .9216285
.6578506 .6571257 .9221099
.7973078 .6574551 .9230412
.9213884 .6576068 .9229912
.9999999 .6557435 .9210011
0 .8006881 .9225296
0 .8005219 .9224938
0 .8000692 .9224595
.2792536 .7992483 .9224753
.4885466 .7972484 .9221421
.6537058 .7945109 .9209158
.7924427 .7941218 .9193935
.9182481 .7934297 .9198517
.9999999 .7958684 .9147063
0 .9188421 .9213758
0 .9187755 .9214184
0 .91863 .9215682
.2705761 .9183826 .9215366
.4873276 .9178405 .9206931
.65262 .916293 .9189051
.7901245 .9160713 .9174801
.9134743 .9121899 .9161615
.9999999 .9129596 .9144415
0 .9999999 .9125352
0 .9999999 .9123996
0 .9999999 .9119437
.2592223 .9999999 .9105667
.4823644 .9999999 .9087006
.6439674 .9999999 .9083695
.7853244 .9999999 .9066402
.9062393 .9999999 .9068463
.9999999 .9999999 .9074702
0 0 .9999999
0 0 .9999999
.2293335 0 .9999999
.3941909 0 .9999999
.5423644 0 .9999999
.6769803 0 .9999999
.8020768 0 .9999999
.9143195 0 .9999999
.9999999 0 .9999999
0 0 .9999999
0 0 .9999999
.217026 0 .9999999
.3874975 0 .9999999
.5389864 0 .9999999
.675407 0 .9999999
.8005127 0 .9999999
.9136264 0 .9999999
.9999999 0 .9999999
0 .1912175 .9999999
0 .1861045 .9999999
.1832685 .1732641 .9999999
.3703716 .1594588 .9999999
.5293305 .1356209 .9999999
.6704673 .1088538 .9999999
.7975752 .0809144 .9999999
.9115741 .04639551 .9999999
.9999999 .05678629 .9999999
0 .3565492 .9999999
0 .3540834 .9999999
.08455623 .3485008 .9999999
.3477144 .340957 .9999999
.5137494 .3334081 .9999999
.6627403 .3266161 .9999999
.7936254 .32024 .9999999
.9104995 .315353 .9999999
.9999999 .3139481 .9999999
0 .5098625 .9999999
0 .5079173 .9999999
0 .502879 .9999999
.2992609 .4967696 .9999999
.4935077 .4944516 .9999999
.6524231 .4912325 .9999999
.7882416 .4907073 .9999999
.9104338 .4894513 .9999999
.9999999 .4891038 .9999999
0 .6525765 .9999999
0 .6516213 .9999999
0 .6494066 .9999999
.2765955 .6465061 .9999999
.4800264 .6418763 .9999999
.6414572 .6404567 .9999999
.7812125 .6428198 .9999999
.9072292 .6422417 .9999999
.9999999 .642589 .9999999
0 .785883 .9999999
0 .7856202 .9999999
0 .7850355 .9999999
.2550593 .7837698 .9999999
.4778303 .7803524 .9999999
.6382837 .7799329 .9999999
.7787845 .7812171 .9999999
.9005182 .7819142 .9999999
.9999999 .7805972 .9999999
0 .905393 .9999999
0 .9051551 .9999999
0 .9045838 .9999999
.2536611 .9037459 .9999999
.4747612 .902714 .9999999
.6441832 .9006007 .9999999
.7841985 .9003806 .9999999
.9020212 .9026367 .9999999
.9999999 .9035274 .9999999
0 .9999999 .9999999
0 .9999999 .9999999
0 .9999999 .9999999
.2360557 .9999999 .9999999
.4678183 .9999999 .9999999
.6390404 .9999999 .9999999
.7857802 .9999999 .9999999
.9134008 .9992016 .9999999
.9999999 .9956207 .9999999
