luts/Timeless_6.cube
# 3D LUT of size 33x33x33 converted by Filestar.
#   Input:
#     color space: sRGB
#     white point: default (D65)
#     transfer function: default (sRGB)
#   Output:
#     color space: sRGB
#     white point: default (D65)
#     transfer function: default (sRGB)
#   Exposure: +0.53999996
#   Contrast: +23
#   Whites: +8
#   Blacks: -20
#   Vibrance: +5
LUT_3D_SIZE 5
0 .00158175 .00933342
.2991159 0 0
.5908476 0 0
.8302338 0 0
.9999999 0 0
0 .3069375 0
.3077243 .3086948 0
.5929725 .310728 0
.8318517 .3092061 0
.9999999 .3075098 0
0 .5988439 0
.307424 .5992039 0
.5973675 .5997109 0
.8328683 .5996479 0
.9999999 .5981662 0
0 .8344085 0
.3024013 .8340989 0
.5987733 .834102 0
.8350959 .8338658 0
.9999999 .8331844 0
0 .9999999 0
.2949422 .9999999 0
.5979891 .9999999 0
.83197 .9999999 0
.9999999 .9999999 0
0 0 .3062341
.3035214 0 .3091494
.5943566 0 .3108963
.831525 0 .3105803
.9999999 0 .3077493
0 .3085709 .3118358
.3068216 .3089942 .3107131
.5942926 .3082963 .3099704
.8328443 .3050628 .3083467
.9999999 .3018986 .3048578
0 .5990425 .3037811
.2995152 .599727 .3036851
.5973018 .6001091 .3034687
.8344713 .5989097 .3003272
.9999999 .5965955 .3012354
0 .8346728 .293031
.2894674 .8346687 .2917611
.5959023 .8345833 .2918448
.8369319 .8337471 .2905579
.9999999 .8326949 .2907773
0 .9999999 .289838
.2840578 .9999999 .2888441
.5932779 .9999999 .2860912
.8299205 .9999999 .2812132
.9999999 .9999999 .2838665
0 0 .5980736
.3088338 0 .5988023
.596233 0 .5991379
.8337317 0 .6004198
.9999999 0 .5996544
0 .3052868 .5994996
.3034658 .3034621 .5998823
.5970166 .3016369 .6002914
.834361 .2991624 .5993843
.9999999 .2942136 .5979947
0 .5984758 .6003072
.2916107 .5991348 .5999519
.5983793 .5984038 .5993717
.8331552 .5974763 .5988053
.9999999 .595084 .5971679
0 .8351869 .594815
.2789743 .8350986 .5945573
.5936596 .8343494 .5927518
.8358289 .8337182 .5929618
.9999999 .8322544 .59316
0 .9999999 .5916806
.2765033 .9999999 .5910741
.592927 .9999999 .5910959
.8290222 .9999999 .5926378
.9999999 .9999999 .589672
0 0 .8342858
.2998299 0 .8345355
.5959657 0 .8345033
.8338568 0 .8349621
.9999999 0 .8346037
0 .3008855 .8343827
.2927363 .2993236 .8344971
.5942723 .2971215 .8350021
.8345648 .2901659 .8355774
.9999999 .2837069 .8351335
0 .5949776 .8353988
.2768985 .5947497 .835587
.5929598 .5925871 .8356776
.8348731 .5918473 .8357419
.9999999 .5931108 .8335044
0 .8341293 .8348895
.2815332 .8340588 .8346292
.5916339 .8335151 .8343592
.8325273 .8329042 .834497
.9999999 .8324624 .833822
0 .9999999 .8327557
.2742512 .9999999 .8322833
.5936916 .9999999 .8307284
.8315908 .9999999 .8318193
.9999999 .9999999 .8310919
0 0 .9999999
.2994206 0 .9999999
.5939129 0 .9999999
.831441 0 .9999999
.9999999 0 .9999999
0 .2985066 .9999999
.2901569 .2984418 .9999999
.5930532 .2955766 .9999999
.8306279 .2902424 .9999999
.9999999 .286816 .9999999
0 .5914184 .9999999
.2761551 .5902753 .9999999
.5897574 .589978 .9999999
.8302243 .5920554 .9999999
.9999999 .5904969 .9999999
0 .8301728 .9999999
.276332 .8299274 .9999999
.5910804 .8294964 .9999999
.8288233 .8301327 .9999999
.9999999 .8301722 .9999999
0 .9999999 .9999999
.2800279 .9999999 .9999999
.5935012 .9999999 .9999999
.8361387 .9999999 .9999999
.9999999 .9978988 .9999999
