luts/Timeless_3.cube
# 3D LUT of size 33x33x33 converted by Filestar.
#   Input:
#     color space: sRGB
#     white point: default (D65)
#     transfer function: default (sRGB)
#   Output:
#     color space: sRGB
#     white point: default (D65)
#     transfer function: default (sRGB)
#   Exposure: +0.32999998
#   Contrast: -48
#   Whites: -26
#   Blacks: +13
#   Vibrance: +30
LUT_3D_SIZE 9
.05650328 .0111147 .0211726
.1657593 0 .01921009
.306328 0 .00281741
.4512743 0 0
.5820935 0 0
.702993 0 0
.8118017 0 0
.9119924 0 0
.9999999 0 0
.02001502 .1591116 .00121521
.1647994 .1578366 .00152564
.3092468 .1539636 0
.4508039 .1496707 0
.5805269 .1332178 0
.7007962 .1273239 0
.8097695 .1205736 0
.9110561 .1046168 0
.999563 .09095853 0
0 .3044657 0
.1617087 .3039313 0
.308351 .3045144 0
.4474691 .2978115 0
.5760972 .2887457 0
.6972206 .2843674 0
.8062968 .2811105 0
.9080827 .2740106 0
.9972195 .2651182 0
0 .4417682 0
.1175299 .4417742 0
.2938564 .4399535 0
.4396915 .4377285 0
.575403 .4326608 0
.6954228 .4267519 0
.8020286 .4232157 0
.903842 .4161146 0
.9938547 .4087329 0
0 .5691307 0
.09710746 .5688124 0
.2789149 .5678423 0
.4307791 .5653574 0
.5667624 .5623714 0
.6890212 .5570397 0
.7994166 .5521914 0
.9011987 .5464251 0
.9892731 .5426094 0
0 .6844094 0
.0278859 .6841306 0
.2589163 .6837316 0
.4166546 .6824467 0
.5537238 .6802016 0
.6788689 .6774129 0
.793713 .6741506 0
.8952813 .6706455 0
.9874361 .6669689 0
0 .7937472 0
0 .7936037 0
.2220223 .7931201 0
.3937575 .7926162 0
.5398727 .7912926 0
.6699578 .7885364 0
.7863663 .7861593 0
.8915603 .7831118 0
.9841577 .7800203 0
0 .8940227 0
0 .8938363 0
.178257 .8933235 0
.3741367 .8926924 0
.5227642 .8928477 0
.6593116 .8910459 0
.7815356 .888791 0
.8891945 .8877471 0
.9846228 .88556 0
0 .985707 0
0 .9856206 0
.0983418 .9856309 0
.3433732 .9858548 0
.506029 .9861572 0
.6506245 .985941 0
.7758671 .9846013 0
.884939 .9845136 0
.9859383 .9869013 0
.03819948 .01429432 .1619935
.1688271 0 .1639377
.310915 0 .1590948
.4523733 0 .1471995
.5817224 0 .1416141
.7023258 0 .1341438
.8117722 0 .1194547
.9120595 0 .1027457
.9999999 0 .07621748
0 .1604571 .1599776
.1606623 .1577756 .1580139
.3078088 .1507834 .1551363
.4506778 .1435014 .1457593
.5803984 .1272488 .138889
.7006137 .1211217 .127456
.8101767 .1098931 .1132589
.9113479 .09261469 .09607577
.9997455 .07888671 .06796543
0 .304515 .1368219
.1491447 .3046381 .1311512
.3108594 .3035314 .1265155
.449257 .2943837 .1251432
.5761633 .2865047 .1358939
.69706 .2824582 .1220101
.8063995 .2786333 .1032436
.9088637 .2696335 .08061091
.9980773 .2602858 .0473318
0 .4412208 .09657583
.09785771 .4413551 .09376357
.2877463 .4399958 .09846746
.4393169 .4385021 .1032521
.576551 .4322674 .08922491
.6946818 .425276 .1021339
.8020955 .4222951 .1011916
.904412 .4138035 .07163792
.9944016 .406589 .02997068
0 .5700115 .02461618
.05907317 .5695641 .02632348
.2695526 .5681402 .03505502
.4274764 .5655999 .05208699
.5672418 .5629025 .05908726
.6902775 .5567544 .05458583
.8004179 .5508278 .03129197
.9021053 .5447943 .00330524
.9899424 .5410308 .00199512
0 .6851199 0
0 .6849641 0
.2479551 .6841941 0
.4128283 .6827368 0
.5521796 .6808234 0
.6796432 .678194 0
.7950191 .6741257 0
.8969792 .6697478 0
.9888976 .6656006 0
0 .7944551 0
0 .7943065 0
.2076004 .793732 0
.3891129 .7928701 0
.5375494 .7914897 0
.6690536 .7891682 0
.7866742 .7868052 0
.8926654 .7834342 0
.9853998 .7799072 0
0 .8947555 0
0 .8945865 0
.1577411 .8940448 0
.3687672 .8930451 0
.5196877 .8930275 0
.6562834 .8920285 0
.7817593 .8893547 0
.8898609 .8882304 0
.9851045 .8860454 0
0 .9865772 0
0 .9865184 0
.03766929 .9865006 0
.3354696 .9864951 0
.5023417 .9863605 0
.6476172 .9867097 0
.7742477 .9856318 0
.8850271 .9853783 0
.9861235 .9870588 0
.00941912 0 .3075116
.1646765 0 .3083594
.3094541 0 .3078766
.4529828 0 .3008651
.5827645 0 .2909283
.7036946 0 .2849641
.8114988 0 .2784563
.9114478 0 .2709562
.9999999 0 .2579931
0 .1454998 .3082016
.1457387 .1394604 .3076253
.3104308 .131733 .3069555
.4516687 .1322988 .2971688
.5783767 .1260404 .2905847
.6999934 .1147758 .2839793
.8095906 .09970806 .2775052
.910464 .07101134 .2688364
.9999999 .02880584 .2547489
0 .300942 .3028361
.1341079 .2997137 .3021454
.2998681 .2973545 .2960416
.441637 .2934826 .2932101
.5730664 .285168 .2904779
.6955773 .278372 .2821327
.8058362 .2720809 .2713992
.9088734 .2596537 .2622295
.9990413 .2475403 .2491862
0 .4409271 .2806965
.05647634 .4400691 .2783809
.268706 .4385743 .2727436
.4375465 .4367989 .2683884
.57319 .4292839 .2676025
.6886501 .4257553 .2766944
.8014091 .4192888 .2652285
.9055427 .4085601 .2534305
.9965457 .3992315 .2403753
0 .5686788 .2522154
0 .5684398 .2499427
.2486321 .5675769 .2470653
.4210888 .5658423 .2483439
.5635533 .5633523 .2478575
.692707 .5545881 .2375597
.8023836 .5471994 .2430935
.9002529 .5450826 .2467816
.9914814 .5388248 .2341483
0 .6851272 .2210165
0 .6850574 .2186479
.2160722 .6849682 .2118571
.399515 .6834319 .2128994
.5488657 .6811168 .2161788
.6801133 .6789261 .2132194
.7982619 .6736411 .2096265
.9002962 .668395 .1952866
.9918938 .6615193 .1939155
0 .7949378 .1783058
0 .7949136 .1736327
.1703141 .7946957 .1645002
.3724018 .7934833 .1614824
.5311576 .7909944 .1699129
.6667228 .7894263 .1670312
.7875894 .7882609 .1701378
.8959743 .7833762 .1711822
.9896265 .7788427 .1489181
0 .8956349 .07527707
0 .8954566 .06651662
.1008374 .8951328 .04912517
.3491507 .8940987 .0475028
.5112168 .89365 .04867097
.6519636 .8927308 .06314081
.7790011 .8911192 .08989132
.8907936 .8896815 .1050844
.9858757 .8874419 .1014609
0 .9885302 0
0 .9885002 0
0 .9883924 0
.3124257 .9880291 0
.4907354 .9877324 0
.6417269 .9877557 0
.7700927 .9878134 0
.88318 .98765 0
.9873638 .9880295 0
0 0 .4474452
.1494736 0 .4470326
.2994665 0 .446368
.4488234 0 .4456434
.5822772 0 .4399872
.7022787 0 .4300875
.8115409 0 .4224803
.9119353 0 .4130326
.9999999 0 .4041598
0 .117602 .4472774
.1219876 .1117364 .4470866
.2952051 .1021583 .4475261
.4489369 .09314872 .4463859
.5806265 .09868511 .4382134
.7005686 .079948 .4278359
.809832 .0564852 .4207317
.91063 .01316965 .4120741
.9999999 0 .4032998
0 .2845099 .4459106
.07749414 .2825797 .4451875
.2790498 .2760012 .4432032
.4423512 .2716329 .4408049
.574608 .2759319 .4311532
.6941244 .2702348 .4236394
.8053882 .2624902 .4171845
.9085903 .2510208 .4098633
.9994366 .2334685 .4003907
0 .4372299 .4394405
.01784775 .437286 .4391605
.2624711 .4339035 .4364955
.4307745 .4258443 .4309944
.5640296 .4242675 .4261374
.6841214 .4211055 .4203651
.8001029 .4101236 .4143117
.9052008 .3992322 .4071773
.9970886 .3895023 .3954552
0 .5695639 .4163578
0 .5685262 .4145412
.2199491 .5663335 .4102412
.3964045 .5647284 .4053102
.5609233 .5614047 .4012376
.6877584 .5523227 .4008459
.794791 .5468979 .407864
.9003064 .5392804 .3968135
.9948068 .5310662 .3857274
0 .6854581 .3866347
0 .6851484 .3845261
.1600116 .684476 .3807967
.3759028 .6833968 .3766898
.539573 .6822272 .3740858
.6795865 .6789103 .3692584
.8002989 .6710016 .3633396
.9032108 .664175 .362545
.993604 .6592134 .364561
0 .795548 .3572782
0 .7953387 .3547354
.05782476 .7949535 .3508524
.3416635 .794391 .3445076
.5191588 .7927982 .3411345
.663092 .7909994 .3421485
.7889554 .7879931 .3426012
.9005259 .7823058 .3338901
.9945741 .776153 .3219562
0 .8965179 .31433
0 .8963953 .3127052
0 .8960906 .3086149
.3013922 .895466 .3029664
.4938426 .8945977 .3015378
.6457335 .8939078 .3024363
.7766224 .8920593 .3058301
.8911992 .8904143 .3085478
.9900466 .8869947 .3008551
0 .9897527 .2730329
0 .9898596 .270732
0 .9901704 .2645072
.2603171 .9904053 .2550319
.4693167 .9900407 .2514645
.6298769 .9894986 .2531986
.7646992 .9890934 .2520582
.8831596 .9887471 .2637104
.9891014 .9891786 .2687802
0 0 .5765428
.1315469 0 .576551
.2898363 0 .575913
.436087 0 .5756288
.5749931 0 .5738788
.6992627 0 .5699983
.8099432 0 .5601016
.9109204 0 .5508082
.9999999 0 .542519
0 .1022981 .5763875
.1173312 .09353895 .5763234
.2811089 .07438285 .5761318
.4325482 .05400553 .5753712
.5742712 .03615397 .5738847
.6997762 .03935837 .568148
.8096671 .00840144 .5585266
.9104805 0 .549067
.9999999 0 .5411129
0 .265845 .5736384
.03607236 .2630292 .5734503
.2632773 .2564945 .5732117
.4213218 .2501708 .5722783
.5711436 .2477325 .5706456
.698408 .2489495 .5643115
.8085017 .2410181 .5546135
.9091679 .2289479 .546222
.9996625 .2104138 .5384544
0 .4169728 .5713204
0 .4160517 .5704644
.2315808 .4128293 .5691248
.4095854 .4041694 .5668725
.5665428 .4017742 .5655175
.6925625 .4052115 .5554248
.801659 .4011014 .5473346
.9053065 .3904947 .5394756
.997595 .3803762 .5324197
0 .5636523 .5632854
0 .5632057 .5630142
.2027888 .5622271 .5620834
.3941979 .5571744 .5587138
.5523764 .5477858 .5533193
.6775771 .5460285 .5486888
.7910986 .5425569 .5425523
.8971482 .535998 .5370454
.9924855 .5268082 .5288746
0 .6869295 .5411541
0 .686368 .539898
.1212863 .6845474 .5368974
.3569725 .6814001 .5322616
.5217102 .679169 .5255678
.6756232 .6761136 .5231838
.7952713 .6675174 .5198608
.8963971 .6627652 .5271121
.9898227 .6568548 .520685
0 .7966413 .5124899
0 .7963126 .5102889
0 .7954828 .5059404
.3054118 .7938609 .5016507
.4941558 .7919572 .4988191
.652051 .7906388 .496855
.7875943 .7872379 .4934936
.9016877 .780636 .4874328
.9950047 .7738708 .4813531
0 .8972436 .4852936
0 .8971507 .4843502
0 .8967594 .4810603
.2585149 .8961225 .4759945
.4669369 .8948855 .4732292
.6351723 .8938277 .4703876
.773521 .8931811 .466842
.890871 .8913842 .4680141
.9927991 .8873878 .4610264
0 .9910725 .453724
0 .9911124 .4520808
0 .9912682 .4490688
.1961538 .9916082 .4449915
.4402496 .9919638 .4384439
.6127927 .9910265 .4363194
.7592317 .9900194 .4397392
.8842734 .9902365 .4421603
.9910288 .9908817 .4439206
0 0 .693556
.1200621 0 .6935728
.2787192 0 .6933633
.4204709 0 .6928159
.5619767 0 .6915165
.69356 0 .6890302
.8065736 0 .6868101
.9092712 0 .6808679
.9992798 0 .6738169
0 .07491227 .6929827
.09496813 .06168653 .6930307
.2708469 .03264775 .6930202
.4175521 0 .692787
.5600891 0 .6918392
.6921792 0 .6899718
.8073341 0 .6868249
.9090129 0 .6799979
.9996442 0 .6721365
0 .2524125 .6910067
0 .2490373 .6908254
.246011 .2403779 .6911063
.4094312 .2327625 .6915592
.5552322 .2270506 .6912784
.691504 .2208484 .6897952
.8080996 .2124433 .6852441
.9089926 .2075714 .6762949
.9999999 .1757107 .6688734
0 .4004104 .689813
0 .399124 .6898125
.2038002 .3928263 .6893517
.3882582 .3836258 .6894954
.5431364 .3783112 .6892657
.6877423 .3746431 .6870654
.8077891 .3755108 .6802799
.9073801 .3743532 .6706591
.9994068 .3629144 .6617671
0 .5435237 .6868431
0 .5420989 .6866589
.1440907 .5391527 .6856402
.3602729 .5336655 .6834384
.5262143 .5281964 .681585
.6785514 .526426 .6807496
.798319 .5266437 .6723084
.9011862 .5231509 .6623644
.9948847 .5169914 .6560212
0 .6791776 .6792841
0 .6790323 .6793228
.06897274 .6784126 .6791928
.3431467 .6765922 .6779103
.5160549 .6716266 .6748953
.667373 .6641221 .6689008
.7851993 .6626185 .664349
.8944297 .6584302 .6586772
.98961 .6521839 .6528856
0 .7963074 .662362
0 .7963326 .6611562
0 .795211 .6588929
.2984766 .7928246 .6538685
.4858791 .7895588 .6492096
.6434611 .7861132 .6439592
.7852029 .7843173 .6400228
.8990557 .7780366 .6371351
.9892114 .7732417 .6437106
0 .8977175 .6367619
0 .8974758 .6353655
0 .8970098 .6325081
.2102537 .8961282 .6281317
.4494493 .8948284 .6239513
.6223704 .8933665 .6213899
.7679849 .8921229 .6193913
.8912746 .8904964 .6194322
.9961265 .8853964 .6113296
0 .9913128 .6132078
0 .991322 .6121097
0 .991393 .6091474
.0643736 .9918725 .6036514
.4074761 .9922124 .5976537
.5972381 .9910426 .5957455
.7498763 .9914131 .5965328
.881772 .9919484 .5988618
.9913802 .9931765 .5982981
0 0 .8023899
.09632974 0 .8023477
.2656064 0 .80209
.4135647 0 .8013596
.5497859 0 .8009086
.6815574 0 .8000627
.796996 0 .7974724
.9028639 0 .7932312
.9969758 0 .7896568
0 .01715472 .8017232
.05716541 0 .8018025
.2566536 0 .8019015
.4089809 0 .8016435
.5472926 0 .8009859
.6795434 0 .799817
.7968045 0 .7975058
.90413 0 .7931361
.9985375 0 .7893009
0 .2335871 .8011982
0 .2298318 .8012626
.2256246 .2201103 .8013416
.3904064 .209927 .8011811
.540077 .1972196 .8002777
.6744558 .1836122 .7995964
.7968776 .1845909 .7971153
.9063179 .1669251 .7929695
.9999999 .1394434 .7888985
0 .3813667 .8005948
0 .3786975 .8006037
.1698982 .3721462 .8004504
.3704609 .3621745 .800457
.5280498 .3540335 .7999439
.6681411 .3511662 .7991713
.7970691 .3479369 .7965691
.9089798 .3405951 .7933986
.9999999 .3348462 .785346
0 .5231065 .7976103
0 .5215523 .7976308
.05304772 .5177978 .7973256
.3404295 .5102913 .7962868
.5058052 .50578 .7967513
.6560404 .5039471 .7960253
.7929205 .503125 .7943065
.9077852 .5003873 .7889082
.9999999 .4965849 .7802921
0 .6619028 .7938587
0 .661054 .7938418
0 .6593431 .7935379
.2965748 .6572419 .7928425
.486688 .6525348 .7909276
.6472905 .6470554 .7892826
.7887619 .6448548 .7881703
.9003649 .6443593 .7812148
.9931228 .64025 .7751428
0 .7890144 .7883202
0 .7889016 .7882282
0 .7885497 .7880142
.2733865 .7878076 .78723
.475425 .785787 .7852044
.6362015 .78197 .7818925
.7792875 .7758436 .778486
.8889101 .7743229 .7762604
.9868209 .7709113 .7734616
0 .8969654 .7755641
0 .8970103 .7752022
0 .8967385 .7739094
.2090474 .8962572 .7713328
.4450871 .8944968 .7686213
.6126736 .8922219 .7647814
.760042 .8894865 .7605557
.8895498 .8880346 .7598175
.9945891 .8823475 .7532923
0 .9930635 .7576914
0 .9930491 .7569437
0 .9930295 .7552602
0 .9930202 .7528089
.3913358 .9922683 .7494685
.5821084 .9912912 .744126
.7413268 .9930524 .741931
.8787111 .9925309 .7447086
.993872 .9940196 .7453876
0 0 .9018497
.04865655 0 .9018583
.2506035 0 .9015914
.4008476 0 .9011219
.5391821 0 .9001459
.6686663 0 .8996308
.7891865 0 .8982236
.8973026 0 .8965135
.9900394 0 .8948327
0 0 .901145
.00101498 0 .9012829
.2419715 0 .901297
.3946458 0 .9007282
.5354654 0 .9002187
.6661631 0 .8996389
.7877587 0 .8985723
.8974451 0 .8968604
.9908307 0 .8950468
0 .2120792 .90108
0 .2078806 .9011955
.2080672 .1970012 .9013472
.3779066 .181104 .9012811
.5266487 .1602552 .9008082
.659796 .140099 .900258
.7851333 .1238904 .8993853
.8982451 .1220728 .8978655
.9935121 .08964845 .8957607
0 .3627391 .9010167
0 .3601695 .9010473
.1264317 .3541259 .9010857
.350786 .3441556 .9005381
.5117223 .3336595 .9004849
.6508685 .324636 .9002626
.7817188 .3189554 .8996561
.8989423 .3153805 .8984883
.9975244 .3077085 .8958911
0 .505925 .8989879
0 .5044585 .8989145
0 .500666 .8987468
.3043161 .4938475 .8990116
.4885539 .4866072 .8993162
.640512 .4820737 .8991499
.7772487 .4796311 .899121
.89628 .4765122 .8977914
.9987872 .4702656 .8953443
0 .6429159 .8978071
0 .6417164 .8979113
0 .6401137 .8978517
.2492239 .6366377 .8975731
.4605195 .6312993 .8966814
.6247962 .6276391 .8970295
.7691231 .6251466 .8963989
.8939258 .6246468 .8947591
.9972491 .6220722 .8918868
0 .7736861 .8952293
0 .7733323 .8952473
0 .7723956 .8952937
.2171629 .7700738 .8953987
.4416438 .7675528 .8953261
.6127303 .7641141 .8931925
.7583295 .7609007 .8919228
.8894933 .7599969 .8910087
.9923827 .7609928 .8864446
0 .8907316 .8925803
0 .8907458 .8926583
0 .8907836 .8928823
.1812411 .8907206 .8933873
.4334373 .8901446 .8923484
.6058539 .8888219 .8897039
.7487983 .8876055 .8879996
.8835933 .883128 .8860021
.9878728 .8854984 .8845463
0 .9925905 .8855017
0 .992699 .8851528
0 .9930748 .8847257
.01087216 .9931799 .8833722
.400696 .993027 .8811586
.5850472 .9930722 .8807454
.7403883 .9921663 .8794168
.877567 .9927682 .8799877
.9999999 .9940628 .8857199
0 0 .9911241
0 0 .9910552
.2289197 0 .9907691
.3869698 0 .9906428
.5312883 0 .9899266
.6593361 0 .989808
.7820759 0 .9890243
.8930754 0 .9882163
.9873279 0 .9878512
0 0 .9912462
0 0 .991125
.2223871 0 .9908549
.3807198 0 .9905345
.5271285 0 .9897041
.6558731 0 .9900993
.779918 0 .9894728
.892086 0 .9889213
.9874393 0 .98852
0 .1757161 .9906406
0 .1691375 .9905617
.188036 .1527905 .9906878
.3622063 .1354059 .9907492
.5133146 .1087412 .9904235
.6487085 .05864011 .9909341
.7760986 .00280808 .9906715
.8897164 0 .9904737
.9883111 0 .9899234
0 .3374722 .9914542
0 .3338237 .9915367
.06791644 .3259827 .991653
.329087 .3143595 .9915388
.4898525 .3014326 .9918198
.6409665 .2900657 .9922513
.7705055 .2834632 .9919931
.8869698 .2777335 .9917209
.990441 .2765985 .9913077
0 .4859095 .9912248
0 .4838102 .9913352
0 .478516 .9914812
.2697658 .4691521 .991767
.4661407 .4611744 .9922656
.6264718 .4536036 .9926756
.7625802 .4496806 .9930053
.885061 .4484727 .9927184
.9901035 .4475868 .9924039
0 .6251234 .9903333
0 .6241692 .9904363
0 .6208059 .9906515
.1903726 .6154343 .9910577
.436389 .6088063 .9918855
.606377 .6034418 .9923697
.7525409 .6001675 .9925341
.8814887 .6014526 .9923018
.9905534 .6014559 .9927371
0 .7570182 .9908274
0 .7564328 .9908498
0 .7551746 .990841
.07344585 .7531149 .9907808
.4068554 .7482918 .9907202
.5888337 .7450221 .991005
.7418487 .7423989 .9913622
.8760921 .7406463 .9915252
.9922217 .7423901 .9925033
0 .8805777 .9900509
0 .8804596 .990086
0 .8801478 .9901806
0 .879615 .9903454
.3889934 .8790968 .9908388
.5807117 .8760756 .9920407
.7369129 .8745685 .9918788
.8714465 .8752345 .9922488
.9938995 .8768136 .9929295
0 .9915841 .9917685
0 .9917938 .9918997
0 .9921704 .9919996
0 .9928557 .9925926
.3820696 .9938448 .9927492
.5809614 .9945702 .9927149
.7431177 .9942653 .9936442
.8822471 .9970973 .9968407
.9999999 .9982253 .9996616
