luts/Timeless 43.cube
# 3D LUT of size 33x33x33 converted by Filestar.
#   Input:
#     color space: sRGB
#     white point: default (D65)
#     transfer function: default (sRGB)
#   Output:
#     color space: sRGB
#     white point: default (D65)
#     transfer function: default (sRGB)
#   Contrast: -30
#   Whites: +16
#   Blacks: +16
#   Vibrance: +18
#   Saturation: +21
LUT_3D_SIZE 5
.03096774 .04123139 .09344283
.2874596 0 0
.5558521 0 0
.822892 0 0
.9999999 0 0
0 .2876532 0
.2603221 .2799902 0
.5423985 .2716698 0
.8140266 .2442152 0
.9999999 .1924177 0
0 .5573865 0
.1807899 .5557036 0
.5095258 .5482036 0
.7917053 .5303273 0
.9999999 .5002671 0
0 .8150445 0
0 .8138106 0
.4486006 .8092862 0
.7508401 .8013623 0
.9999999 .7796321 0
0 .9999999 0
0 .9999999 0
.03885448 .9999999 0
.6492051 .9999999 0
.9874924 .9999999 0
0 .00414593 .3062554
.29503 0 .2992254
.5611227 0 .2664367
.8271068 0 .2268701
.9999999 0 .1406287
0 .2834538 .2769089
.2576272 .2725332 .2653373
.5444742 .2547333 .2413935
.8194466 .2046624 .1957802
.9999999 .09678639 .05883671
0 .5600801 .1627545
.1093558 .5577528 .1471742
.5078102 .5473154 .1164219
.7979797 .5215865 .04390536
.9999999 .4818113 0
0 .8175941 0
0 .816177 0
.4232167 .8121558 0
.7506596 .8042381 0
.9999999 .778073 0
0 .9999999 0
0 .9999999 0
0 .9999999 0
.6391536 .9999999 0
.9893134 .9999999 0
0 0 .5897332
.2651857 0 .5875516
.5595772 0 .5793894
.8254362 0 .5517156
.9999999 0 .5052478
0 .2582106 .5796983
.2124755 .2524866 .5767303
.5457554 .2190307 .5670867
.8169991 .1774942 .5365314
.9999999 .04956301 .4954197
0 .5557112 .538689
.04703957 .5519497 .5354549
.495111 .5392736 .5230651
.7900414 .5178168 .5024394
.9999999 .468147 .4562593
0 .8166115 .4383633
0 .8152311 .4299867
.3746806 .8121137 .407805
.7562181 .8001919 .3710566
.9999999 .7648353 .2590353
0 .9999999 0
0 .9999999 0
0 .9999999 0
.5989681 .9999999 0
.9913308 .9999999 0
0 0 .8363383
.2464173 0 .8350664
.5274248 0 .8332518
.8044434 0 .8288221
.9999999 0 .805535
0 .2355673 .8320459
.1996677 .2252018 .8311498
.5153542 .1896476 .8290761
.7992637 .1103358 .8262655
.9999999 0 .7997505
0 .5201345 .8207971
0 .5170662 .8193963
.4752759 .508357 .8175209
.7872747 .4867464 .811057
.9999999 .4587135 .7859333
0 .8104776 .7944096
0 .8103056 .7926988
.3653194 .8067207 .7868329
.739868 .7943572 .7734829
.9999999 .7705817 .7512818
0 .9999999 .6705662
0 .9999999 .6658425
0 .9999999 .651649
.6015003 .9999999 .6268802
.9878456 .9999999 .5690435
0 0 .9999999
.2626266 0 .9999999
.5008981 0 .9999999
.7577062 0 .9999999
.9999999 0 .9999999
0 .2222986 .9999999
.2240285 .2153773 .9999999
.4914324 .1898053 .9999999
.751667 .099957 .9999999
.9999999 0 .9999999
0 .4904928 .9999999
.02007514 .4896691 .9999999
.4659143 .487445 .9999999
.7420564 .4726892 .9999999
.9999999 .4041854 .9999999
0 .7601435 .9999999
0 .7605234 .9999999
.4010932 .7633587 .9999999
.7227254 .771143 .9999999
.9999999 .7552139 .9999999
0 .9999999 .9999999
0 .9999999 .9999999
0 .9999999 .9999999
.6618328 .9999999 .9999999
.9849152 .9999999 .9925317
