luts/Timeless_32.cube
# 3D LUT of size 33x33x33 converted by Filestar.
#   Input:
#     color space: sRGB
#     white point: default (D65)
#     transfer function: default (sRGB)
#   Output:
#     color space: sRGB
#     white point: default (D65)
#     transfer function: default (sRGB)
#   Exposure: +0.25
#   Whites: -18
#   Vibrance: -10
#   Saturation: -11
LUT_3D_SIZE 33
.0495285 .00320076 0
.06784283 .00218662 0
.08673187 .0005469 0
.1148177 0 0
.1456096 0 0
.1793351 0 .00414771
.213668 0 .00371172
.2462172 0 .00439879
.2756706 .0053868 .00559394
.3055174 .01024871 .00865946
.3356337 .0157314 .01137744
.3656171 .02248486 .01550379
.3936624 .03875365 .0245204
.4229848 .05086206 .02967783
.45235 .06058253 .03805582
.4814711 .0699699 .0464421
.5100423 .08061823 .06196884
.5385919 .09105084 .07725791
.5669652 .1018218 .08954021
.594979 .1109054 .09966909
.6235792 .1202062 .1067087
.6524217 .1286661 .1152552
.6808875 .1362002 .1231432
.7087957 .1428968 .1329966
.7363538 .1501699 .1435462
.7636448 .1578095 .1519184
.7903873 .1650651 .1599439
.8169062 .1711104 .1670171
.8435402 .1762939 .1736161
.8693617 .1821707 .1810996
.8941882 .1903922 .1899729
.9186622 .1994793 .1994704
.9408095 .2081091 .2069877
.04811746 .03070519 0
.07016198 .03218056 0
.09024329 .03629274 0
.1193298 .03304033 0
.1502157 .02810817 .00203026
.1804535 .03050145 .00395164
.2131754 .03491731 .00745565
.2439426 .04203091 .00936656
.2735601 .04779207 .01021968
.3037384 .05170284 .01335829
.3344174 .05469863 .01691656
.364747 .06101583 .02283415
.3935862 .06872883 .02847794
.4227966 .07718674 .03486847
.4521943 .0843742 .04278227
.4813268 .09173938 .05065989
.5098617 .1003131 .06544634
.5383931 .1098932 .0794247
.5668572 .11842 .09284744
.5949111 .1270022 .1026523
.6234397 .1351347 .1094719
.6523641 .1424639 .1178363
.680833 .1493015 .1255682
.7087677 .1558804 .134112
.7362869 .1622374 .1456201
.7635843 .1693371 .1538902
.7903298 .1760598 .1617962
.8167895 .1817217 .1687703
.8434195 .1866169 .1753372
.8692371 .1921967 .1827831
.8940977 .200233 .1914852
.9186338 .2088622 .2008819
.9408 .2171371 .2083389
.05052686 .06440502 0
.07687172 .06362236 0
.1005027 .06231765 .00025502
.1241366 .06620514 .00257364
.1534286 .06496082 .00641543
.1808074 .07021836 .01004106
.2119743 .07336687 .01360314
.242373 .07659281 .01542002
.2725773 .07953501 .01650618
.3032618 .08100649 .01932464
.3338848 .08413465 .02302708
.3643104 .08827394 .02738393
.3932786 .09396899 .03305691
.4225694 .1000179 .04053648
.452018 .1057741 .0477681
.4811648 .1118651 .05517437
.5097293 .1191622 .06944719
.5382872 .1273368 .08269756
.5666852 .1353275 .09580446
.5948341 .1430728 .1059281
.6232595 .1500499 .112487
.6522989 .1565849 .1206892
.6807587 .162859 .1282818
.7087142 .169222 .1357879
.7362114 .1748314 .1479284
.7635159 .181436 .1560876
.7902938 .1875449 .1638155
.8166574 .1929613 .170728
.8432832 .1975836 .1772599
.8691145 .2030812 .1845017
.8940246 .2106944 .1930773
.918604 .2189271 .2024595
.9408069 .2268598 .2098897
.05613264 .09921647 .00672647
.08404187 .09842474 .00716894
.1062467 .09804825 .00910476
.1319776 .09753563 .01195399
.1563954 .1012346 .01541532
.1837896 .1027784 .01928185
.2115238 .1059184 .02182469
.2419028 .1072321 .02093649
.2721115 .1097991 .02182171
.3026329 .1120229 .02575551
.333295 .1144873 .02968782
.3631915 .1179304 .03575839
.3928379 .1220994 .03961148
.4223139 .1262049 .04742671
.4517776 .1308319 .05440053
.481077 .1359746 .06211163
.5095324 .1419657 .07484072
.538115 .1489156 .08756182
.5664995 .155983 .09991964
.5946573 .162989 .110103
.6231719 .1690246 .1168316
.6521879 .174809 .1246998
.6806228 .180517 .1321346
.7085958 .1862583 .1394492
.7361033 .1913316 .1511687
.7634183 .1973778 .1591775
.7902421 .202767 .1666604
.8165144 .2078595 .1734525
.8431834 .2121068 .1796038
.8689874 .2175852 .1867359
.8939203 .2247329 .1953305
.9185575 .2325092 .2046402
.9407902 .2395616 .2120191
.07039344 .1306466 .01068749
.09467406 .1302212 .01116487
.1152935 .1298911 .01288986
.1380196 .1296927 .01672862
.162978 .1299067 .02080433
.1862718 .1341853 .02564513
.2131178 .1362756 .02835657
.241416 .1396905 .02891578
.2713982 .142064 .03048792
.3018009 .1440026 .03452087
.3324068 .1461322 .03852678
.3624182 .1489088 .04433607
.3922933 .1521269 .04796283
.4221474 .1550358 .05537483
.4516523 .1586089 .06303243
.4810022 .1628337 .07070943
.5092627 .167671 .08158761
.5378841 .1735835 .0937345
.5662521 .1795725 .1052841
.5943657 .185673 .1146033
.6230171 .1916322 .1222756
.6519952 .1965552 .1299739
.6804403 .2016014 .137127
.7084438 .2067385 .1442144
.735966 .2112708 .1554083
.7633386 .2165891 .1631248
.7902802 .2212139 .1700173
.8166152 .225774 .1763586
.8430539 .2302783 .1824685
.8688171 .2354642 .189684
.8937805 .2421162 .1983049
.9185247 .2494892 .2074687
.9407543 .2554238 .2149059
.08010737 .1645891 .01912136
.1000982 .1646532 .02144966
.118374 .164513 .02383704
.1407313 .1642663 .02732342
.1652876 .1642792 .03155604
.1903228 .165186 .03592141
.2148904 .1680889 .03815032
.2432642 .17019 .03900558
.2730224 .1720578 .04047454
.3030915 .17403 .04451153
.3331606 .176483 .04836402
.3630726 .1785964 .05324886
.3926523 .181246 .05651447
.4223462 .1840725 .0640718
.4517519 .1871016 .07224915
.4806358 .191083 .08087394
.5088704 .1953734 .08974486
.5374995 .2002724 .101102
.5658753 .205287 .1116075
.5940439 .2105295 .1204942
.6228974 .2159575 .1286052
.6517812 .2206886 .1358941
.6802417 .2252382 .1431707
.7083556 .2297657 .1497558
.7360577 .2337704 .1595121
.7635355 .2381086 .1670647
.7904453 .2422877 .1737493
.8166914 .246957 .1798714
.842889 .2512667 .1860421
.8686006 .2561783 .1933614
.8936028 .262345 .202017
.9184956 .2689439 .2109671
.940679 .2738142 .2184424
.08710542 .1964413 .03110961
.10529 .1964861 .03276507
.1228192 .1965146 .03455642
.1441848 .1964027 .03719003
.1668082 .1968399 .04073015
.1915905 .1975716 .04417723
.218363 .1985259 .0469339
.2463999 .2008409 .04973079
.2751502 .2025245 .05145407
.3048752 .2042681 .05479879
.3347575 .2064848 .05806106
.3642269 .2083628 .06222985
.3936918 .2106066 .06511755
.4236059 .2124712 .07271022
.4530825 .2146548 .08087938
.4815758 .2174872 .08898326
.509671 .221135 .09696823
.5378841 .2262262 .1080577
.5657703 .2317393 .1183434
.5941783 .236808 .127371
.6228598 .2413781 .1351729
.6517921 .2457159 .1413852
.6803939 .2498382 .1483736
.7086574 .2541583 .1552709
.7364857 .2584477 .1618542
.7637513 .2619493 .1717365
.7905633 .266136 .1780574
.8168045 .2703345 .1840263
.8426872 .274512 .1903213
.8683354 .2791831 .1977653
.8934578 .2849672 .2064791
.9184647 .290213 .2148078
.9406075 .2947215 .2223441
.09188319 .2281058 .04295877
.1092976 .2280757 .04449967
.1263015 .228039 .04610111
.1462993 .228484 .04822767
.1685034 .2294479 .05133228
.192981 .2305287 .05405537
.2197892 .2313893 .05670196
.2476506 .2324052 .05967931
.2779219 .2343367 .06244995
.3059555 .2368842 .0647117
.3353452 .2381899 .0682748
.3647084 .2398367 .0714406
.3947919 .2411212 .07494771
.4246937 .2420783 .08156752
.4542056 .2429981 .08996245
.4828177 .2447405 .09693149
.5107796 .2480347 .104078
.5390108 .2524414 .1139125
.566864 .2574487 .1229733
.5952689 .26261 .1323968
.623276 .267531 .1409972
.6519972 .2717322 .1469147
.6805493 .2755969 .1538337
.7088974 .2795156 .1608097
.7367123 .2838042 .167729
.7639028 .287635 .1769206
.7906981 .291552 .1827945
.8169524 .2955022 .1884748
.842527 .2996815 .1947806
.8680747 .3039203 .2020296
.8934146 .3088179 .2107151
.9184015 .313541 .2189966
.9405149 .3177969 .2265967
.09419247 .2605056 .05601379
.1109098 .2606106 .05718026
.1267873 .2609216 .05844149
.1465985 .2613716 .06015265
.1697651 .2619702 .06206279
.195361 .262669 .06354326
.2224295 .2635221 .06532178
.2495013 .2650481 .06828687
.2778577 .2664202 .07129826
.3080293 .2683544 .07477426
.335062 .2709735 .07806385
.364644 .2718513 .08032652
.3947018 .2727009 .08373509
.4244715 .2735366 .09048619
.4536139 .2740852 .09868098
.4833385 .2737454 .1054324
.511993 .2760692 .1113469
.5402409 .2797522 .1196162
.5684821 .2842045 .1282493
.5967776 .2889187 .1371885
.6244684 .2936327 .1453212
.6524106 .2983835 .1518281
.6809703 .3022254 .1584259
.7092264 .3063025 .1652682
.7369834 .3104517 .1720443
.7642184 .3145776 .178792
.7908762 .317777 .1875559
.8171108 .3215051 .1928503
.8426369 .3251766 .1991493
.8679325 .3296492 .2071502
.8933789 .3341094 .2155203
.9183065 .3384517 .2239013
.9403797 .3425249 .2316663
.1027279 .2936067 .06878057
.1167739 .2937426 .06960463
.1310991 .2939163 .07062159
.1494899 .2941719 .0719336
.1725244 .2946047 .07307655
.1977448 .2951804 .07447999
.2241912 .2958974 .07610106
.2517215 .2967491 .07799631
.2790075 .2982327 .07988172
.3067545 .3006188 .08282297
.3366043 .3024632 .08712473
.3644181 .304779 .08912704
.3949403 .3049266 .09304494
.4247397 .3055812 .09940626
.4540348 .3052895 .1070415
.4839059 .3047409 .1133999
.5132589 .3058825 .1188999
.5419055 .3086697 .1251377
.570223 .3124501 .1329091
.5983348 .3166369 .1413678
.6258919 .3208516 .1491621
.6532721 .3255744 .1561626
.6814536 .3300815 .1630425
.7096851 .3337563 .1696901
.7374198 .337506 .1762865
.7646117 .3412073 .1825491
.7912105 .3440076 .1907339
.8174588 .3472016 .1967682
.8429573 .3511132 .2044025
.8678431 .3562107 .2127112
.8932558 .3605709 .2212163
.9181975 .3645306 .229379
.9404287 .3686402 .237553
.1201529 .3267899 .08401655
.1333081 .3269982 .08470609
.1460643 .3271314 .08510182
.1622526 .3272654 .08548676
.1815957 .3274446 .08599972
.2033745 .3276725 .08664963
.227362 .3280133 .08753046
.2544415 .3287553 .08918568
.2813344 .3300777 .09090915
.3075315 .3317446 .09352928
.3365347 .3335805 .09547428
.3669309 .3359504 .1001326
.3956633 .3378382 .1041556
.4247384 .3376377 .1103619
.4545386 .337106 .1164416
.4844821 .3367814 .122198
.5142876 .3368146 .127488
.5430903 .3389571 .1321725
.5719543 .3418982 .1392137
.5998777 .345386 .1466378
.6273291 .3492681 .1537282
.6545419 .3532999 .1609233
.6824201 .3576546 .1674682
.7102253 .361642 .1744317
.7379563 .3648793 .1806419
.765087 .3681642 .1865802
.7916907 .3712104 .1921347
.8179516 .3739495 .2003741
.8433219 .3778409 .2083451
.8683054 .3823761 .2179843
.8933573 .3865047 .2271335
.9182709 .3905163 .2352108
.9404434 .3949095 .243314
.134095 .3590077 .09909909
.1458713 .3591616 .09924731
.15811 .3593354 .09941468
.1740809 .3595841 .09965391
.1932966 .3599169 .0999734
.2149233 .3603195 .1003878
.237176 .3606062 .1009917
.2605416 .3609997 .1014771
.2838448 .3617185 .1029267
.3102573 .3629738 .1057869
.3372258 .364464 .1096507
.3672595 .3663342 .1137668
.3986039 .3677625 .1171865
.4259922 .3692055 .1214956
.4550112 .3691098 .1267812
.4849479 .3690769 .1316586
.5148543 .3690133 .1356994
.5441026 .3696736 .1396582
.5730897 .3721804 .1460556
.6013864 .3750757 .1524835
.6287764 .3784649 .1592374
.6560794 .3820344 .1663118
.6834676 .3857446 .1726571
.7112074 .3892695 .1791473
.7385367 .3927811 .185359
.7656164 .3956637 .1909695
.7922517 .3986358 .196556
.8186032 .4015638 .2029378
.8438143 .4052963 .2133296
.868779 .4094614 .2228876
.8933655 .4135785 .2321235
.9185582 .4172916 .2402207
.9406194 .4214074 .2486509
.1478057 .390888 .1132154
.1588096 .3909785 .1134156
.170251 .3911022 .1136103
.18512 .3913263 .1138223
.2032146 .3916265 .1141045
.2235253 .3919845 .1143106
.2458122 .3924015 .1149018
.269267 .3930293 .1161257
.2924643 .3937921 .1189125
.3161981 .3946864 .121543
.340986 .3957507 .1245536
.3676571 .3970616 .1287473
.3978148 .398017 .1323344
.4281777 .3987444 .1352837
.4567353 .4000381 .1390002
.4856378 .4007385 .1420262
.5154648 .4005941 .1456093
.5449712 .4004869 .1493472
.573918 .4022512 .1541239
.6025211 .4046359 .1599098
.6305243 .407345 .1663784
.657776 .4106488 .1729814
.6846861 .4140554 .1795651
.7122527 .4174312 .1851203
.7394194 .4207866 .1909191
.7660548 .4242281 .1965771
.7929334 .4268703 .2018246
.8190064 .4297638 .2080149
.8443816 .4333789 .2188022
.8693085 .4373463 .2274647
.8939782 .4414168 .2360362
.9185578 .4450887 .2440049
.9406614 .4493333 .2531303
.1569518 .423173 .1272916
.1670796 .4232282 .1276132
.1777965 .4232906 .1279764
.1920403 .4233807 .128502
.209525 .423505 .1292386
.2296508 .4236631 .1301687
.2514829 .4239455 .1315652
.2747131 .4243127 .1335487
.2982793 .4251437 .1354594
.322646 .4261377 .1376607
.3474068 .4269529 .1403567
.3723949 .4275624 .1431443
.398848 .428257 .1455026
.4291193 .4286822 .1483741
.4594094 .4297674 .150947
.4882465 .430807 .1533286
.5164657 .431501 .1558969
.5454637 .4315643 .1588564
.5746661 .4322602 .1627669
.6034917 .4344057 .1681074
.6318427 .4367949 .1739984
.6596251 .4393571 .180151
.686447 .4424971 .1862671
.7134145 .4457608 .1919057
.740479 .4489548 .1973187
.7672927 .4523482 .2028429
.7937357 .4557188 .2077623
.8192886 .4594833 .2149544
.8447298 .4632624 .2229509
.869791 .4668406 .2327894
.8942785 .470111 .2405866
.9181657 .4739841 .2497539
.9402082 .4778506 .2590865
.1642951 .4549083 .143187
.1739794 .4549525 .1434663
.1842746 .4550026 .1437811
.1980106 .455074 .14423
.2149161 .4551697 .1448299
.2341649 .45525 .1461559
.2558492 .455407 .147329
.279197 .4555954 .1487124
.3029478 .4558458 .1504834
.3277388 .4560896 .1527028
.3526829 .456628 .1552127
.3779255 .4573554 .1577425
.4037948 .4580579 .1597025
.4311779 .4586236 .16007
.4614658 .4595165 .161887
.4911077 .4605302 .1647276
.519549 .4616131 .1671723
.5469516 .4623513 .1688036
.5754694 .462833 .1715783
.6046796 .4643736 .1763528
.6332112 .4665973 .1814923
.6610246 .4689869 .1871715
.6884691 .4714613 .1928068
.7148023 .474524 .1981706
.7417831 .4775932 .2025984
.7685912 .4808671 .2075203
.7946937 .4844878 .2135135
.8201752 .4882065 .221696
.84518 .4919409 .2298217
.8702116 .4953984 .2371648
.894685 .4982064 .245885
.918633 .5019962 .2555597
.9402151 .5057018 .2646958
.1716914 .486132 .1582278
.1810086 .4861698 .1585019
.1909516 .4862126 .1588114
.2039612 .4862344 .159748
.2206376 .4862646 .160533
.2396734 .4863744 .1614125
.260636 .4863521 .1625273
.283688 .4862701 .1636804
.3074726 .4863216 .1650631
.3322939 .4863804 .166633
.3573627 .4867095 .1689032
.3830414 .4871644 .1714366
.4090356 .4878876 .1728604
.4360978 .4887767 .1727513
.464219 .4894763 .1728088
.4937773 .4905838 .1753112
.5222599 .4914392 .1776055
.5501031 .4928281 .1801142
.5780089 .4936327 .1815547
.6065012 .4946876 .1847178
.6348897 .4965409 .1884878
.6624891 .4987122 .192997
.6897078 .5010045 .1978465
.716516 .5033847 .202554
.743141 .5064242 .2077092
.769478 .5094898 .2131073
.7952712 .5133812 .2215641
.8205885 .5168394 .2296891
.8458954 .5200482 .2370005
.8708372 .5230581 .2438615
.8953611 .526148 .2511726
.9193311 .5297342 .2612235
.9401747 .5331872 .2714414
.1783785 .51741 .1733121
.1874366 .5174113 .1736323
.1971241 .517395 .173976
.2101347 .5173509 .1744457
.2262723 .5172917 .1750731
.2450825 .5172166 .1758664
.2660865 .5171245 .1768337
.2886136 .5170586 .1779431
.3119585 .5171061 .1792098
.3365356 .5171591 .1805553
.3624093 .5172142 .1817319
.3884515 .5176235 .1833268
.4147729 .5181019 .1847429
.4411596 .51893 .1852169
.4685081 .5196574 .185234
.496493 .520629 .1861685
.5252756 .5217306 .1875596
.5534847 .5227804 .1892659
.5812311 .5241812 .190935
.608787 .5250084 .1919734
.6369415 .5261456 .1948899
.6644279 .528181 .1989193
.691169 .5303355 .2037452
.7176453 .5327355 .2092302
.7437389 .5351296 .214718
.770139 .5382872 .2214599
.7958305 .5418435 .2296538
.8215037 .5450579 .2371759
.8468709 .5479957 .2436394
.8719909 .5508275 .2498262
.8963364 .5538669 .2574824
.9199406 .5576135 .2678332
.9408769 .5609767 .2778219
.1906679 .5471931 .1879759
.198892 .5472179 .1881913
.2077577 .547246 .1884342
.2197216 .547307 .1887732
.2346711 .5473967 .1892233
.2522424 .5475106 .1897934
.2720166 .5476164 .190451
.293891 .5476936 .1909281
.3170983 .547779 .1916009
.3417245 .5478153 .1924562
.3673421 .5479754 .1930176
.3935591 .5481712 .1933848
.4193877 .5485088 .1942672
.4453863 .5489517 .195349
.471914 .5494469 .1950948
.4992499 .550212 .1956367
.5272666 .5512921 .196605
.555715 .5524802 .1975593
.5840067 .5537277 .1994502
.6115285 .5548648 .2014938
.6384824 .5560831 .2036254
.6660206 .5571847 .206997
.6926248 .5593984 .2111583
.7189876 .5616222 .2165516
.7452735 .5642452 .2220125
.7714691 .5672792 .228825
.7976627 .5701863 .2356512
.8231784 .5728804 .2430548
.8484796 .575141 .2500882
.8730116 .5779948 .2575041
.8970838 .5816784 .2657909
.9207585 .5855545 .2753392
.9417548 .5893458 .283969
.2035774 .5769945 .1990335
.2104732 .5771809 .1996705
.2179743 .5773913 .2003874
.2296146 .5774739 .2006721
.2442555 .5775804 .201039
.2615314 .5777159 .2015041
.2810465 .5778815 .2020726
.3021202 .5781685 .2028252
.3242598 .5783156 .2035598
.3478314 .5784475 .2037795
.3723328 .5785819 .2039939
.3971584 .5787148 .204166
.4224635 .5788132 .2042976
.447974 .5790675 .2050152
.4737815 .5794218 .2058661
.5015857 .5796916 .2062946
.5294352 .5804524 .2066542
.5572607 .5815005 .2073878
.584947 .5826118 .2081156
.6135857 .5840876 .2102689
.6406668 .585354 .2128464
.6673608 .5869011 .2164935
.6945175 .5881362 .2200535
.7208685 .5904478 .2235645
.7473555 .5932347 .2293669
.7731491 .5950387 .2367108
.7991768 .5971032 .2441615
.8249914 .5992789 .2513472
.8497024 .6023411 .2578645
.8739123 .6056629 .2657833
.8978866 .6093895 .2744545
.9215737 .6134614 .2837391
.9426607 .617182 .2920014
.2183117 .6067348 .2101162
.2255733 .6067387 .2101555
.2334744 .6067428 .2101995
.2442816 .6067489 .210263
.2579171 .6067727 .2103607
.2739619 .6068863 .2105529
.2921665 .6070382 .2108469
.3098446 .6077856 .2129458
.3300941 .6084414 .2145026
.3532763 .6087834 .2149076
.377337 .6090363 .2152384
.4015229 .6091003 .215387
.4262672 .6091797 .2155172
.4514772 .6093001 .2154695
.4766332 .6096051 .216009
.5027575 .6099434 .2171047
.531561 .6101099 .2182252
.5594065 .6108594 .2186061
.5871504 .611665 .2188233
.6146389 .6128573 .219822
.6425182 .6142148 .2220756
.6697567 .6157119 .2252988
.6965308 .6174906 .2285223
.7238296 .6187429 .2329953
.7497589 .6203115 .2387018
.7750449 .6220684 .2455027
.8003433 .6245965 .252443
.8259559 .6275598 .2592933
.8510913 .630261 .2666527
.8752646 .6333047 .2744268
.8990219 .6370683 .2835436
.9224982 .6409881 .2928366
.9435073 .6444802 .3002948
.2277926 .6365289 .2226519
.2345851 .6365266 .2227698
.2420011 .6365241 .2229024
.2521841 .6365206 .2230924
.2652869 .6365266 .223141
.2811285 .6365444 .2230591
.2993661 .6365744 .2228432
.3190793 .6367372 .2227147
.3403409 .6369249 .2225544
.362401 .6372766 .2224177
.3835195 .6381286 .2242654
.4058311 .6389731 .2261858
.4306398 .639129 .2263507
.4560722 .639213 .2268087
.4816327 .6393307 .2272698
.5073836 .6395912 .2281255
.5346522 .6398926 .2296209
.561593 .6404634 .2304896
.5889277 .6413261 .2308977
.6162866 .6423616 .231713
.6439512 .6434659 .2321839
.6720309 .6447194 .2328754
.6996228 .6460429 .2372806
.7259167 .6468732 .2432815
.7519614 .6479486 .2486184
.7769047 .6504152 .2546185
.8015798 .6530322 .2605509
.8269173 .6557771 .2676322
.8518373 .6585932 .2757805
.8765352 .6612282 .2837363
.9006334 .6645692 .2926355
.9241038 .6681781 .3010266
.9439332 .6719015 .3101042
.2390997 .6659852 .2337284
.2456222 .6659908 .2337476
.2527622 .6659968 .2337697
.2625943 .6660056 .2338006
.2751298 .6660174 .2338421
.2901149 .6660306 .2338839
.3070923 .6660821 .2340833
.3256765 .6662486 .234511
.3458826 .6664436 .2349994
.3675873 .6666744 .2354765
.3905924 .6669679 .2356119
.4144198 .6672968 .2357717
.4385874 .6679082 .2361751
.461395 .6689193 .2389924
.4866714 .6689848 .2393727
.5122062 .6691644 .2397601
.5389869 .6694463 .2406877
.5660325 .6700427 .2420193
.5924487 .6710396 .2432242
.6196692 .6721435 .2434473
.6471877 .6730745 .2432758
.6739018 .6735641 .2450781
.7005489 .6748535 .2468732
.727821 .6762435 .2523051
.7535752 .6778036 .2584698
.7787433 .679624 .2639878
.803323 .6821051 .2697996
.8275027 .6848245 .2775545
.8524979 .6876182 .285368
.8777284 .6896994 .2920678
.9019916 .6924278 .3007748
.9245448 .6962655 .3116105
.9441798 .7002072 .3215444
.2513924 .6956199 .2475634
.2576067 .6956335 .2477398
.2643029 .6956459 .2478229
.2735578 .6956636 .247942
.2854491 .6956884 .2480875
.2998553 .6957217 .2482449
.316306 .6958046 .2484754
.3344443 .6959677 .2488088
.3542075 .696158 .2491968
.3752342 .6963759 .2496637
.3972059 .696622 .2502344
.4199781 .6968691 .2506409
.4437061 .6972544 .2512903
.4683218 .6977001 .2517307
.4930946 .6983789 .2523706
.5176476 .698934 .2532121
.543618 .6992504 .2538406
.5712672 .6997885 .2544146
.5978931 .6998537 .2558677
.6247056 .7006096 .2576183
.6511155 .7016937 .2589203
.67707 .7029097 .2600168
.7027837 .7042177 .2611565
.7284817 .7056045 .2627593
.7553951 .7070602 .2676088
.7807007 .7084515 .273551
.8054531 .7103912 .2808561
.8303249 .712393 .2874444
.8551804 .7146769 .2935986
.878289 .7177272 .3022883
.9020049 .7208635 .3120732
.9263685 .7231825 .32044
.9472964 .7256544 .3298748
.2643906 .724512 .2618758
.2704038 .7245111 .2621073
.2769963 .7245169 .2623467
.2861255 .7245249 .2626862
.2977658 .7244816 .2628731
.3116438 .7244973 .2630536
.3273511 .7246577 .263294
.344766 .7248679 .2635863
.363822 .7251129 .263927
.3840624 .7253876 .2643798
.4054329 .7256969 .2649003
.4277499 .7260408 .2655069
.4507654 .7264091 .2664607
.474728 .726874 .2673587
.49921 .7271633 .2679467
.5245674 .7273036 .2685096
.5504189 .7275704 .2687488
.5774383 .7278222 .2691315
.6046932 .7283056 .2707804
.6307294 .7292055 .2728164
.6570245 .7301818 .2736127
.6814764 .7318011 .2759064
.7068523 .7329673 .2768137
.7316003 .7343149 .2782547
.7562034 .7357988 .2801186
.7825299 .7374445 .2844853
.8086069 .7385677 .2898757
.8329862 .7401139 .2979892
.8565535 .7420831 .3075127
.8806773 .7440216 .316266
.9042123 .7467269 .3257432
.9274948 .7493595 .3357078
.948623 .7517849 .3442676
.2782978 .7529153 .2753877
.2839964 .7529218 .2755961
.2902776 .7529292 .2758307
.2989984 .752939 .2761712
.3102237 .7529472 .2766621
.3239186 .752952 .2771751
.3392493 .7530916 .2776798
.3561975 .7532681 .278131
.3744963 .7534697 .2785585
.3942747 .7536094 .2792635
.4151921 .7537162 .2800656
.437186 .7538913 .2810744
.4599618 .7540809 .2822746
.4834761 .7542956 .2834829
.5084255 .7546048 .2838217
.533584 .7548765 .2841953
.5592454 .7552074 .2847879
.5850844 .7555767 .285859
.61114 .7562931 .2879807
.6368939 .757096 .2899598
.6628355 .7579082 .2911204
.6889661 .7586769 .2926348
.7140056 .7597707 .2945632
.7385331 .7611469 .2962635
.7625424 .7626167 .2986099
.7859803 .764192 .3030002
.8109517 .7656582 .3088444
.8361605 .7668707 .3162178
.8592866 .7684438 .3245395
.8823143 .7704476 .3327551
.9059205 .7727566 .3413202
.929351 .775113 .3494657
.9503857 .7773823 .3565455
.2957495 .7805122 .2904991
.3011546 .7804877 .2907696
.3071353 .7804593 .2910664
.3154598 .7804191 .2914903
.3262163 .7803648 .2920573
.3391914 .7803223 .2927599
.3539838 .7803895 .2933994
.3707034 .7804745 .2940995
.3888893 .7805701 .2949385
.4082921 .7806691 .2958218
.4286292 .7807374 .2969015
.4501145 .7808415 .2982326
.4724917 .7809767 .2996244
.4959645 .7811729 .3003228
.520292 .7814379 .3009357
.5446491 .7817742 .3016547
.5685576 .7823039 .3026752
.5929007 .7829124 .3038244
.6186623 .783549 .3056191
.6444036 .7841195 .3082272
.6697299 .7848595 .3103985
.695286 .7857208 .3122283
.7204387 .7866955 .3142249
.7449043 .787766 .31717
.7681406 .7890658 .3211161
.7911025 .7904262 .3248584
.8142242 .7922581 .3301181
.8378844 .7936184 .3349218
.8619087 .7950082 .341042
.8844637 .7968057 .3477447
.908084 .799079 .355707
.931673 .8013957 .3634072
.9524834 .8036174 .3707092
.3183794 .8075148 .3091939
.3233859 .8075011 .3094601
.3289357 .8074839 .309751
.336696 .8074553 .3101414
.3467644 .807417 .3106633
.3587905 .8074194 .3112507
.3726343 .8074721 .3119004
.3882643 .8075387 .3124887
.4055728 .8076066 .313204
.4243438 .8076721 .3141197
.4443337 .8077402 .3153578
.4648029 .8078236 .3162618
.4862566 .8079277 .317526
.5087597 .8081551 .3181474
.5312001 .8085122 .318986
.5541707 .808872 .3200599
.5776499 .8092108 .3212293
.6012542 .8096101 .3220897
.625797 .8101022 .3235996
.6512246 .8107947 .3259465
.6766636 .8115708 .3285021
.7016699 .8123714 .3311347
.7261612 .8132392 .3342924
.7498842 .8142089 .3383163
