luts/Timeless_46.cube
# 3D LUT of size 33x33x33 converted by Filestar.
#   Input:
#     color space: sRGB
#     white point: default (D65)
#     transfer function: default (sRGB)
#   Output:
#     color space: sRGB
#     white point: default (D65)
#     transfer function: default (sRGB)
#   Exposure: +0.34
#   Contrast: -65
#   Whites: -35
#   Blacks: +22
#   Vibrance: +26
LUT_3D_SIZE 9
.01524699 .01504351 .04726104
.1635352 .00119877 .04000166
.3149399 0 .01635738
.4633991 0 0
.594485 0 0
.7159252 0 0
.8231229 0 0
.9194579 0 0
.9999999 0 0
.00386504 .1684745 .0169247
.1607375 .1672393 .00355205
.313738 .16412 0
.459716 .1557146 0
.5917508 .147346 0
.7127768 .1333396 0
.8205712 .1284178 0
.9175229 .1136115 0
.9999999 .09743906 0
0 .3131754 0
.1644876 .3126297 0
.3103919 .3103377 0
.4562933 .3073516 0
.5855979 .2995199 0
.7060456 .2928976 0
.8145091 .2877927 0
.9126285 .2779149 0
.9991578 .2671079 0
0 .4510727 0
.1321389 .4504147 0
.3010628 .4486103 0
.4475832 .4465932 0
.5805922 .440883 0
.70076 .4339745 0
.8065296 .4281004 0
.9060793 .4199229 0
.993499 .4124083 0
0 .576176 0
.112105 .5755324 0
.2844034 .5743124 0
.4316999 .5717108 0
.5691306 .5673732 0
.6914912 .5611296 0
.8012893 .5565721 0
.9003508 .5501171 0
.9864874 .545593 0
0 .6878085 0
.05756174 .687479 0
.2633133 .6867126 0
.4148236 .6857213 0
.5532905 .6832644 0
.6784929 .6798769 0
.7925978 .674462 0
.8939896 .6689245 0
.981577 .666443 0
0 .7927148 0
0 .7924309 0
.2304188 .7916884 0
.3986834 .790511 0
.5425981 .7882626 0
.6693239 .7854899 0
.7837359 .7829215 0
.8870782 .7790761 0
.9778705 .7771512 0
0 .8897203 0
0 .889491 0
.1861296 .8889198 0
.375353 .8876798 0
.5257632 .8868991 0
.6593834 .8852335 0
.7755984 .8831373 0
.8815387 .882304 0
.9773319 .8797689 0
0 .9798884 0
0 .9798457 0
.09942064 .9797817 0
.3440857 .9794033 0
.5061917 .9790185 0
.6471469 .9785739 0
.7717738 .9771805 0
.8823471 .9769549 0
.9813727 .9805818 0
.03170941 .01655742 .1710508
.1731553 0 .1723305
.3194593 0 .1644158
.464065 0 .1556894
.5954961 0 .1488726
.7151194 0 .1428054
.8226761 0 .1331125
.9192175 0 .1207805
.9999999 0 .09849177
0 .172205 .1644518
.1571733 .1694714 .1630448
.3157444 .1618591 .1613882
.4602824 .1530206 .154566
.5928192 .1404145 .1474826
.7119132 .1309212 .1397834
.8204916 .1192185 .1260128
.9175181 .10367 .1148053
.9999999 .08712406 .09287963
0 .3132478 .147881
.152842 .3128022 .1427397
.3143181 .3085454 .1392648
.4575216 .3030376 .1367809
.5855036 .2971136 .1464147
.7061905 .2905177 .1362285
.8146207 .2851707 .1198965
.9130257 .2729124 .1029947
.9990714 .2631356 .08135321
0 .4500023 .1157975
.1118319 .4497681 .1136682
.2980699 .4484727 .1159529
.4467177 .4466372 .1171061
.5817998 .4404308 .1050363
.7008241 .4315318 .1101679
.8062567 .4268363 .1185302
.906328 .4175679 .09839915
.9936638 .4105656 .06505936
0 .5763338 .06636996
.07950815 .5758181 .06402849
.2735845 .5745226 .06785105
.4293356 .5715144 .07395881
.5693193 .5674242 .07388318
.6929131 .5605665 .07397632
.8020201 .5549963 .05526415
.901677 .5477458 .0430777
.9866205 .5444857 .05311377
0 .6879748 0
0 .6877587 0
.2527048 .6869776 0
.4119456 .6856239 0
.552411 .6830157 0
.6791123 .6801125 0
.7938848 .6738222 .00312744
.8949928 .668301 0
.9823868 .6659523 0
0 .7929992 0
0 .7926213 0
.2175201 .7918209 0
.39406 .7906885 0
.5396377 .7886032 0
.6688789 .7859361 0
.7840428 .7832538 0
.8884028 .7789011 0
.9800164 .7764487 0
0 .8902794 0
0 .8899189 0
.1706792 .8890035 0
.370845 .8876971 0
.5221604 .8873552 0
.6578701 .8858173 0
.7758771 .883619 0
.882158 .8828182 0
.9784513 .8798029 0
0 .9804206 0
0 .9803824 0
.05492432 .980119 0
.3357782 .979899 0
.5010476 .9795532 0
.6445074 .97915 0
.7707754 .9780141 0
.8814105 .9778568 0
.9811092 .9811769 0
.03871852 0 .3189624
.1791172 0 .3188199
.3209005 0 .3172078
.4642878 0 .3089886
.5957804 0 .302131
.7137119 0 .2952303
.8205588 0 .2879522
.9174033 0 .2778169
.9999999 0 .2672429
0 .1557919 .3182533
.1500927 .152517 .3175822
.3159516 .1467377 .3147258
.4599124 .1450376 .306386
.5902935 .1365887 .3015496
.7088449 .1304063 .2942944
.8180953 .1137615 .2853929
.9158899 .08573417 .2764711
.9999999 .05574754 .2646421
0 .3093356 .3087729
.1475362 .3066338 .3089895
.3097525 .301109 .3048405
.4501594 .3000754 .3027409
.5820153 .2937243 .2980414
.702844 .2855584 .29048
.8128316 .2782298 .2806941
.9124137 .2646511 .2709928
.9995602 .2518001 .2565884
0 .4483353 .2922868
.09575123 .4474569 .2891965
.283827 .4456987 .2835567
.444934 .4437554 .2789455
.5779217 .4363446 .2753583
.6942747 .4310295 .2848516
.8055471 .4234784 .2734073
.9070645 .4121341 .2622134
.9944595 .4045325 .2489581
0 .5739536 .2639765
0 .5738585 .2614948
.2515507 .5733277 .2587494
.4237206 .5711082 .2576579
.5660769 .5675527 .2558756
.694766 .5579453 .2504844
.8028587 .5504895 .2539824
.899377 .5477163 .2526768
.9869425 .5418534 .2421247
0 .6876072 .233944
0 .687305 .2317123
.2264449 .6870509 .2251544
.406244 .6852593 .2244602
.5513095 .682403 .2269702
.6777028 .6799577 .2252423
.7958 .6725702 .2206513
.8968515 .6670622 .2034043
.9853662 .6612068 .1953507
0 .7932606 .1923867
0 .7930205 .1887069
.18327 .792468 .1802747
.3787133 .7910001 .1767159
.5322317 .7889432 .1766056
.667039 .7860603 .1754929
.7841479 .7841561 .1809422
.8907678 .7797082 .1812906
.983234 .7752147 .1583023
0 .8909698 .1140919
0 .8908545 .1072469
.1131888 .8904405 .09266392
.3538904 .8888535 .08914427
.5152921 .8878897 .08210797
.6521587 .8870575 .08475593
.7745433 .8849164 .09923474
.8837232 .8838847 .114344
.9800014 .880399 .1134661
0 .9815257 0
0 .9815601 0
0 .9814748 0
.3149177 .9807017 0
.4899222 .980602 0
.6382172 .9803388 0
.7672337 .9797691 0
.8799942 .9803259 0
.9815297 .9820685 0
0 0 .4600465
.1530921 0 .4591739
.3102453 0 .457557
.4603544 0 .4563652
.5928542 0 .4497607
.7108766 0 .4380412
.8180951 0 .4291492
.9159651 0 .4193365
.9999999 0 .4096952
0 .1281597 .4582517
.1413367 .1259045 .4575677
.3050017 .1230616 .4563791
.4573424 .1122358 .4539565
.5897049 .1087485 .4471102
.7082467 .1007394 .4350216
.8159844 .0841924 .4276448
.9140814 .06311338 .4180849
.9999999 .00779316 .4079489
0 .2918072 .4527112
.120194 .2874764 .4522737
.2940294 .2812448 .4495469
.4494026 .2796867 .447719
.5796182 .2864377 .4383172
.6999198 .2788395 .4307582
.809675 .2713699 .4231258
.9107485 .2578917 .4140442
.9995144 .2381804 .4041268
0 .4445893 .4450071
.07124596 .4435967 .4445493
.2809231 .439163 .4423239
.439537 .4317779 .4353341
.5684099 .4300363 .4313047
.6899011 .424235 .4256051
.8035869 .4133431 .4187729
.9056119 .4038324 .4108473
.9946948 .3957778 .3992202
0 .5719198 .4223008
0 .571493 .4194198
.2374973 .5690886 .4144151
.4030228 .5674121 .4101318
.5641921 .5639262 .4065359
.6889971 .555193 .4053445
.795182 .5498042 .4106813
.897669 .5426943 .400915
.9892724 .5332462 .3889422
0 .6864212 .3932188
0 .6860715 .3914148
.1808095 .6857517 .3868919
.3820529 .6841419 .3828453
.54407 .6825745 .3793798
.676368 .6792732 .3759387
.7969521 .6695992 .3722293
.8973542 .663274 .3694052
.9871129 .6574781 .3659841
0 .7934592 .3639205
0 .79311 .362213
.1069571 .7920769 .3582949
.3505009 .7909494 .3505997
.5233789 .7891675 .3486046
.6608165 .7870753 .3478814
.7822047 .7850578 .3474594
.8924857 .7791538 .3404029
.9867451 .7715275 .3254003
0 .8919119 .3193733
0 .8917984 .3180791
0 .8913776 .3146631
.3137279 .8907971 .3100759
.4962373 .8895448 .3075722
.6433011 .8882823 .3093911
.7712961 .8860047 .309933
.8856802 .8835843 .3088369
.9829169 .8811032 .3005764
0 .9834463 .2738935
0 .9835541 .2712882
0 .9837382 .2649517
.2628783 .9837515 .25691
.4665914 .9826211 .2542366
.6271511 .981571 .2546805
.760974 .981423 .2524841
.8773765 .9824788 .2618361
.9828853 .9835859 .27228
0 0 .5884269
.1499682 0 .5874079
.2967124 0 .5864446
.4466221 0 .5849133
.585784 0 .5821952
.7065476 0 .5770124
.8137093 0 .566256
.9125281 0 .556649
.9995106 0 .546451
0 .1098603 .5865677
.136392 .1027538 .5858609
.2908262 .09262421 .5852307
.4418987 .07637038 .5842233
.5844212 .04753717 .5816085
.706683 .05741338 .5744362
.8123313 .06013128 .5636919
.9115731 0 .5543941
.9993625 0 .5446095
0 .2735718 .5829844
.07381461 .2710251 .5826512
.2744741 .2679856 .5816253
.4301208 .2631376 .5793834
.576278 .2575011 .5772524
.7031091 .2563793 .5694941
.810468 .2516131 .5585511
.9098517 .2367829 .5497484
.9979799 .2199138 .5407441
0 .4246284 .5770173
0 .4228485 .5763732
.2538851 .4193558 .5749146
.4154447 .4120828 .5721405
.5686383 .4089531 .5695426
.6932023 .4101124 .5597528
.8029147 .4056799 .5505069
.9046608 .3952265 .5425016
.9942372 .3845896 .53572
0 .5669234 .565919
0 .5664111 .5655914
.2237819 .5649866 .564476
.4032344 .5591779 .5607911
.5547414 .5507089 .5550309
.6778206 .5497683 .5520104
.7910179 .5454376 .5447455
.8948988 .5374395 .5384807
.988085 .526958 .530064
0 .6874527 .5444971
0 .6868569 .5426186
.146017 .6851281 .5386108
.3674074 .6817778 .5351116
.5244225 .6794429 .530191
.6743483 .6750446 .525777
.7925538 .665722 .5218634
.8909744 .6613274 .5277397
.9841307 .6546526 .5207961
0 .7930127 .5159837
0 .7926807 .5142908
0 .7917351 .5100828
.3214183 .7901984 .5049698
.5029181 .7882123 .5018446
.6535174 .7867811 .4987236
.7805349 .7842231 .4948067
.8951227 .7757452 .4888811
.9876398 .768903 .4812855
0 .8914951 .4853334
0 .8914837 .4838576
0 .8914782 .4803497
.269986 .8909588 .4765157
.473751 .8898078 .4735994
.630426 .8886446 .4701964
.7676911 .887183 .4668813
.8845907 .8842144 .4666571
.9848179 .8808297 .4612651
0 .984596 .4523156
0 .9846612 .4504918
0 .9848155 .4479495
.1953907 .9849811 .443998
.4383621 .9848569 .4375826
.6102861 .9837907 .4350242
.7552484 .9832832 .4374955
.8791996 .983557 .4411791
.9852467 .9853634 .4430512
0 0 .7028239
.1376187 0 .7026092
.2898999 0 .7014678
.4324015 0 .6996336
.5702329 0 .6973409
.695298 0 .6945087
.8081675 0 .6898428
.9086015 0 .6827565
.9959864 0 .6753591
0 .09203307 .7013521
.1121199 .0849029 .7010528
.2813939 .07192602 .7002801
.4274768 .05018799 .6986154
.566583 .01663936 .6967506
.6952642 0 .6939654
.8079534 0 .6892741
.908187 0 .6818023
.9961426 0 .6739358
0 .2611444 .6978996
.02950194 .2585638 .6975381
.261407 .2518255 .6972908
.4192279 .2460793 .6964657
.5596793 .2390849 .695389
.6948128 .2335708 .6924846
.8070146 .2302451 .6874676
.9078516 .2215039 .6780664
.9968625 .1917168 .6700996
0 .4060703 .6947194
0 .404033 .6943823
.2260774 .3986812 .6931973
.399987 .3897756 .6922282
.5474738 .3854432 .6914665
.6903297 .3818148 .6885023
.806522 .3818868 .68139
.9058346 .3784991 .6718117
.9951308 .3664651 .6637927
0 .5470324 .6879548
0 .5451759 .6877946
.1736249 .5425892 .686674
.3689553 .5390368 .6845235
.5350113 .5326726 .6823258
.6807466 .5304427 .6804165
.797343 .5284845 .6724921
.8982963 .5228536 .6633266
.9905235 .5146611 .6566965
0 .6794356 .6790696
0 .6791898 .6788936
.1277151 .6785077 .6784786
.3617696 .6758333 .6769057
.5238638 .6710012 .6732663
.6676762 .6635134 .6679599
.7821078 .6612461 .6633018
.8896704 .6564513 .6575677
.9839334 .6500772 .6507043
0 .791728 .6602966
0 .7915499 .6595961
0 .7908007 .6575403
.3085859 .7886835 .6536247
.4910866 .785934 .649246
.6416369 .7827087 .644273
.7792715 .7810505 .64003
.8918994 .7727932 .6354868
.9815157 .7688223 .6392835
0 .8919384 .6369484
0 .8918341 .6357958
0 .8915119 .6327301
.2237461 .8906636 .6277895
.4469714 .8889731 .6221349
.6165919 .8870441 .6189787
.7620623 .8860539 .6151782
.8830524 .8837255 .6140114
.987 .8795901 .6095411
0 .9836749 .6117479
0 .98379 .6102812
0 .9840762 .6066019
.07473253 .9848292 .6014117
.4075171 .9852915 .595902
.5963116 .9846792 .5928766
.7467376 .9853298 .593311
.8777971 .9860654 .5958381
.9880005 .9880937 .5949048
0 0 .807711
.1252972 0 .8074745
.2779805 0 .8067057
.4237175 0 .8051314
.553646 0 .8036776
.6825721 0 .8015022
.7976756 0 .7984011
.9009957 0 .794031
.9916958 0 .7896549
0 .05557591 .8060915
.09600464 .03914274 .8060764
.2679184 .01463829 .8056123
.4179084 0 .8045173
.5507326 0 .8028352
.6809391 0 .8011658
.7977817 0 .798102
.9012671 0 .7936826
.9930006 0 .7890454
0 .246935 .804778
0 .2432167 .8047144
.244433 .2361403 .8041916
.4001682 .225527 .8032025
.5441565 .2135605 .8015962
.6775028 .2016852 .8003856
.7983788 .1991107 .7970288
.902433 .1878492 .7928907
.9943467 .165023 .7873453
0 .3880841 .8016772
0 .3854602 .8015473
.1988437 .3784181 .801169
.3786445 .3714628 .8010223
.5316651 .3644856 .8003472
.6698056 .3609135 .7991628
.7965268 .3579004 .7954624
.9049358 .3500412 .7908919
.9970189 .3415775 .7833304
0 .528012 .7965583
0 .5263354 .7966287
.09567978 .5229114 .7964067
.3526785 .5151114 .7954577
.5164166 .5095847 .7956345
.6596888 .5080789 .7940229
.7911318 .5062692 .7910641
.9029955 .5018585 .7854453
.9937158 .4980144 .7774645
0 .6610209 .7916205
0 .6600735 .7915555
0 .6579126 .7910392
.316577 .6551614 .7899947
.4932672 .651567 .7883314
.6481237 .6462158 .7863879
.785336 .6438441 .7846467
.8949289 .6419474 .7770257
.9868651 .6364253 .7712388
0 .7844744 .7840163
0 .7843099 .7839482
0 .7838956 .7837833
.2918682 .7830155 .7833744
.4803835 .7807029 .7808856
.6338614 .7784919 .7771518
.7737626 .7713154 .7735615
.8827363 .7690824 .7713427
.9801258 .765057 .7674432
0 .8907921 .7708332
0 .8908412 .7704103
0 .8906577 .7691195
.2137463 .8895627 .7664786
.445798 .887574 .7637351
.6102063 .8852778 .7605346
.7531607 .8828668 .7568375
.8823781 .8815265 .7538574
.9874055 .8770005 .7485937
0 .9855003 .7550074
0 .9855204 .7541562
0 .9857262 .752561
0 .9861841 .749634
.3904492 .9859858 .7455021
.5831144 .9852594 .7402575
.7391031 .9863796 .7396412
.8747712 .9875261 .7419002
.9893139 .9903672 .7438984
0 0 .9034997
.1044502 0 .9032838
.2640899 0 .9026822
.4075406 0 .9016517
.5429339 0 .9003479
.6731132 0 .899175
.7897116 0 .8974487
.8924057 0 .895052
.9848918 0 .8918505
0 0 .9018916
.06935391 0 .9019003
.2518384 0 .9017361
.4005543 0 .9008759
.5388609 0 .9003586
.6702092 0 .8991274
.7887737 0 .8976938
.8928114 0 .8953809
.9853634 0 .8916711
0 .221166 .9007714
0 .2161636 .9008605
.2236057 .2057689 .9012142
.3860721 .1936318 .9010755
.530485 .1762977 .9000716
.6623012 .1553944 .8990846
.7854981 .1456694 .8981173
.8941329 .1421044 .8954415
.9869466 .1222284 .8917057
0 .3692617 .899958
0 .3667618 .8999847
.1554414 .360692 .8998618
.3558622 .352728 .8992918
.5164183 .3429496 .8989356
.6527403 .3339656 .8983402
.7806724 .3264573 .8971827
.8958628 .3204366 .8948365
.9905695 .3128079 .891388
0 .5109355 .8970284
0 .5096974 .8968869
0 .5053555 .8966932
.3188208 .4997298 .8964093
.4968064 .4925599 .8968073
.6438186 .4860476 .8960226
.7759376 .4821831 .8948108
.8925378 .4786201 .892925
.9925676 .4714154 .889692
0 .6425176 .894167
0 .6409836 .8942728
0 .6387329 .8940917
.2726927 .6352008 .8935285
.4670683 .63063 .8923865
.6254956 .6277668 .8923166
.7667068 .6251981 .891597
.8886341 .6234884 .8890036
.9907569 .6173097 .8856373
0 .7701602 .8906248
0 .7697812 .8906154
0 .7688 .8905367
.2337446 .7665873 .8903597
.445666 .7642055 .8896745
.6127102 .7602978 .8873269
.7552655 .7571208 .8858014
.8832415 .754631 .8845263
.9852218 .7541516 .880248
0 .8854572 .8856077
0 .8853494 .8856184
0 .8850678 .885739
.1744067 .8848307 .8859032
.4295658 .8842061 .8846294
.6026438 .8830631 .8824508
.7455792 .8817266 .8815551
.8761014 .8777092 .8802098
.9816368 .8793241 .8787336
0 .9853767 .8802227
0 .9855459 .8802276
0 .9859343 .8795805
.01338247 .9859837 .8781224
.3994418 .9861504 .8762711
.5836357 .9863815 .8757967
.7371482 .987196 .8738948
.8715723 .988405 .8748726
.9966434 .9911302 .8829485
0 0 .990021
.01856345 0 .9899147
.2410072 0 .9894903
.3920378 0 .9888328
.5349207 0 .9877834
.6630042 0 .9870328
.7814503 0 .985981
.8896786 0 .9839596
.9813666 0 .9825034
0 0 .9896337
0 0 .9895861
.2338771 0 .9891977
.384109 0 .9882978
.5291452 0 .9871289
.6590165 0 .9870124
.7795362 0 .9860477
.8883248 0 .9842955
.9812989 0 .9829759
0 .1888917 .9883406
0 .1830958 .9883687
.2069468 .1673307 .9882739
.3700292 .1507633 .98803
.5166571 .1304139 .9876108
.6506776 .09842897 .9871296
.7757027 .05789734 .9862584
.8873419 0 .985441
.9824483 0 .9840526
0 .3453528 .9881155
0 .3423682 .988224
.1039078 .3355839 .9882354
.3382562 .3255191 .9880577
.4953631 .3127672 .9879902
.6394481 .302303 .9875723
.7689177 .2919931 .986895
.8837278 .2818489 .9862354
.9853217 .278287 .9853316
0 .4901558 .9872482
0 .4886382 .987238
0 .4832625 .987557
.2795724 .473595 .9879538
.471489 .4658442 .9877142
.6274129 .4580974 .9876037
.7608486 .4537044 .987182
.8813745 .4510707 .9868352
.9858736 .4475905 .9863217
0 .6237175 .9859167
0 .6225204 .9860131
0 .6204212 .9865169
.1918421 .6164309 .9870177
.4354647 .6106178 .9877636
.6055346 .6050574 .9878168
.7504532 .6008644 .9872361
.8778328 .5996388 .9859194
.9848815 .5997904 .9858271
0 .7544196 .9856721
0 .7536523 .9857557
0 .7523851 .9857468
.0997381 .7499364 .9855075
.4080797 .7445306 .9855105
.5856434 .7414839 .9860191
.7363591 .7396165 .9861732
.8723768 .7381427 .9861833
.9861344 .7393771 .9862174
0 .8760287 .9850211
0 .8758214 .9851376
0 .8755233 .9852013
0 .8748056 .9851907
.3890909 .8734382 .9855973
.578917 .8705309 .9869177
.7338349 .8694428 .9869683
.8668324 .8704291 .988058
.9887715 .8715456 .9881664
0 .986664 .9863245
0 .9868854 .9864764
0 .9872381 .9867064
0 .9882839 .9878721
.3760315 .9896055 .9884357
.5778487 .9909592 .9890736
.7394721 .9918233 .9908741
.8762105 .9948118 .9944875
.9999999 .9977276 .9973988
