luts/Timeless_9.cube
# 3D LUT of size 33x33x33 converted by Filestar.
#   Input:
#     color space: sRGB
#     white point: default (D65)
#     transfer function: default (sRGB)
#   Output:
#     color space: sRGB
#     white point: default (D65)
#     transfer function: default (sRGB)
#   Exposure: +0.9
#   Contrast: +23
#   Whites: +8
#   Blacks: -20
#   Vibrance: +5
LUT_3D_SIZE 33
0 .00158175 .00933342
0 .00719198 .00099476
.05250946 .00084715 .00236922
.1207307 0 .00394411
.1720055 0 .00411609
.2200897 0 .00031841
.2670612 0 0
.3128849 0 0
.3564042 0 0
.3996201 0 0
.4406891 0 0
.4800542 0 0
.5186074 0 0
.5559281 0 0
.5923291 0 0
.6270081 0 0
.6601495 0 0
.6920052 0 0
.7223699 0 0
.7513655 0 0
.7787504 0 0
.8045191 0 0
.828851 0 0
.8519163 0 0
.8736749 0 0
.8941671 0 0
.9133625 0 0
.9314106 0 0
.9484397 0 0
.9645602 0 0
.9798447 0 0
.9943375 0 0
.9999999 0 0
0 .04431072 .00547843
0 .05537105 0
.03664281 .05109528 0
.1175691 .03900534 .00476538
.1714206 .03693618 .00163097
.2214949 .03778578 0
.2686099 .04085731 0
.313353 .04759559 0
.3576346 .05057137 0
.400213 .05142692 0
.4411339 .05110094 0
.4805676 .05046718 0
.5192785 .04709362 0
.5565708 .04465742 0
.5928957 .0357012 0
.627565 .02623888 0
.6604771 .01645042 0
.6921936 .01113428 0
.7225573 .00722274 0
.751516 .00478927 0
.7788718 .00244277 0
.8045976 .00075545 0
.8289249 0 0
.8519371 0 0
.873705 0 0
.8942059 0 0
.9134133 0 0
.9314714 0 0
.9485167 0 0
.964639 0 0
.9799363 0 0
.9944273 0 0
.9999999 0 0
0 .09947368 0
0 .0995521 0
.03786612 .099526 0
.1202868 .09404609 0
.1739982 .09279669 0
.2234258 .09512473 0
.2695857 .09811764 0
.3149254 .1001484 0
.3586942 .1003638 0
.4008463 .1009709 0
.4416324 .1009748 0
.4813744 .09928779 0
.5200311 .09749442 0
.5572913 .096475 0
.5935312 .09195519 0
.6279261 .08793377 0
.6606011 .08320899 0
.6924196 .08145098 0
.7226932 .07987591 0
.7516511 .07868221 0
.7790084 .0771937 0
.8046867 .0761229 0
.8290077 .07489509 0
.8519965 .07364143 0
.8737469 .07172451 0
.8942826 .06906021 0
.9134759 .06356369 0
.9315163 .05812908 0
.948607 .05714028 0
.9647322 .05698383 0
.9800392 .05622794 0
.9945301 .05502502 0
.9999999 .05386842 0
0 .1469275 0
0 .1462612 0
.04443525 .1467631 0
.1246858 .1438614 0
.1770435 .1442209 0
.2254831 .1450661 0
.2713482 .1457064 0
.3163002 .1462686 0
.3600526 .1460813 0
.4018983 .1464788 0
.4426179 .1462191 0
.4824993 .1444027 0
.5210972 .1432862 0
.5580258 .1436135 0
.5938484 .1417402 0
.6280946 .1395051 0
.6608753 .1376804 0
.6925955 .1368636 0
.7228524 .1364321 0
.7518719 .1356699 0
.7791958 .1347509 0
.8048233 .1340287 0
.8291342 .1333559 0
.8521616 .1324309 0
.8738676 .1316153 0
.8943287 .1298069 0
.9135156 .1270422 0
.9316239 .1244104 0
.9487426 .1243159 0
.9648648 .1242352 0
.9801853 .1238024 0
.994677 .1231325 0
.9999999 .1226339 0
0 .1914547 0
0 .1919689 0
.05532315 .1927603 0
.1307652 .1905375 0
.1803328 .1904132 0
.2275005 .1904834 0
.2727413 .1908478 0
.3181747 .1906947 0
.3616081 .1905669 0
.403486 .1902791 0
.4442228 .1896624 0
.4834333 .1894038 0
.5215406 .1895612 0
.5582698 .1901072 0
.5940124 .189589 0
.6281978 .1884352 0
.6611034 .1874167 0
.6928599 .1868138 0
.7231123 .1865117 0
.7521144 .1862375 0
.7793759 .1854841 0
.805079 .184881 0
.829376 .1845577 0
.8524081 .1837112 0
.8740914 .1832037 0
.894401 .1821313 0
.9135841 .1802145 0
.9318001 .1791548 0
.9489222 .1790708 0
.9650405 .1790151 0
.9803833 .1786303 0
.9948433 .1782867 0
.9999999 .1780029 0
0 .2342294 0
.01178672 .2340072 0
.0816879 .2339602 0
.1396663 .2330304 0
.1867343 .2329201 0
.232267 .2328599 0
.2764145 .2334622 0
.3195089 .2345199 0
.3630263 .2342413 0
.4045709 .2344745 0
.4447741 .234634 0
.483879 .2349848 0
.5218074 .2355524 0
.5584785 .2360924 0
.5940406 .2359801 0
.6282496 .2349741 0
.6613209 .2343751 0
.6932203 .2339633 0
.7235865 .2336568 0
.7524847 .2333283 0
.7796474 .2332073 0
.8053698 .2330256 0
.829721 .2321849 0
.8526952 .2317526 0
.8742989 .231079 0
.8946229 .2301339 0
.9138284 .2299604 0
.9320215 .2292265 0
.9491472 .2291458 0
.9652502 .2291127 0
.980583 .2288782 0
.9950469 .2283444 0
.9999999 .228271 0
0 .2769847 0
.01860314 .2766812 0
.08830918 .2765228 0
.1438198 .2761436 0
.1897893 .276424 0
.2335503 .2768814 0
.2765873 .278113 0
.319821 .2789822 0
.3631503 .2788202 0
.4047699 .2792216 0
.445092 .2793835 0
.484363 .2796279 0
.5221703 .2801682 0
.5587819 .2805559 0
.5942123 .2803941 0
.6285147 .2800755 0
.6619117 .2796803 0
.6938078 .2794578 0
.7241737 .2792875 0
.7528808 .2789895 0
.7800758 .278686 0
.8058233 .278414 0
.8301232 .278073 0
.8529434 .2779213 0
.8745394 .2769495 0
.8949725 .2766864 0
.9142521 .2771153 0
.9324616 .2762083 0
.9494978 .2761911 0
.9655274 .2764749 0
.9808071 .2765193 0
.9951821 .276351 0
.9999999 .2760539 0
0 .3202257 0
.02549842 .320168 0
.09248447 .3200259 0
.1472479 .319756 0
.1917306 .3201127 0
.2350281 .3204406 0
.2779614 .3213698 0
.3216719 .3216082 0
.3644096 .3216289 0
.4049551 .3225957 0
.445272 .3228551 0
.4846879 .3234264 0
.5226879 .3236603 0
.5591838 .3238702 0
.5946368 .3240885 0
.6290225 .3242553 0
.6625487 .3240044 0
.6944193 .3238117 0
.7245942 .3235947 0
.7532634 .3233615 0
.7804487 .3231291 0
.806192 .3229141 0
.8304977 .3226458 0
.8533266 .3219721 0
.8749341 .3218838 0
.8954231 .3221802 0
.9146776 .3225133 0
.9328888 .3217009 0
.9498886 .3219382 0
.9659589 .3219868 0
.9812058 .3216529 0
.9955375 .3213049 0
.9999999 .3210554 0
0 .3638082 0
.0299693 .3637508 0
.09382234 .3636961 0
.1458244 .3636606 0
.1922953 .3639279 0
.2356074 .3642361 0
.2796511 .3642864 0
.3235784 .3640902 0
.3663106 .363841 0
.4077555 .3639103 0
.4465885 .3656442 0
.4851858 .36644 0
.5229468 .3666517 0
.5598144 .3669778 0
.5953641 .3671931 0
.6299357 .3672276 0
.6632597 .3670945 0
.6950449 .3669274 0
.7250322 .3667094 0
.7536799 .3665088 0
.7808462 .3663092 0
.8065493 .3659456 0
.8307523 .3654634 0
.8537021 .3659564 0
.875333 .3663045 0
.8957595 .3665816 0
.9150882 .3663354 0
.9332947 .3657963 0
.9502261 .3658911 0
.9662783 .3657629 0
.981504 .3654443 0
.9958168 .3651356 0
.9999999 .3648794 0
0 .4060957 0
.03016725 .4060308 0
.0943116 .405972 0
.1457011 .4059947 0
.1933894 .406055 0
.2351286 .406696 0
.2798609 .4066027 0
.3239953 .4065413 0
.3666526 .4066085 0
.4081272 .4067505 0
.4484903 .4071366 0
.4863497 .4079044 0
.5237963 .4084175 0
.5604095 .4088219 0
.5959683 .4091484 0
.6308466 .4091288 0
.6639919 .4090697 0
.695453 .4087655 0
.7255266 .4084358 0
.7541215 .408362 0
.7811807 .4081722 0
.8067889 .4083858 0
.8310356 .4088096 0
.8539327 .4092157 0
.875623 .4094498 0
.8961207 .4094341 0
.9154961 .4086555 0
.9336421 .4079379 0
.9505408 .4079582 0
.9666017 .4078956 0
.9817654 .4077772 0
.9960449 .4076634 0
.9999999 .4075817 0
0 .4477044 0
.00738055 .4477133 0
.08076211 .4476973 0
.1377668 .4476905 0
.1886646 .4477398 0
.2337026 .4482096 0
.2790339 .4483421 0
.3235086 .4481989 0
.3669533 .4480401 0
.4086251 .44815 0
.4487274 .4482892 0
.4875619 .4484603 0
.5251113 .4488164 0
.5613136 .449222 0
.5969424 .4497005 0
.6313396 .4498619 0
.6643807 .4499024 0
.6958179 .4497625 0
.7258655 .4496288 0
.754344 .4496912 0
.7814402 .4499065 0
.8070498 .4502838 0
.8312759 .4506314 0
.8541598 .4507821 0
.8758296 .4508144 0
.8962784 .4506844 0
.915803 .4495158 0
.9339478 .4491394 0
.9508275 .449001 0
.9668836 .448769 0
.9820436 .4486676 0
.9963192 .4485601 0
.9999999 .4485766 0
0 .4881521 0
0 .4881732 0
.06770394 .4881967 0
.1301505 .4882302 0
.1833887 .4882603 0
.2327385 .4882939 0
.2778121 .488634 0
.3219546 .4887466 0
.3660207 .4885417 0
.4086554 .4883919 0
.4487358 .488412 0
.487838 .4886337 0
.5255456 .4888514 0
.5626081 .4887306 0
.5978122 .4892772 0
.631775 .4898525 0
.664412 .4897547 0
.6956305 .4902014 0
.7259217 .4903303 0
.7546188 .4905615 0
.781613 .4907849 0
.8072144 .4908077 0
.8314167 .4907314 0
.8543653 .4904733 0
.8760452 .4902616 0
.8964862 .4901112 0
.9159582 .4891009 0
.9342201 .4886441 0
.9512013 .4884803 0
.9672866 .4883258 0
.9823818 .4881052 0
.9965646 .4879777 0
.9999999 .4879282 0
0 .5274108 0
0 .5274299 0
.05344043 .5274513 0
.1227644 .5274816 0
.1783048 .5275218 0
.2285956 .5275775 0
.2760807 .5276637 0
.3198217 .5280699 0
.3637656 .5280747 0
.4075674 .5277951 0
.4486545 .527739 0
.4875746 .5279101 0
.5253666 .5281335 0
.5627691 .5280149 0
.5987528 .5277527 0
.632264 .5279227 0
.6644382 .5286661 0
.6957673 .5291419 0
.7257694 .5293419 0
.754608 .5290364 0
.781864 .5288636 0
.8075801 .5286523 0
.8317513 .5284171 0
.8546509 .5281758 0
.8763399 .5279095 0
.8968078 .5276506 0
.9160663 .527414 0
.9341834 .5272428 0
.951337 .5269905 0
.9675574 .5265772 0
.9826303 .5263832 0
.9967708 .5262261 0
.9999999 .5262708 0
0 .5648599 0
0 .5648735 0
.04149433 .5648967 0
.1171779 .5649298 0
.1746291 .5649741 0
.2265162 .5650214 0
.2752196 .5650784 0
.3202365 .5653759 0
.3637594 .5654966 0
.4059966 .56532 0
.4481742 .5651004 0
.4877993 .5651252 0
.5257922 .5652468 0
.5629416 .565169 0
.5988166 .5649782 0
.6330889 .5647925 0
.6649695 .565504 0
.6960481 .5661336 0
.725848 .5664616 0
.7545596 .5660565 0
.7815542 .5659563 0
.8072666 .5657315 0
.83169 .5655066 0
.8547707 .5653046 0
.8764669 .5651638 0
.8967799 .5649557 0
.9159511 .5647379 0
.9340331 .5645231 0
.9512756 .5642709 0
.9675991 .5640679 0
.9828977 .563718 0
.9970923 .5636279 0
.9999999 .5635368 0
0 .6003013 0
0 .600324 0
.04022824 .6003495 0
.1168633 .6003898 0
.1746463 .6004441 0
.2265279 .6005151 0
.2751896 .6005982 0
.321265 .6006876 0
.3636864 .6010618 0
.4056383 .6010401 0
.4466828 .6009883 0
.48789 .6008822 0
.5268066 .6009985 0
.5633652 .6011881 0
.5988343 .6011791 0
.6332018 .600899 0
.6657065 .6008238 0
.6965298 .6012205 0
.7260541 .6016489 0
.7543063 .6018815 0
.7815437 .6014698 0
.8070292 .6012845 0
.8314681 .6011136 0
.8545194 .6008857 0
.8762206 .6006374 0
.8967155 .6004546 0
.9159936 .6003172 0
.9340842 .6002445 0
.9513963 .6001688 0
.9676974 .6001318 0
.9829432 .6000457 0
.9971268 .5999413 0
.9999999 .5996325 0
0 .634428 0
0 .6344517 0
.03769602 .6344785 0
.1159811 .6345124 0
.1742346 .6345538 0
.2262432 .6346057 0
.2746592 .6346755 0
.3208893 .6347751 0
.3649207 .6350792 0
.4067557 .6353186 0
.4479257 .6352964 0
.4879407 .6354113 0
.5272745 .6353267 0
.5639098 .63544 0
.5991107 .6354195 0
.6333536 .6350564 0
.6661158 .6348252 0
.6971455 .6348686 0
.7264879 .6351924 0
.7544557 .6356759 0
.7811657 .6358345 0
.8068576 .6355646 0
.8313265 .635011 0
.8540151 .6349323 0
.8757652 .6347679 0
.896326 .6346537 0
.9157207 .6346051 0
.9340835 .6345618 0
.9515299 .6344918 0
.9678302 .6344371 0
.982956 .6343701 0
.9970583 .6343103 0
.9999999 .6343217 0
0 .6670132 0
0 .6670371 0
.04037365 .667064 0
.1178359 .6671021 0
.176046 .6671526 0
.2277556 .6672489 0
.2761524 .6673833 0
.3224016 .6675401 0
.3669302 .6677088 0
.4082029 .6681253 0
.4488858 .6681755 0
.488309 .6680936 0
.5265321 .6680571 0
.5646139 .6677506 0
.5997699 .6677138 0
.6337825 .6675078 0
.6667184 .6672015 0
.6977306 .6672669 0
.7269409 .6673168 0
.7545685 .6676162 0
.7812095 .6679841 0
.8066254 .6681204 0
.830896 .6679525 0
.8540711 .6675913 0
.8758317 .6673691 0
.8961363 .6674553 0
.915552 .6673956 0
.9340382 .6672857 0
.9514784 .6671781 0
.9677795 .6671208 0
.9830175 .6670322 0
.9972975 .667006 0
.9999999 .6671641 0
0 .698464 0
0 .6984946 0
.04466152 .6985286 0
.1197409 .6985769 0
.1770581 .6986347 0
.2283433 .6987433 0
.2765791 .698888 0
.3226708 .6989961 0
.3672602 .6990315 0
.4101852 .6991017 0
.4491811 .6993294 0
.4884822 .699208 0
.5264077 .6991518 0
.5636282 .6990502 0
.6001241 .6987631 0
.6340469 .6987236 0
.6669334 .698433 0
.6977805 .6984661 0
.7271714 .6983504 0
.7553088 .6981336 0
.7818227 .6981863 0
.8068153 .6988766 0
.8309792 .6990883 0
.8539677 .699097 0
.8757261 .699031 0
.8964347 .6986836 0
.9157664 .6986087 0
.9341639 .6985671 0
.9515032 .6983879 0
.9677314 .6982031 0
.9828566 .6981145 0
.9971479 .6981012 0
.9999999 .6982011 0
0 .7285459 0
0 .7285426 0
.04310547 .7285345 0
.1188711 .7285376 0
.176465 .7285568 0
.2276388 .7286409 0
.2764858 .728595 0
.3229369 .7285859 0
.3672242 .7286153 0
.4099891 .7286484 0
.4494726 .729075 0
.4885669 .7289366 0
.5265995 .7288045 0
.563019 .7288203 0
.5991659 .7285773 0
.6342543 .7282376 0
.6670101 .7279907 0
.6979184 .7279533 0
.7275011 .7277498 0
.755815 .727607 0
.7825818 .7276242 0
.8078033 .7277568 0
.8312286 .7286358 0
.8541158 .7287559 0
.8759137 .7287619 0
.8964429 .7287167 0
.91605 .7284617 0
.934542 .7280242 0
.9514729 .7279153 0
.967418 .7279958 0
.9826301 .7279199 0
.9969487 .7278329 0
.9999999 .7277898 0
0 .7570773 0
0 .7570587 0
.0312062 .7570384 0
.1139934 .757009 0
.1736333 .7569702 0
.2265899 .7568733 0
.2756288 .7567871 0
.3223043 .7567377 0
.3667322 .7567759 0
.4094057 .7567809 0
.4491706 .757012 0
.4888515 .7569175 0
.5268092 .7567598 0
.5633804 .7567267 0
.5987305 .7567056 0
.633898 .7563973 0
.6671099 .7561535 0
.6982408 .756046 0
.7281101 .755888 0
.7563438 .7558776 0
.7830914 .7558938 0
.8085093 .7559509 0
.8324068 .7560538 0
.8546495 .7566953 0
.8762715 .756808 0
.8967857 .756765 0
.9159963 .7567636 0
.9340978 .7567538 0
.9512668 .7564853 0
.9673983 .7562802 0
.982619 .7560555 0
.9967402 .7560921 0
.9999999 .7559475 0
0 .7838255 0
0 .7838075 0
.02305013 .7837874 0
.1092476 .7837587 0
.1700029 .783703 0
.2234817 .7836287 0
.2731503 .7835394 0
.3203255 .783433 0
.3655466 .7833126 0
.4087309 .7832587 0
.4500314 .7833215 0
.488826 .7834947 0
.5270308 .7833394 0
.5637779 .7832519 0
.5991678 .783235 0
.6332815 .7833039 0
.6672505 .7830321 0
.698682 .782883 0
.7284477 .782829 0
.7568025 .7828135 0
.7836691 .7827487 0
.8090262 .7827538 0
.8330798 .7827749 0
.8557077 .7828467 0
.8768349 .7831924 0
.8967097 .7835443 0
.9158515 .7835499 0
.9339362 .7835501 0
.951049 .7835215 0
.9671753 .7834653 0
.9824154 .783034 0
.9966672 .7827553 0
.9999999 .7824746 0
0 .8091222 0
0 .8091013 0
.00634522 .8090767 0
.1021306 .80904 0
.1658031 .8089913 0
.220449 .8089244 0
.2708407 .8088334 0
.3184274 .8087325 0
.3638392 .8086258 0
.4075805 .8085083 0
.4496612 .808433 0
.489915 .8084289 0
.5271416 .8085311 0
.5639417 .8085253 0
.5996279 .8086252 0
.6337712 .8087418 0
.666414 .8087493 0
.6990852 .8084459 0
.728881 .808382 0
.7571721 .8083197 0
.784043 .8082832 0
.8095056 .808263 0
.8335788 .8082145 0
.8561485 .8082492 0
.8773493 .8083636 0
.8971937 .8084229 0
.9157606 .8089695 0
.9338284 .808933 0
.950884 .8087708 0
.9669917 .8085785 0
.9821623 .8083932 0
.9964551 .8081898 0
.9999999 .8078483 0
0 .8330485 0
0 .8330265 0
0 .8330017 0
.09749775 .8329665 0
.162987 .8329201 0
.218384 .8328618 0
.2690296 .8327972 0
.3168315 .8327071 0
.3624808 .8326045 0
.4065829 .8324943 0
.4490253 .8323639 0
.4897518 .8323604 0
.5274004 .8325595 0
.5645673 .8325712 0
.6002026 .8327359 0
.634087 .8328372 0
.6664382 .8329944 0
.6980537 .8329855 0
.7289762 .8326582 0
.7574155 .832625 0
.784308 .8325568 0
.8096436 .8325175 0
.8337147 .8324872 0
.8564155 .8324546 0
.8775235 .8324484 0
.8973668 .8324685 0
.9162561 .8323796 0
.9339383 .8324879 0
.9507278 .8325108 0
.9668072 .8323251 0
.9819817 .8321469 0
.9962714 .8319755 0
.9999999 .8318263 0
0 .8556769 0
0 .8556558 0
0 .855632 0
.09288157 .855598 0
.1601001 .8555578 0
.2160929 .8555118 0
.2671652 .8554564 0
.3152516 .8553821 0
.3614132 .8553545 0
.4058184 .8553311 0
.4485793 .8552709 0
.4891665 .8552315 0
.5280929 .8552622 0
.5647762 .8553998 0
.6005242 .855468 0
.6341826 .8556136 0
.6665888 .8557867 0
.697623 .8560101 0
.7282591 .855845 0
.7573494 .8555348 0
.7842686 .8553455 0
.8097261 .8552895 0
.8338244 .8552343 0
.8563091 .8551111 0
.8774316 .854977 0
.8974623 .8548499 0
.9163228 .8548024 0
.9341825 .8546758 0
.9510493 .8545641 0
.966644 .8547911 0
.9818041 .8546188 0
.9960974 .8544534 0
.9999999 .8543093 0
0 .877096 0
0 .8770803 0
0 .8770632 0
.08700318 .8770465 0
.1568919 .8770515 0
.2140641 .8770578 0
.265839 .8770652 0
.3143824 .8770739 0
.3606369 .877037 0
.4051962 .8769602 0
.447715 .876846 0
.4884024 .8767889 0
.5275671 .8767573 0
.5646371 .8768423 0
.6002942 .8768663 0
.6343252 .877095 0
.6667903 .877291 0
.6976554 .8774454 0
.7272559 .877481 0
.7569454 .8770543 0
.784279 .8767865 0
.809785 .8766995 0
.8336243 .8765934 0
.8561078 .8764232 0
.8772947 .8762773 0
.8974037 .8761224 0
.9163778 .8759799 0
.9342018 .8759143 0
.9510788 .8757564 0
.967097 .8755198 0
.9818099 .8756967 0
.9959272 .875697 0
.9999999 .8755687 0
0 .8975133 0
0 .8975155 0
0 .8975182 0
.08407452 .8975218 0
.1551072 .8975047 0
.2129568 .8975161 0
.2651512 .8974629 0
.3139878 .8974006 0
.3604012 .8973299 0
.4045846 .8972399 0
.4471235 .897158 0
.4879012 .8970944 0
.5271429 .8970733 0
.5648575 .8970911 0
.6001496 .8972769 0
.6342829 .8973739 0
.6667861 .8974938 0
.6978105 .8975361 0
.727409 .8976064 0
.7560383 .8975077 0
.7842131 .8970758 0
.8096654 .8968641 0
.8334392 .8966902 0
.8558799 .8965371 0
.8771267 .8963904 0
.8973175 .8962355 0
.9162913 .8960891 0
.9342185 .8959368 0
.9510562 .8958563 0
.9669991 .8956701 0
.9820891 .8954492 0
.9962524 .8954459 0
.9999999 .8957387 0
0 .9167354 0
0 .916728 0
0 .9167124 0
.08229471 .9166867 0
.1544574 .9166523 0
.2125151 .9166094 0
.2648122 .9165576 0
.3137461 .916498 0
.3598287 .9164459 0
.4041361 .9163983 0
.446744 .9163264 0
.4876661 .9162593 0
.5267815 .9162305 0
.564 .9163589 0
.5996903 .9164576 0
.6339171 .916462 0
.6668251 .9164601 0
.6980078 .916509 0
.7276949 .9165581 0
.755852 .916619 0
.7834508 .9163016 0
.8094296 .9158481 0
.8332499 .9156476 0
.8556633 .9155059 0
.8769683 .9153565 0
.8971648 .9152037 0
.9162201 .915055 0
.9341003 .9149141 0
.9509743 .9147666 0
.9668702 .9147423 0
.9820725 .9145567 0
.9964061 .9144233 0
.9999999 .9143246 0
0 .9346328 0
0 .9346107 0
0 .9346088 0
.08167884 .9346061 0
.1542762 .9346025 0
.2124404 .9345638 0
.2647901 .9345129 0
.3131704 .9344748 0
.359513 .9344455 0
