luts/Timeless 12.cube
# 3D LUT of size 33x33x33 converted by Filestar.
#   Input:
#     color space: sRGB
#     white point: default (D65)
#     transfer function: default (sRGB)
#   Output:
#     color space: sRGB
#     white point: default (D65)
#     transfer function: default (sRGB)
#   Exposure: +0.74
#   Contrast: +23
#   Whites: +28
#   Blacks: -30
#   Vibrance: +5
LUT_3D_SIZE 5
0 .00121253 .00968886
.337044 0 0
.6517218 0 0
.898236 0 0
.9999999 0 0
0 .3388154 0
.3486811 .3387643 0
.6597973 .3473237 0
.9023065 .3457536 0
.9999999 .3508653 0
0 .6649812 0
.3524897 .6663669 0
.6708722 .6670721 0
.9057509 .6696045 0
.9999999 .668658 0
0 .9009186 0
.3514127 .901203 0
.6670758 .9030356 0
.8977003 .9006327 0
.9999999 .8972314 0
0 .9999999 0
.3562712 .9999999 .01688292
.6667011 .9999999 0
.8764964 .9999999 0
.9999999 .9999999 0
0 0 .3420366
.3449003 0 .3420961
.6593975 0 .347211
.9014148 0 .3458547
.9999999 0 .3414128
0 .3387869 .3449171
.3510205 .3330191 .3419313
.6635715 .3407203 .3414146
.9023966 .3343698 .3403938
.9999999 .334934 .3375095
0 .6660175 .3320273
.327033 .6672903 .330674
.6688653 .6672292 .3310403
.9077098 .6677212 .3254112
.9999999 .6658719 .3369157
0 .9012675 .3292776
.3324831 .9010977 .3323881
.6664485 .9026186 .3337734
.9002506 .9007757 .3234309
.9999999 .896111 .3259882
0 .9999999 .3616734
.3562106 .9999999 .3723585
.6624603 .9999999 .3751888
.8766606 .9999999 .3604148
.9999999 .9999999 .3532785
0 0 .664211
.3536181 0 .6657649
.6671319 0 .6683295
.9047788 0 .6685262
.9999999 0 .6687132
0 .3384444 .6676121
.342851 .3325522 .6678681
.670781 .3258254 .6689422
.9061845 .3261497 .6674654
.9999999 .3268465 .6668639
0 .6671616 .6688946
.3236883 .667658 .6687862
.6632931 .6658891 .6639274
.9002017 .6658263 .6663159
.9999999 .6675399 .6677609
0 .901938 .6655902
.3174245 .9007376 .6652206
.6639655 .8989196 .6645639
.9015461 .898267 .6612737
.9999999 .8940762 .6629118
0 .9999999 .6649162
.3641774 .9999999 .6620165
.6745838 .9999999 .676102
.8809028 .9999999 .6765513
.9999999 .9999999 .6731901
0 0 .9014639
.3461297 0 .9021668
.6681305 0 .9036697
.9040569 0 .9044414
.9999999 0 .9004095
0 .3314982 .9022622
.3295833 .3311139 .9031846
.6617902 .331456 .9036425
.9057096 .324673 .9033343
.9999999 .3201154 .9000067
0 .665332 .9011807
.3196331 .6644377 .9002241
.6636902 .6617917 .8989839
.9052029 .6622844 .8995094
.9999999 .665714 .8982994
0 .9007248 .9013889
.3179866 .9009545 .9012455
.660498 .9001296 .8996159
.8952136 .8964472 .8977758
.9999999 .89895 .8975814
0 .9999999 .8907467
.3841357 .9999999 .8901222
.6978571 .9999999 .8933127
.8996781 .9999999 .9021648
.9999999 .9999999 .9036072
0 0 .9999999
.3611374 0 .9999999
.6621482 .0214585 .9999999
.8944307 0 .9999999
.9999999 0 .9999999
0 .3471903 .9999999
.3527958 .351106 .9999999
.6646991 .3695116 .9999999
.8929297 .3568401 .9999999
.9999999 .3378831 .9999999
0 .6652696 .9999999
.3490216 .6643977 .9999999
.6682832 .6694493 .9999999
.8867199 .6772604 .9999999
.9999999 .6715771 .9999999
.2252068 .8796685 .9999999
.4287988 .881691 .9999999
.6971458 .8876523 .9999999
.8970274 .8974545 .9999999
.9999999 .9023719 .9999999
.2915516 .9999999 .9999999
.4696711 .9999999 .9999999
.718017 .9999999 .9999999
.9305968 .9999999 .9999999
.9982533 .9999999 .9999074
