luts/Timeless_48.cube
# 3D LUT of size 33x33x33 converted by Filestar.
#   Input:
#     color space: sRGB
#     white point: default (D65)
#     transfer function: default (sRGB)
#   Output:
#     color space: sRGB
#     white point: default (D65)
#     transfer function: default (sRGB)
#   Exposure: +0.25
#   Contrast: -75
#   Whites: -26
#   Blacks: -7
#   Vibrance: +30
LUT_3D_SIZE 33
.04933187 .00927692 .02482021
.06416305 .00408626 .02554646
.08405594 0 .02594393
.1076706 0 .02630907
.1360461 0 .02843956
.1687361 0 .02253483
.2009935 0 .0140219
.234972 0 .01453856
.2688046 0 .01057658
.3034308 0 .00589643
.3393523 0 0
.3752159 0 0
.4104884 0 0
.4446703 0 0
.4778469 0 0
.510106 0 0
.5419523 0 0
.5723823 0 0
.6029769 0 0
.6332058 0 0
.6633657 0 0
.6927742 0 0
.7220587 0 0
.7506536 0 0
.7789531 0 0
.8066768 0 0
.8339343 0 0
.8609584 0 0
.8875768 0 0
.9136978 0 0
.9389957 0 0
.9637101 0 0
.9860745 0 0
.04831858 .0233091 .02370276
.06474589 .01514468 .02541008
.08306017 .01567582 .02570065
.1065679 .01542187 .02654065
.1365318 .01344737 .02496778
.1702229 .00851539 .02057394
.2026148 .00890915 .01761977
.2360711 .00688139 .01599438
.2699676 .00617912 .01082905
.3049403 .00712169 .00252101
.3407491 .00544336 0
.3763435 .00444812 0
.4111604 .00240472 0
.4451376 .00122567 0
.4779316 0 0
.5102864 0 0
.5421166 0 0
.5724335 0 0
.6030282 0 0
.6331518 0 0
.6633333 0 0
.6927285 0 0
.7219858 0 0
.7506059 0 0
.7788727 0 0
.806596 0 0
.8338645 0 0
.8609383 0 0
.8875574 0 0
.9137313 0 0
.9390507 0 0
.9636649 0 0
.9860503 0 0
.02213788 .05825859 .01709702
.0521763 .05787292 .01806883
.07550732 .05568357 .01961997
.1033863 .05397906 .02120827
.1367137 .0532597 .02075709
.1691139 .05423845 .01651415
.2020692 .05366835 .01547576
.2366448 .05248852 .01432637
.2713943 .04769177 .00919662
.3064151 .04835941 0
.3420918 .04714272 0
.3771542 .04487261 0
.4117054 .04318339 0
.4453161 .04259412 0
.4781027 .03950238 0
.510354 .0332426 0
.5421864 .02377812 0
.5724258 .01967146 0
.6030344 .01401216 0
.6330276 .00978064 0
.6632133 .00222135 0
.6926342 0 0
.7218839 0 0
.7505948 0 0
.7787732 0 0
.8065033 0 0
.8337804 0 0
.8609113 0 0
.8875375 0 0
.9137328 0 0
.9391103 0 0
.9636165 0 0
.986023 0 0
0 .09898902 .00665126
.03497011 .09863967 .00781535
.06885938 .09839538 .00919462
.1014098 .09837393 .01125916
.1332113 .09877454 .01489728
.1672559 .09805086 .0135863
.2021351 .09758342 .00864339
.2377936 .09659 .0022786
.2723055 .09417484 0
.3071424 .09139147 0
.3428284 .08799604 0
.3774957 .08677723 0
.4117462 .08634678 0
.4454281 .08572922 0
.4781858 .08323046 0
.5104553 .0796017 0
.5421431 .07411919 0
.5723505 .0717225 0
.6029179 .06813865 0
.6330391 .06528448 0
.6629692 .05974682 0
.6924901 .05359087 0
.7217333 .04736613 0
.7504526 .03919933 0
.778617 .03279518 0
.8063555 .0241544 0
.8336389 .01637134 0
.8608558 .006765 0
.88749 0 0
.9136878 0 0
.9392205 0 0
.9636617 0 0
.9859616 0 0
0 .1363657 .00495219
.02434946 .1360388 .00433529
.06415168 .1355403 .00387034
.1001891 .1350338 .00363974
.1353135 .1342511 .00456922
.1693463 .1340983 .00343754
.203663 .1337259 0
.238667 .1324683 0
.2738447 .130244 0
.3079945 .1286945 0
.3428153 .1269237 0
.3774353 .125916 0
.4116843 .1259287 0
.4453149 .1241117 0
.4781511 .1222538 0
.5104443 .1198086 0
.5419924 .1160852 0
.5721102 .1149123 0
.602749 .1124098 0
.6330584 .1103254 0
.6626168 .1072878 0
.6922157 .1036591 0
.7214554 .09988884 0
.7502139 .09537788 0
.7785426 .09070327 0
.8061789 .08801436 0
.8334618 .08362975 0
.8607884 .07734718 0
.887412 .07106855 0
.9136247 .0642401 0
.9391305 .05793881 0
.9638174 .05449954 0
.9858806 .04534203 0
0 .1697486 0
.02406654 .1695242 0
.06257626 .169272 0
.1003535 .1690681 0
.1353815 .1689387 0
.170218 .1684101 0
.2036301 .1691618 0
.2393291 .1677931 0
.2749643 .1669403 0
.3090209 .1665982 0
.343158 .1656803 0
.377558 .1650077 0
.4113904 .1636126 0
.4450054 .1616154 0
.4780043 .1598114 0
.5103441 .1575334 0
.5418004 .1544385 0
.5718043 .1536455 0
.6025311 .1519873 0
.6327736 .1503678 0
.6623161 .148035 0
.6918517 .1457488 0
.7210853 .1430018 0
.7498819 .1399797 0
.7782394 .1371794 0
.8059179 .1356612 0
.8333648 .1324127 0
.8606637 .1284045 0
.8872982 .1243797 0
.9134916 .1203743 0
.9389615 .1168207 0
.9638141 .1131933 0
.9857792 .1097755 0
0 .2049504 0
.02221832 .2047185 0
.06172001 .2047038 0
.0995822 .2044842 0
.1362661 .2043034 0
.1708471 .2041446 0
.2049635 .204237 0
.2389339 .2041187 0
.2757972 .2038183 0
.3100235 .2035406 0
.3442777 .2032405 0
.3779902 .202234 0
.4114151 .2003612 0
.4448075 .197884 0
.4777079 .1964367 0
.5101498 .1942289 0
.54136 .1920356 0
.5714757 .1913352 0
.6021312 .1899862 0
.632407 .1887895 0
.6619759 .1865256 0
.6914546 .1847359 0
.7206225 .1825385 0
.7494919 .1804013 0
.7778637 .1787086 0
.8056523 .1770864 0
.8332683 .1755654 0
.8603976 .1725127 0
.8870541 .1693948 0
.9132165 .1664157 0
.9386469 .1638283 0
.9635338 .1612799 0
.9855446 .1587371 0
0 .2395334 0
.0157472 .2395755 0
.05776739 .2396226 0
.09732042 .2396905 0
.1348262 .2399311 0
.1700673 .2402045 0
.205365 .2399051 0
.2400937 .239916 0
.2750499 .2404542 0
.3108612 .2398809 0
.3452277 .2393278 0
.3788051 .237886 0
.4117749 .2359879 0
.4446844 .2343666 0
.4778407 .2317964 0
.5098335 .2299959 0
.5406414 .2284506 0
.5710341 .2277157 0
.6015933 .2267121 0
.6319869 .2256301 0
.6615869 .2239787 0
.6910431 .2226867 0
.7201031 .221379 0
.7489388 .2201658 0
.7773306 .218666 0
.8052544 .2169721 0
.8331035 .2148468 0
.8600805 .2129805 0
.8867762 .2103389 0
.9128086 .2080387 0
.9382718 .2058785 0
.9631885 .2035699 0
.9853505 .2010751 0
0 .2752661 0
0 .2752405 0
.04298583 .2751988 0
.08898167 .2751383 0
.1296615 .2751984 0
.1683465 .2752827 0
.2053854 .2750576 0
.241661 .2751528 0
.276718 .2754317 0
.3100111 .2759996 0
.3448539 .2745689 0
.379308 .2729125 0
.4126086 .2713139 0
.4452164 .269428 0
.4775357 .2677084 0
.5099453 .2649783 0
.5399445 .2639152 0
.5704674 .263266 0
.6014328 .262357 0
.6313803 .2614471 0
.6610689 .2602676 0
.6905467 .2594879 0
.7196597 .2589201 0
.7483725 .2581021 0
.7766554 .2570719 0
.8049884 .2552681 0
.8327777 .2534065 0
.8597925 .2513722 0
.886315 .2494845 0
.9123265 .2471628 0
.9378524 .2448076 0
.9628082 .2423478 0
.9849893 .2405502 0
0 .3103418 0
0 .3103312 0
.01915563 .3103193 0
.07524096 .3103023 0
.121608 .3102502 0
.1632683 .310063 0
.2031246 .3099065 0
.2409932 .3095731 0
.277579 .3092319 0
.3113724 .3095086 0
.3440036 .3092851 0
.3785122 .3079607 0
.4129408 .3062216 0
.4458523 .3042949 0
.4779653 .3022577 0
.5092897 .3009445 0
.5398707 .2991966 0
.5705705 .2979549 0
.6005458 .2980034 0
.6305124 .2966959 0
.6605085 .2959764 0
.6900635 .2954864 0
.7192077 .2950112 0
.7479069 .2945173 0
.7764485 .2935121 0
.8047655 .292333 0
.8323841 .2906535 0
.8592991 .2888687 0
.8858724 .2869162 0
.9117573 .284925 0
.9373683 .2820355 0
.962488 .2792731 0
.984643 .2779076 0
0 .3441148 0
0 .344113 0
.00210095 .3441094 0
.06466443 .3440605 0
.114598 .3438612 0
.1578237 .3436827 0
.1984194 .3436163 0
.2369425 .3434907 0
.2745686 .3430426 0
.3116369 .3425659 0
.345291 .3422149 0
.3778175 .3416527 0
.4116528 .3407353 0
.4456081 .3393666 0
.4782656 .3374867 0
.5094182 .335582 0
.5402721 .3344421 0
.5706716 .3330728 0
.6012848 .3318121 0
.6304755 .3313744 0
.6596742 .331623 0
.6893627 .3310918 0
.7186179 .3305322 0
.7478308 .3294691 0
.7763815 .3288655 0
.8045687 .3280413 0
.8318099 .3269174 0
.8587385 .3248149 0
.885374 .3225388 0
.9114191 .32014 0
.9368944 .3183325 0
.9621026 .3162436 0
.9841762 .3149198 0
0 .3774246 0
0 .3773776 0
0 .3773241 0
.04082289 .377236 0
.1011735 .3770781 0
.1490829 .3768764 0
.1921498 .3767328 0
.2327682 .3765442 0
.2718094 .3760476 0
.3089645 .3757873 0
.3447309 .3755276 0
.3779874 .3747549 0
.4105671 .3740719 0
.4443638 .3731242 0
.4772976 .3721077 0
.5093221 .3707414 0
.5406373 .3693806 0
.5713588 .368376 0
.6008564 .3672647 0
.6308908 .3659881 0
.6604922 .3654305 0
.689299 .3654621 0
.7183259 .3651951 0
.7475728 .3644266 0
.7763484 .3637634 0
.8042837 .3624129 0
.8313828 .3610475 0
.8583111 .3590853 0
.8847992 .3573875 0
.9109285 .3554327 0
.9366561 .3531791 0
.9615608 .3518807 0
.9833615 .3516534 0
0 .4100328 0
0 .4100616 0
0 .4100849 0
.0107439 .4100949 0
.08507784 .4100121 0
.1380797 .4098177 0
.1836988 .4095336 0
.226437 .4090581 0
.2671383 .4086436 0
.3051075 .4082106 0
.3414595 .4080484 0
.3762851 .4076702 0
.4097622 .4068909 0
.4414479 .4064819 0
.4746759 .4055402 0
.5077463 .4046852 0
.5406906 .4038357 0
.5719201 .4030068 0
.6012407 .4018947 0
.6308963 .401285 0
.6610048 .3999744 0
.6908683 .3984498 0
.7196238 .3981684 0
.7475794 .3982175 0
.7758325 .3974642 0
.8036372 .3959723 0
.8307743 .394372 0
.857692 .3931473 0
.8841584 .3918688 0
.9103926 .3902484 0
.935972 .3887252 0
.9609339 .3872198 0
.9831173 .3864863 0
0 .4422158 0
0 .4422212 0
0 .442229 0
0 .4422416 0
.07062297 .4422586 0
.128737 .4421136 0
.1773153 .4418113 0
.2210695 .4414504 0
.2621923 .441029 0
.3007593 .4405918 0
.3375231 .4403299 0
.373194 .4401308 0
.4073387 .4398736 0
.4403375 .4395652 0
.4718843 .4393979 0
.5056762 .4384466 0
.5393643 .4375165 0
.5708884 .4368007 0
.6016859 .4357253 0
.632153 .434543 0
.6622735 .4333949 0
.6919867 .432137 0
.7209783 .4308842 0
.7489725 .4303255 0
.7759716 .4300234 0
.8022343 .4301814 0
.8294911 .4291516 0
.8566447 .4276249 0
.8833763 .4259752 0
.9097071 .4243188 0
.9352485 .4229315 0
.9604462 .4216499 0
.982879 .4203295 0
0 .4740241 0
0 .4740376 0
0 .4740477 0
0 .4740606 0
.06393568 .4740778 0
.1238852 .4740716 0
.1725251 .4739339 0
.2171242 .4736254 0
.2587595 .4732655 0
.2985426 .4728525 0
.3353907 .4723886 0
.3701906 .4723171 0
.4039811 .4723513 0
.4375126 .4720758 0
.4708011 .4719221 0
.5054545 .4715813 0
.5386883 .4704967 0
.5705424 .4687986 0
.6022708 .4675317 0
.6329307 .4662403 0
.6628127 .465535 0
.6920753 .4652421 0
.7210371 .4647919 0
.7492875 .4640098 0
.7766056 .4630721 0
.803166 .4622302 0
.829621 .4615937 0
.8554741 .4611529 0
.8824309 .4594574 0
.9089613 .4576365 0
.934782 .4563161 0
.9599342 .4548412 0
.9822213 .4534571 0
0 .5058363 0
0 .5058506 0
0 .5058667 0
0 .5058898 0
.05716334 .5059145 0
.1195299 .5058953 0
.1680248 .5058716 0
.212335 .5057363 0
.2548832 .5054281 0
.2953018 .5050744 0
.3333447 .5047032 0
.3678668 .5043501 0
.401544 .5041669 0
.4349191 .5040482 0
.4703621 .5035825 0
.5046113 .5029811 0
.5375805 .5021187 0
.5699732 .5013575 0
.6016998 .5001023 0
.6322205 .4990357 0
.6620258 .4981849 0
.6916161 .4973701 0
.7205058 .4968917 0
.7483054 .4964394 0
.7756911 .4957392 0
.8032148 .4944662 0
.8305165 .4930283 0
.8568268 .4919948 0
.882765 .4911028 0
.9083363 .4907328 0
.9342226 .488963 0
.9593849 .4875928 0
.9816903 .4863912 0
0 .5374242 0
0 .5373971 0
0 .5373634 0
0 .537315 0
.04640643 .5372503 0
.1140283 .53717 0
.1641567 .5370633 0
.2082305 .5369595 0
.2505181 .5367278 0
.291508 .5363025 0
.3296587 .5359064 0
.3656883 .5353584 0
.3998214 .5350499 0
.4350277 .5346381 0
.4694953 .5341035 0
.5034209 .5336844 0
.5363249 .5335122 0
.5683239 .5331335 0
.5999053 .5323778 0
.6306819 .5313019 0
.660989 .5298454 0
.690541 .5287578 0
.7192776 .5280544 0
.7475324 .5275451 0
.7747933 .5273691 0
.8024073 .5269524 0
.8298652 .5256978 0
.8570194 .5242894 0
.8837811 .5229225 0
.9098004 .5215453 0
.9345877 .5207228 0
.9587558 .5203265 0
.9811382 .5191348 0
0 .56805 0
0 .568031 0
0 .5680095 0
0 .5679788 0
.03186631 .5679376 0
.1071579 .5678842 0
.1594028 .5678089 0
.204526 .5677155 0
.2462682 .5676132 0
.287205 .5672986 0
.3258752 .5668851 0
.3629349 .5663999 0
.4001774 .5657046 0
.43518 .5651147 0
.4692357 .5644362 0
.5023543 .5641159 0
.5343645 .5641882 0
.5664512 .5639876 0
.5981822 .5635128 0
.6292527 .5627028 0
.6595069 .5618848 0
.6888666 .5605766 0
.7177163 .559225 0
.745999 .5585306 0
.7744843 .5581829 0
.802016 .558095 0
.8294124 .5574346 0
.8566495 .556376 0
.8834891 .5550078 0
.9096162 .5535479 0
.9349471 .5526643 0
.9595924 .5521023 0
.981795 .5514475 0
0 .5981798 0
0 .5981488 0
0 .5981137 0
0 .5980635 0
.01480986 .5979962 0
.09885833 .5979183 0
.1538328 .5978318 0
.2002802 .5977287 0
.2426881 .5976084 0
.2827217 .5974708 0
.3219073 .5971494 0
.3613776 .5966054 0
.3989298 .5960942 0
.4338323 .5955971 0
.4676209 .595237 0
.500398 .5948705 0
.5327067 .5944826 0
.564801 .5942692 0
.5964241 .5939963 0
.6278954 .5936088 0
.6580343 .5927112 0
.6873983 .5920743 0
.715959 .591049 0
.7449112 .5897661 0
.7733422 .5889369 0
.8015058 .5885665 0
.8290367 .5883372 0
.8562759 .5874242 0
.8831353 .5865238 0
.9091777 .5859126 0
.9344596 .5853756 0
.9594454 .5846092 0
.9819395 .5838126 0
0 .6278712 0
0 .6278449 0
0 .6278151 0
0 .6277724 0
0 .6277153 0
.0886915 .6276428 0
.1473591 .6275566 0
.1954351 .6274618 0
.2387642 .627358 0
.2809857 .6272745 0
.3188409 .627184 0
.3574875 .6268556 0
.3951074 .626476 0
.4314089 .626047 0
.4649359 .6256745 0
.4981784 .6252656 0
.5309054 .624831 0
.5631315 .6243392 0
.594902 .624 0
.6259643 .6236888 0
.6566616 .623418 0
.6863432 .6225639 0
.7149229 .6220562 0
.7439082 .621049 0
.7723125 .6197616 0
.8005992 .6188225 0
.8282936 .6189212 0
.8558605 .6186962 0
.8827025 .6181617 0
.9085336 .6175995 0
.9338977 .6169487 0
.9592459 .6160352 0
.9817068 .6153154 0
0 .6570458 0
0 .6571172 0
0 .6571962 0
0 .6571904 0
0 .6571829 0
.07697848 .6571826 0
.1414434 .6572047 0
.1923568 .6571758 0
.2353188 .6571584 0
.2764456 .6570846 0
.3161836 .6569609 0
.354324 .6567048 0
.3921617 .6563513 0
.4284754 .6560192 0
.4626722 .6556389 0
.4960127 .6551874 0
.5288152 .6547688 0
.5609458 .654357 0
.5924319 .6540085 0
.6235688 .6536958 0
.6544586 .6533836 0
.6845559 .6530611 0
.7147232 .6520827 0
.7435066 .6518075 0
.7716128 .6513971 0
.7994675 .6504967 0
.8271517 .6497117 0
.854917 .6491386 0
.881673 .6487542 0
.9078333 .6483781 0
.9335085 .6477196 0
.958862 .647033 0
.9813219 .646389 0
0 .6872519 0
0 .687236 0
0 .6872243 0
0 .6872068 0
0 .6871883 0
.04362822 .6871672 0
.1218761 .687174 0
.1786947 .686998 0
.2266889 .6868449 0
.2699845 .686718 0
.3104461 .6865702 0
.3484852 .6864308 0
.3858671 .6861716 0
.4226353 .6858801 0
.4585199 .6855774 0
.4922442 .6850912 0
.5254889 .6846543 0
.5580726 .6842487 0
.5899861 .6838367 0
.6212848 .683489 0
.652016 .6832381 0
.6833766 .6831154 0
.7134098 .6830758 0
.7431687 .6821247 0
.7715735 .6815935 0
.7993987 .6810915 0
.8265795 .6802635 0
.8534195 .6793293 0
.8798292 .6791005 0
.9060231 .6789402 0
.932276 .6785208 0
.9584282 .6775513 0
.9808449 .6769712 0
0 .7163896 0
0 .7163838 0
0 .7163793 0
0 .7164302 0
0 .7164244 0
0 .7163745 0
.09808136 .7162986 0
.1627105 .7162122 0
.213416 .7159951 0
.2588139 .7156848 0
.3012046 .7155095 0
.3434905 .7151924 0
.3802271 .7151414 0
.4179651 .7148631 0
.4540485 .7146377 0
.4892519 .7145395 0
.5229401 .7142807 0
.5562267 .7140195 0
.5885877 .7137913 0
.6198474 .7136732 0
.6512005 .7134221 0
.6818771 .7129368 0
.7121357 .7124122 0
.7416896 .7121713 0
.771 .711132 0
.7991763 .7104463 0
.8263283 .7100397 0
.8527685 .7094527 0
.8791584 .7085419 0
.9058818 .7080192 0
.9320216 .7075201 0
.9575816 .7071278 0
.9802082 .7067729 0
0 .744945 0
0 .7449173 0
0 .7448862 0
0 .7448415 0
0 .7447796 0
0 .7447011 0
.07211675 .7446116 0
.1475309 .7445383 0
.202955 .7444953 0
.2501805 .7444965 0
.2938704 .7444344 0
.3355772 .7443732 0
.3745345 .7444079 0
.4120305 .7444125 0
.4506734 .7443151 0
.4869097 .7442569 0
.5210694 .7438172 0
.5539728 .7433566 0
.5866891 .7428628 0
.6194097 .7423495 0
.6509301 .7418393 0
.6814681 .7414724 0
.7114197 .7413042 0
.740687 .7411633 0
.7696463 .7409781 0
.7981455 .740025 0
.8252503 .7393224 0
.8520966 .7388487 0
.8791917 .7380425 0
.9057608 .7369598 0
.9318776 .736408 0
.9572404 .7360896 0
.9797359 .7357518 0
0 .7735332 0
0 .7735253 0
0 .7735162 0
0 .7734936 0
0 .773469 0
0 .7734674 0
.0340749 .7734612 0
.131285 .7734605 0
.1929012 .7734608 0
.2434918 .7733955 0
.2890615 .7733179 0
.331636 .7732043 0
.3706962 .7731802 0
.4082247 .7731405 0
.4455784 .7730108 0
.4820152 .7727284 0
.5181828 .7723661 0
.5510623 .7718299 0
.5844857 .7713514 0
.616854 .7708228 0
.6487054 .7702531 0
.6797568 .7698156 0
.7099722 .7693521 0
.7395436 .7689958 0
.7686114 .7687517 0
.7969879 .76864 0
.8248557 .7676536 0
.8524427 .7668742 0
.8791754 .7665946 0
.9055609 .7658573 0
.93158 .7649758 0
.9570996 .7643897 0
.9794734 .7641229 0
0 .8015862 0
0 .8015749 0
0 .8015621 0
0 .8015439 0
0 .8015195 0
0 .8014881 0
0 .8014427 0
.1142863 .8013685 0
.1814965 .8012924 0
.2350741 .8012054 0
.2824529 .8011069 0
.326207 .8009971 0
.3661618 .8009405 0
.4040226 .8008385 0
.4404547 .8007122 0
.476863 .8005021 0
.5134838 .8002121 0
.5484164 .7996804 0
.581853 .7990553 0
.6147211 .7985827 0
.6467313 .7980151 0
.6777317 .7975022 0
.7080703 .797011 0
.7380215 .7965528 0
.7670022 .7964409 0
.7956485 .796235 0
.8245184 .7960393 0
.8523316 .7953344 0
.8795185 .7945432 0
.9057841 .7942701 0
.9315293 .7940086 0
.9569175 .7935012 0
.9796364 .7928576 0
0 .8289334 0
0 .8289165 0
0 .8288973 0
0 .8288698 0
0 .8288437 0
0 .8288139 0
0 .8287774 0
.09364531 .8287339 0
.1679572 .8286815 0
.2250473 .8285977 0
.2744861 .8285092 0
.3186267 .8283992 0
.3586537 .8283247 0
.3970588 .8282306 0
.4342072 .8281084 0
.4714102 .8279468 0
.5087789 .8276544 0
.5448791 .8272824 0
.5791262 .8266349 0
.61196 .8260295 0
.6448228 .8253832 0
.6761768 .8249018 0
.7065384 .8245877 0
.7362064 .8243709 0
.7654271 .8241252 0
.7946782 .8238694 0
.8234063 .823612 0
.8516424 .8234394 0
.8792208 .822778 0
.9063195 .8222608 0
.9320728 .8222585 0
.9572802 .8222275 0
.9797166 .8219881 0
0 .8558534 0
0 .855837 0
0 .8558189 0
0 .8557926 0
0 .8557578 0
0 .8557113 0
0 .8556511 0
.0687238 .8555793 0
.1550558 .8554954 0
