luts/Timeless 21.cube
# 3D LUT of size 33x33x33 converted by Filestar.
#   Input:
#     color space: sRGB
#     white point: default (D65)
#     transfer function: default (sRGB)
#   Output:
#     color space: sRGB
#     white point: default (D65)
#     transfer function: default (sRGB)
#   Exposure: +0.53999996
#   Contrast: -26
#   Whites: +22
#   Blacks: -61
#   Vibrance: +20
#   Saturation: +9
LUT_3D_SIZE 5
.0306239 .01605359 .00988733
.05945121 .01609962 .01667893
.5493696 0 0
.8474963 0 0
.9999999 0 0
0 .2017739 0
.1712014 .2150868 0
.5528772 .2400319 0
.8448024 .2675513 0
.9999999 .265786 0
0 .5948161 0
.2439591 .5954077 0
.5794685 .5969217 0
.8611056 .6098277 0
.9999999 .6098967 0
0 .8859801 0
0 .8859308 0
.5678874 .8845832 0
.8591298 .8798805 0
.9999999 .8737493 0
0 .9999999 0
0 .9999999 0
.5152622 .9999999 0
.833804 .9999999 0
.9999999 .9999999 0
0 .02271098 .1535038
.1281252 0 .1634388
.5625319 0 .2040949
.8654905 0 .1477403
.9999999 0 .03823663
0 .2162506 .1681775
.2071121 .2093009 .155608
.5765286 .2014808 .1219467
.87314 .1493484 0
.9999999 .07748175 0
0 .6062773 0
.00240146 .6065083 0
.5836935 .6015267 0
.8724226 .6030362 0
.9999999 .5865771 0
0 .8908157 0
0 .8902678 0
.5438207 .889219 0
.8625935 .8827103 0
.9999999 .8727061 0
0 .9999999 0
0 .9999999 0
.4731251 .9999999 0
.8318153 .9999999 0
.9999999 .9999999 0
0 .01354583 .5442403
.2005264 0 .5441476
.5809823 0 .5432298
.8748104 0 .5542194
.9999999 0 .5418045
0 .2136508 .552734
.14139 .1851618 .553569
.5966846 .1307192 .5474818
.8866352 0 .5402944
.9999999 0 .5186672
0 .611198 .538605
0 .6106266 .5337902
.5751517 .6023754 .5139096
.8818223 .586031 .5105387
.9999999 .5678846 .489682
0 .8937765 .4675112
0 .8933067 .4566571
.5107837 .8908973 .4329259
.864365 .8822378 .4125021
.9999999 .8639631 .3556944
0 .9999999 .3342279
0 .9999999 .3388174
.4112114 .9999999 .2864331
.8111716 .9999999 .2367108
.9999999 .9999999 .186408
0 0 .8279441
.2521428 0 .8288909
.6074739 0 .8310976
.8789639 0 .8309391
.9999999 0 .8267495
0 .1693238 .8349235
.1091453 .1374677 .8352578
.5891165 .03160441 .8353654
.8866439 0 .8337916
.9999999 0 .8244385
0 .5940055 .8313327
0 .5856473 .8303505
.5563574 .5751448 .8294719
.8826056 .5651564 .826571
.9999999 .5633416 .8109153
0 .8951473 .8128664
0 .8937911 .8108835
.5026229 .8878703 .8066156
.8601348 .8770944 .7970708
.9999999 .8662314 .7921987
0 .9999999 .7610136
0 .9999999 .7567209
.4542042 .9999999 .7590899
.8307902 .9999999 .7615761
.9999999 .9999999 .7513831
0 0 .9999999
.2195217 0 .9999999
.6011941 0 .9999999
.8714545 0 .9999999
.9999999 0 .9999999
0 .1489707 .9999999
.03568837 .1234644 .9999999
.5711484 .01093899 .9999999
.8649369 0 .9999999
.9999999 0 .9999999
0 .5675612 .9999999
0 .5663239 .9999999
.5398321 .5637108 .9999999
.8522193 .5553792 .9999999
.9999999 .5366799 .9999999
0 .8619492 .9999999
0 .8610705 .9999999
.5239874 .8610448 .9999999
.8430258 .8671066 .9999999
.9999999 .8614472 .9983556
0 .9999999 .99617
0 .9999999 .9952239
.4901096 .9999999 .9922782
.857113 .9999999 .984971
.9999999 .9995993 .9862635
