luts/Timeless_47.cube
# 3D LUT of size 33x33x33 converted by Filestar.
#   Input:
#     color space: sRGB
#     white point: default (D65)
#     transfer function: default (sRGB)
#   Output:
#     color space: sRGB
#     white point: default (D65)
#     transfer function: default (sRGB)
#   Exposure: -0.01
#   Contrast: +9
#   Whites: +10
#   Blacks: -20
#   Vibrance: +24
LUT_3D_SIZE 9
0 .07099957 .05889381
.03332799 .05307169 .04736605
.1977492 0 .03207609
.3337885 0 .0091125
.4559397 0 0
.5793721 0 0
.7045083 0 0
.8296495 0 0
.9523006 0 0
0 .1290853 .00532239
.07401202 .1243652 .01539212
.2031904 .1301574 .01373572
.3338226 .1335375 0
.4573482 .1318862 0
.5815116 .1199084 0
.7055396 .1015023 0
.8302736 .08560648 0
.95293 .05602697 0
0 .2670429 0
.09166779 .2667983 0
.216447 .2688548 0
.3385653 .2716101 0
.4608307 .2704579 0
.5827975 .2687374 0
.7068421 .2634822 0
.8312376 .2578457 0
.9537051 .2509241 0
0 .4141909 0
.04797858 .4145004 0
.2122547 .4143758 0
.3413657 .4142477 0
.4638066 .4134344 0
.5863376 .412716 0
.7082324 .4118727 0
.8312242 .4102777 0
.9545181 .4051178 0
0 .5609337 0
0 .5609148 0
.1814123 .5608823 0
.332358 .5601757 0
.4602359 .5596093 0
.5867059 .5584717 0
.7112185 .5572644 0
.8325059 .5567187 0
.9548722 .553023 0
0 .7044386 0
0 .7045616 0
.1512293 .7048743 0
.3143895 .7052405 0
.4576818 .704552 0
.5847891 .7038265 0
.7095262 .7019575 0
.8326014 .7003099 0
.9564844 .6984155 0
0 .8460993 0
0 .846075 0
.1062743 .8460523 0
.2983079 .8460193 0
.4428018 .8461736 0
.5801326 .8454242 0
.7054045 .8455651 0
.8314014 .8437377 0
.9538073 .8416551 0
0 .986954 0
0 .9869428 0
0 .986908 0
.2687376 .9867954 0
.4243862 .9868433 0
.5630773 .9869247 0
.6969183 .9862551 0
.8247313 .9851139 0
.9498839 .9829256 0
0 .9999999 0
0 .9999999 0
0 .9999999 0
.2608963 .9999999 0
.4209674 .9999999 0
.5612459 .9999999 0
.6964653 .9999999 0
.8219302 .9999999 0
.9474762 .9999999 0
0 .04155719 .09291754
.08093626 .0161756 .09515397
.2070217 0 .09877501
.3385539 0 .09095047
.4601762 0 .08034556
.5813127 0 .07126857
.7056038 0 .05513206
.8305183 0 .01977593
.9528314 0 0
0 .1226086 .09869736
.08383477 .1228129 .09760716
.2084504 .126383 .09854671
.3380534 .1271411 .08534845
.4604031 .1216257 .07594796
.5823728 .1109708 .06657726
.7064667 .09463219 .04757297
.8309536 .0777347 .00971251
.9533221 .04348715 0
0 .2684267 .09532955
.07053491 .2692891 .08885928
.2070158 .2717032 .07099339
.3390478 .2719854 .06658464
.4616957 .2692042 .06645872
.5834523 .2674526 .05664798
.7072749 .2629798 .03247322
.8314887 .2567398 0
.954089 .248774 0
0 .4165151 .01525047
0 .4167221 .01173916
.2044233 .4158667 .02006759
.3392107 .4153395 .02552752
.4643151 .4137809 .02376665
.5871599 .412725 .00950768
.7087493 .4116068 .00587279
.8316612 .4088589 0
.9549163 .4042093 0
0 .5619604 0
0 .5621079 0
.1671227 .5622272 0
.3285487 .5611463 0
.4591902 .5606235 0
.5867119 .5592628 0
.7122278 .5573356 0
.8328166 .5566553 0
.9552919 .5525941 0
0 .7049026 0
0 .7050259 0
.1409142 .7052905 0
.3098343 .7056281 0
.4558932 .7049525 0
.5841693 .7044992 0
.7098829 .7022839 0
.8333431 .7004681 0
.9572666 .6982872 0
0 .8463728 0
0 .8463106 0
.08937602 .8462879 0
.2931319 .8462493 0
.4396529 .8464071 0
.5789427 .8457309 0
.7047542 .8458194 0
.8315495 .8439921 0
.9542972 .8417915 0
0 .9871473 0
0 .9871233 0
0 .9870885 0
.2638262 .9870084 0
.4217252 .9869747 0
.5614346 .9870468 0
.6962514 .9864625 0
.8242267 .9853466 0
.9499484 .9830697 0
0 .9999999 0
0 .9999999 0
0 .9999999 0
.2546382 .9999999 0
.4174763 .9999999 0
.5589586 .9999999 0
.69581 .9999999 0
.8214083 .9999999 0
.947519 .9999999 0
0 .01862846 .212821
.07859916 0 .214753
.2135851 0 .2166129
.3427436 0 .2179825
.4635882 0 .2159388
.5856595 0 .2119526
.7075212 0 .2072607
.8316333 0 .1987886
.9535365 0 .192115
0 .120037 .2176612
.08649192 .1188131 .218382
.2124178 .1157727 .2183824
.3425358 .1109323 .2163393
.4638102 .1042742 .2129523
.5857873 .09256462 .2096784
.7081861 .07813335 .2055756
.8320965 .05726321 .1960341
.9542295 .01099612 .1881243
0 .2704929 .2188429
.01466703 .2712654 .2174235
.2003256 .2717041 .2111803
.3365401 .2692941 .2119327
.4636038 .2660506 .2095358
.585262 .2627097 .2085871
.7091092 .2574317 .2023338
.8327225 .2507491 .1926741
.955077 .2422329 .1824025
0 .4179789 .1924812
0 .4179227 .1904333
.1861724 .4181443 .1879964
.3326407 .4175298 .1886095
.4659101 .4145204 .190674
.5874178 .4118733 .2012962
.7102112 .4095871 .1994053
.8326176 .4059189 .1908091
.9558089 .4007452 .1763085
0 .5631096 .1678139
0 .5633056 .1667076
.152025 .5629121 .1680601
.3180598 .5626302 .1677423
.4544771 .5625274 .1683745
.5869651 .560515 .1683905
.7145991 .5572899 .1615153
.8336741 .5554171 .1782449
.9562613 .5507195 .1698989
0 .706049 .1269225
0 .7062157 .1249494
.1044184 .7063871 .118167
.3016686 .7062037 .1193351
.4498405 .7058854 .1261819
.5829319 .705384 .1365706
.7106113 .7031803 .1384616
.8353553 .7007419 .1308455
.9589245 .6978322 .1121699
0 .8470162 .05069896
0 .8470505 .04896999
.03109927 .8468214 .03812437
.2805586 .8467677 .03969872
.4334586 .8468251 .04456031
.574912 .8465487 .06637368
.703003 .8465857 .07485557
.8316453 .8445739 .08463206
.9558581 .8419252 .0768215
0 .9875187 0
0 .9875579 0
0 .9874148 0
.2475674 .9873535 0
.4132341 .9872114 0
.558036 .9870234 0
.6947377 .9867367 0
.8227694 .9859903 0
.9500336 .9836248 0
0 .9999999 0
0 .9999999 0
0 .9999999 0
.2381611 .9999999 0
.4085446 .9999999 0
.5529765 .9999999 0
.6933388 .9999999 0
.8202025 .9999999 0
.9475257 .9999999 0
0 0 .3380618
.07341961 0 .3387653
.213914 0 .3413994
.3417208 0 .3437787
.4650297 0 .3438256
.5881603 0 .3407434
.7101454 0 .3365053
.8338132 0 .3320711
.9553759 0 .3264511
0 .1117656 .3437069
.05610158 .1079585 .3441949
.2070281 .09782321 .3444965
.3428454 .08891527 .3457231
.468747 .08209503 .3442697
.5890228 .06984627 .3394805
.7110823 .0392004 .3349251
.8343262 .00765775 .3310864
.9558691 0 .3240089
0 .2638346 .3444559
0 .2641151 .3449019
.192184 .2645694 .3450442
.3388268 .2605656 .3438838
.4691784 .2554413 .3417805
.5883746 .2528995 .3379525
.7107108 .2509776 .3336369
.8341413 .2427573 .3301608
.9565659 .2308823 .3213438
0 .4186097 .3402642
0 .4185804 .3390339
.1690947 .4183059 .3360881
.3244281 .4168491 .3307635
.4613034 .4141471 .3288856
.5864817 .4109692 .3352867
.711262 .4068529 .3335643
.8339389 .4011897 .3296012
.9571142 .3952306 .318977
0 .5632877 .3194688
0 .5632895 .3183552
.1201953 .5632505 .3160188
.3046675 .5635891 .3143931
.4513411 .563003 .3132322
.5884707 .5605302 .3132701
.717196 .5568341 .3083344
.8349539 .5533233 .3217462
.9576095 .5475065 .315
0 .7067249 .2938846
0 .7068796 .292824
.01884203 .7070336 .2913926
.2829146 .707127 .2891613
.4412667 .7066551 .2883893
.5807151 .7060304 .2893414
.7122219 .7039751 .290019
.8381712 .7002972 .2861908
.9620693 .696095 .2800521
0 .8475 .2657286
0 .8475236 .2650329
0 .847597 .2632849
.2527528 .8479645 .2557669
.4211804 .8479241 .2564327
.566399 .8477386 .2598884
.7017716 .8472306 .2632008
.8318376 .8452739 .2663894
.9571831 .8419058 .263247
0 .9876271 .2337568
0 .9876519 .2335146
0 .9877174 .232596
.2231163 .9875475 .2287195
.3980538 .987717 .2238462
.5492183 .9871665 .2261303
.6901341 .9869114 .2304333
.8203059 .9866136 .2310174
.9492761 .9842138 .2321691
0 .9999999 .2274002
0 .9999999 .2268809
0 .9999999 .2256394
.2134139 .9999999 .221551
.3965006 .9999999 .2191978
.5470833 .9999999 .2196865
.6881104 .9999999 .2240071
.818572 .9999999 .2221915
.9470785 .9999999 .2241524
0 0 .4627845
.04284214 0 .4642881
.2090302 0 .4660695
.3354883 0 .467725
.4640888 0 .4672293
.5879362 0 .4668585
.7123244 0 .463812
.8357862 0 .4594256
.9579371 0 .4545728
0 .1006494 .4669222
0 .09454931 .4673315
.1984152 .07656951 .4687278
.3355604 .05975052 .4693913
.4674286 .04834086 .468366
.5911772 .02866876 .467501
.7132332 .00256217 .4627789
.836212 0 .4580938
.9581957 0 .4535344
0 .2527131 .4693099
0 .2515129 .4695481
.173323 .2495951 .4700553
.3296866 .2453325 .4694793
.4700379 .2386954 .4681259
.5934178 .2399695 .4655234
.7145696 .2370537 .4606514
.8366997 .228936 .4563068
.9586696 .2179091 .4502944
0 .4128566 .4680783
0 .412443 .4679568
.1451817 .4110851 .4677538
.3129221 .4087905 .4672751
.461961 .4048547 .4658413
.5909429 .4028947 .4619077
.7123503 .4031902 .4586363
.8337777 .3998214 .4561872
.9574094 .3922524 .4492853
0 .5632526 .4613945
0 .563373 .4604525
.09153493 .5635824 .4580495
.2953382 .5633175 .4546848
.4442124 .5623547 .4512494
.5883232 .5589318 .4468315
.7132392 .5546924 .4527697
.8342265 .5512955 .4543098
.9575405 .5452937 .4484944
0 .7071796 .4383642
0 .7070724 .4375371
0 .7068106 .4355163
.2651416 .7064899 .432398
.4298059 .7064777 .4308968
.5771034 .7055492 .4302242
.7129019 .7037026 .4307214
.8406886 .6988966 .4245554
.961157 .6946216 .4331907
0 .8485941 .4163598
0 .8485542 .4158594
0 .8484488 .4148106
.2258717 .8485171 .4135403
.4085728 .848392 .4114767
.5606632 .8480061 .4094221
.6994404 .8473535 .4091001
.8329437 .8458124 .4084162
.9589559 .8415802 .4050705
0 .9878321 .3926899
0 .9878488 .392221
0 .9878276 .3914111
.1850132 .9878095 .3905816
.3865393 .9876826 .3896534
.5424014 .9871548 .3890349
.6844968 .9865909 .3913243
.8188794 .986412 .3896664
.948906 .9841065 .3866664
0 .9999999 .3876764
0 .9999999 .3874052
0 .9999999 .3876384
.1776335 .9999999 .3873399
.3838052 .9999999 .3865045
.5405629 .9999999 .3863665
.6816465 .9999999 .3886524
.8157995 .9999999 .3861973
.9468601 .9999999 .382437
0 0 .5858689
.0333754 0 .5866055
.2002525 0 .5881175
.3317273 0 .5891628
.4621564 0 .5902182
.5876854 0 .5900671
.7118005 0 .5894869
.8379971 0 .5873032
.9596812 0 .5834744
0 .07776975 .5882437
0 .07029792 .5886173
.1875317 .04990593 .5894677
.3294529 .02573719 .5901015
.4621612 0 .5911586
.5892307 0 .5910352
.7140761 0 .590518
.8384789 0 .5867933
.9602441 0 .5825663
0 .2450892 .5906585
0 .2435833 .5909246
.1621768 .2411133 .5914013
.3227637 .2336854 .5921916
.4609013 .2254943 .5923828
.5921503 .2205319 .5924534
.7188626 .2179289 .5900217
.8392313 .2172019 .5853069
.9609435 .203806 .5798813
0 .4006344 .5918977
0 .3996466 .5921282
.1197232 .3974329 .5923311
.2975751 .394462 .5924177
.4501131 .3901158 .59277
.5921664 .3880081 .5915903
.7177711 .3904678 .5874195
.8379312 .3873339 .5826103
.9598853 .3844821 .5784935
0 .5574526 .5914852
0 .5572611 .5915286
.03665792 .5570492 .5913559
.2788035 .5569106 .5906236
.4349785 .5551711 .5892728
.5815269 .5520176 .5865609
.7116304 .5503979 .5838596
.8321309 .5496018 .5819257
.9560347 .5451663 .5777314
0 .7077913 .5816818
0 .7077059 .5811301
0 .7074873 .5797258
.2496319 .7068059 .5772009
.4211774 .7054813 .5739282
.5700101 .704295 .5712929
.71176 .7013935 .5684247
.8366989 .6976697 .5712479
.9561023 .6942864 .5772266
0 .8504812 .5591816
0 .8504212 .5586268
0 .8502572 .5573535
.1951177 .8497555 .5555562
.3961284 .8487312 .5532477
.5521024 .8482001 .552797
.6975988 .8468652 .5525092
.8345158 .8447157 .5520746
.9605536 .8406183 .5479545
0 .9878517 .5405561
0 .9878032 .5396287
0 .9876298 .5386461
.1512071 .9872634 .5379126
.3734402 .9871492 .536615
.5332313 .9870325 .535019
.6799182 .9864822 .5344504
.8154407 .9856021 .5347646
.9496693 .9835586 .5316988
0 .9999999 .5340724
0 .9999999 .5339364
0 .9999999 .5340922
.1470344 .9999999 .5338095
.3714049 .9999999 .5331298
.5311487 .9999999 .5320557
.676335 .9999999 .5322316
.812062 .9999999 .5327111
.9455637 .9999999 .5312589
0 0 .709468
0 0 .7099583
.1862561 0 .7105682
.3252828 0 .7109441
.4569015 0 .7116114
.5825284 0 .7123793
.7103615 0 .7128879
.8355946 0 .7114571
.9607833 0 .7100298
0 .03640467 .7106237
0 .02645433 .7108869
.1779202 .00395172 .7111426
.3214809 0 .7115001
.4549496 0 .7122043
.5823506 0 .713002
.7113357 0 .7135288
.8378168 0 .712322
.9620566 0 .7099021
0 .2349429 .7120565
0 .2329282 .7121707
.1486613 .2278523 .7124954
.3098462 .2198813 .7130026
.4490581 .2116968 .7138386
.5816864 .2042031 .7144498
.7144759 .202177 .7148932
.8416638 .1935484 .713546
.9635772 .1845441 .7085824
0 .3886486 .7136869
0 .3877064 .7137741
.07021331 .3858648 .7137634
.2853302 .3818398 .7142612
.4375206 .3772648 .7148901
.5791698 .3733593 .7151518
.7168201 .3725525 .7155973
.8434852 .3706623 .7125861
.9635118 .3718996 .7067863
0 .5464079 .7147825
0 .545714 .7148228
0 .5440331 .7148545
.2610429 .5417637 .714744
.4237268 .5387985 .7144976
.5728166 .5359168 .7144197
.7139173 .5354356 .713537
.8386556 .53653 .708708
.9602119 .5364226 .7044404
0 .7035976 .7132334
0 .7034411 .713185
0 .7031074 .7131261
.2406602 .7023556 .7128535
.4143039 .70145 .7117778
.562758 .7004045 .7102319
.7031727 .6966345 .7090461
.8301938 .6963717 .7070572
.9533655 .6940042 .7034649
0 .851374 .7019901
0 .8513335 .7018061
0 .8511636 .7012588
.182676 .8505287 .7004439
.3892886 .8491979 .6984776
.5469289 .847147 .6953239
.6935766 .8455046 .6930302
.8331105 .8433638 .6909455
.9581395 .8395596 .6889588
0 .9889892 .6809183
0 .9889323 .6805491
0 .9887952 .6796476
.1090411 .9883974 .6783742
.3593799 .9875398 .6764858
.5266485 .9866087 .6740482
.67519 .9861874 .6741279
.815209 .9848245 .6746368
.9495723 .9822879 .6739509
0 .9999999 .6771489
0 .9999999 .6768093
0 .9999999 .675963
.10556 .9999999 .6747594
.3608484 .9999999 .672707
.5261291 .9999999 .6710588
.6715082 .9999999 .6717186
.8111338 .9999999 .6722583
.9454821 .9999999 .6727728
0 0 .8316933
0 0 .831773
.1662966 0 .8319096
.3170516 0 .8321797
.4494375 0 .8327541
.578136 0 .8333234
.707596 0 .8340281
.8328966 0 .8342178
.9576699 0 .833195
0 0 .8320572
0 0 .8321482
.1549369 0 .8323233
.3124367 0 .8326946
.4463143 0 .8332744
.5768277 0 .833933
.7073203 0 .8346682
.8329504 0 .8347352
.9587767 0 .8336063
0 .2209467 .8330292
0 .218616 .8331894
.1236878 .2135418 .8334967
.2996678 .2063406 .8340685
.4377815 .1974359 .8346045
.5724366 .189259 .835367
.7052158 .183479 .836072
.8342716 .1768011 .8358629
.9617741 .1597837 .8345259
0 .3779882 .8340392
0 .3765935 .8341517
0 .3739087 .8344826
.2678474 .369317 .8351145
.4228215 .363962 .8359928
.5668747 .3608302 .8364818
.7025465 .3573129 .8376699
.8370876 .3539141 .8378648
.965522 .347976 .8346518
0 .5329296 .8353953
0 .5321921 .8354705
0 .5304111 .8356455
.2325915 .5275972 .8359154
.4083767 .5242069 .8366029
.5587841 .521585 .8372836
.6977138 .520759 .8378867
.834514 .5204763 .8371331
.9650289 .5202678 .8329327
0 .6906068 .8364029
0 .6903131 .836428
0 .6896793 .836461
.2071181 .6888844 .8363126
.3948537 .6879079 .8361325
.5480042 .6850809 .8360478
.6932356 .6833677 .8354988
.8327944 .683787 .834069
.9585717 .6842417 .8294842
0 .8471571 .8333246
0 .8471124 .8333322
0 .8467855 .833419
.1871261 .8462499 .8334753
.3903527 .8454174 .8335239
.5463421 .8444763 .8325605
.6909209 .8431039 .8307494
.8251469 .8409367 .8296347
.9502185 .8398906 .8284872
0 .9901002 .8205578
0 .9900356 .8202894
0 .9898674 .8196135
.0978603 .9894697 .8185799
.3571242 .9887533 .817315
.5253851 .9875856 .8161929
.6736976 .9856481 .8139722
.8134421 .983453 .8139073
.948121 .981489 .8122602
0 .9999999 .8159938
0 .9999999 .8157676
0 .9999999 .8151979
.08620601 .9999999 .8141496
.3556637 .9999999 .8126752
.5259809 .9999999 .8110753
.6734729 .9999999 .8097127
.8125165 .9999999 .8103139
.9454659 .9999999 .8094134
0 0 .9516225
0 0 .9516813
.1512091 0 .9518309
.3070641 0 .9520389
.4401682 0 .952406
.5681366 0 .9531204
.6976891 0 .9538042
.8270686 0 .9541251
.9530423 0 .9539892
0 0 .9518834
0 0 .9519239
.1365855 0 .9520331
.3011885 0 .9522817
.4361286 0 .9527203
.5655545 0 .9533531
.6967418 0 .9541544
.8265736 0 .9545075
.9531896 0 .9544262
0 .2055313 .9523094
0 .2034425 .9523585
.08894787 .1981615 .9524916
.2841605 .1887409 .9529335
.4259821 .1783359 .9533644
.5600315 .1660765 .9540101
.6948338 .1564032 .9550899
.8252551 .1483523 .9555665
.9530267 .1327375 .9556124
0 .3632745 .9529765
0 .3622842 .9530349
0 .3595631 .9532266
.2529969 .3548727 .9536763
.410876 .3492323 .9541896
.5545209 .344515 .9545794
.6921829 .34207 .9556548
.8233336 .3378216 .9563935
.9534118 .3335823 .9573355
0 .5190315 .9533357
0 .5182635 .9533806
0 .5161968 .9535231
.202159 .512175 .953768
.3914435 .5087718 .9539862
.5472582 .5080889 .9544038
.6855084 .507563 .9549368
.8209774 .5055172 .9564212
.955595 .5044659 .9566533
0 .6758276 .9536756
0 .6755973 .9536766
0 .6750064 .9536788
.1694747 .6739808 .9537326
.3759991 .6723059 .9539303
.5349791 .6697837 .9541764
.6807165 .6681367 .9546823
.8198566 .6701981 .95565
.9533553 .6689075 .9558308
0 .8350052 .9545391
0 .8348302 .9545106
0 .8343772 .9544008
.124825 .8338814 .9541573
.3622285 .833313 .9541002
.5275798 .8321266 .9540409
.6769838 .8298173 .9534935
.8171316 .8292078 .9525318
.951682 .8303128 .9520562
0 .9862029 .9507719
0 .9861678 .9507747
0 .9860863 .950783
.1142047 .9858379 .950798
.3660598 .9854115 .9506658
.5326851 .9847949 .9499181
.6768813 .9840327 .9486442
.8150632 .9823185 .9471427
.9460896 .9797313 .9474342
0 .9999999 .9482699
0 .9999999 .9482139
0 .9999999 .948069
.116769 .9999999 .947776
.3646356 .9999999 .9472824
.5295487 .9999999 .9464723
.6758218 .9999999 .9456623
.8153102 .9999999 .9449012
.9458151 .9999999 .9457133
