luts/Timeless_33.cube
# 3D LUT of size 33x33x33 converted by Filestar.
#   Input:
#     color space: sRGB
#     white point: default (D65)
#     transfer function: default (sRGB)
#   Output:
#     color space: sRGB
#     white point: default (D65)
#     transfer function: default (sRGB)
#   Exposure: +0.41
#   Contrast: -26
#   Whites: -7
#   Blacks: -33
#   Vibrance: +15
#   Saturation: +5
LUT_3D_SIZE 5
.01974648 .02330076 .01034555
.2645149 0 0
.56121 0 0
.8096403 0 0
.9999999 0 0
0 .2705235 0
.2757113 .2669716 0
.5610885 .2665622 0
.8093175 .2626419 0
.9999999 .2494926 0
0 .5604746 0
.2574866 .5591508 0
.5603712 .5567988 0
.8078408 .5576993 0
.9999999 .5502052 0
0 .8064457 0
.1764854 .8065543 0
.5457655 .8045578 0
.8072213 .8017692 0
.9999999 .7984811 0
0 .9999999 0
0 .9999999 0
.4987477 .9999999 0
.7875189 .9996806 0
.9986046 .9993483 0
0 0 .2767115
.2825126 0 .2781523
.5690868 0 .2701362
.8176069 0 .2544081
.9999999 0 .2342762
0 .27017 .2712097
.2730824 .266302 .2677308
.5666767 .2576745 .2589143
.8143213 .2441386 .2393597
.9999999 .2171678 .2213248
0 .5636402 .2276143
.2252024 .5630018 .2192072
.5631409 .5587666 .2107507
.8120524 .553535 .2120241
.9999999 .5439255 .1647544
0 .8089021 .1143721
.1271157 .8082034 .09636109
.537319 .8067573 .0743505
.8070691 .803659 .07191917
.9999999 .7959077 0
0 .9999999 0
0 .9999999 0
.4917481 .9999999 0
.7844438 .9999999 0
.999271 .9992507 0
0 0 .5690901
.2862322 0 .5696579
.5735488 0 .5679064
.8170968 0 .56482
.9999999 0 .5548585
0 .2558465 .5691934
.2533993 .245424 .569284
.5716258 .2344247 .5681474
.8188011 .2170484 .5586766
.9999999 .1776555 .5485575
0 .561333 .5624859
.2019834 .5596188 .5614535
.5584481 .5548682 .5539273
.8099689 .549381 .5460525
.9999999 .5378674 .5351486
0 .8102432 .5282463
0 .8101074 .5246993
.5171086 .808197 .5193499
.8060967 .8046288 .5099261
.9999999 .7923948 .4913984
0 .9999999 .4666146
0 .9999999 .4612383
.4615349 .9999999 .4547965
.7764684 .9999999 .4391166
.9999999 .9999999 .4130096
0 0 .8150001
.2718516 0 .8152761
.5651848 0 .8152696
.8149225 0 .8131757
.9999999 0 .8097219
0 .2328279 .8151464
.2410271 .2228923 .8154109
.5587184 .2034742 .8159936
.8159372 .1888451 .8149468
.9999999 .1464805 .809301
0 .5436425 .8126656
.1201491 .5400975 .8127662
.5400427 .5332701 .81268
.8112951 .530641 .8112592
.9999999 .5234568 .8034636
0 .8073276 .80761
0 .8068203 .8074204
.5181372 .8018932 .805435
.8031153 .7989997 .7993816
.9999999 .7956948 .7922171
0 .9999999 .7805768
0 .9999999 .7787746
.4572154 .9999999 .7765519
.7758798 .9995652 .770965
.9995434 .9990022 .7634547
0 0 .9999999
.2531912 0 .9999999
.5571262 0 .9999999
.8075479 0 .9999999
.9999999 0 .9999999
0 .2140315 .9999999
.20744 .2014542 .9999999
.5474059 .1774443 .9999999
.804889 .1222423 .9999999
.9999999 .02576458 .9999999
0 .5291574 .9999999
.05550028 .5252232 .9999999
.5197278 .5195494 .9999999
.7981023 .5120717 .9999999
.9999999 .5037441 .9999999
0 .7889513 .9999999
0 .7887486 .9999999
.4918682 .7883255 .9999999
.7879135 .7853747 .9999999
.9999999 .7820336 .9997252
0 .9999999 .9983556
0 .9999999 .9984407
.461365 .9987512 .9979356
.7735222 .9989753 .9967864
.9999999 .998732 .9970394
