luts/Timeless_47.cube
# 3D LUT of size 33x33x33 converted by Filestar.
#   Input:
#     color space: sRGB
#     white point: default (D65)
#     transfer function: default (sRGB)
#   Output:
#     color space: sRGB
#     white point: default (D65)
#     transfer function: default (sRGB)
#   Exposure: -0.01
#   Contrast: +9
#   Whites: +10
#   Blacks: -20
#   Vibrance: +24
LUT_3D_SIZE 33
0 .07099957 .05889381
0 .07111574 .05669329
0 .07156608 .05492987
0 .06863465 .05136246
.03332799 .05307169 .04736605
.09036276 .0387358 .04668029
.1269565 .02311073 .04255448
.1654687 .00383307 .03168561
.1977492 0 .03207609
.2304702 0 .03099431
.2639091 0 .03094681
.3005111 0 .01871886
.3337885 0 .0091125
.3649245 0 .00273268
.3958077 0 0
.4258478 0 0
.4559397 0 0
.4858131 0 0
.5163264 0 0
.5479189 0 0
.5793721 0 0
.6112894 0 0
.6422325 0 0
.6730614 0 0
.7045083 0 0
.7359921 0 0
.7673691 0 0
.7985445 0 0
.8296495 0 0
.8603842 0 0
.8909853 0 0
.9215094 0 0
.9523006 0 0
0 .06788237 .05577929
0 .06803758 .05360611
0 .06759609 .05321509
0 .06324948 .04813182
.04535917 .04562262 .03598677
.09989206 .03303101 .0323138
.1333561 .02143226 .03090428
.1665947 .01816875 .02946866
.1995422 .01547587 .02968168
.2332673 .01590456 .02826164
.2665695 .0112986 .0214733
.3005632 .01188138 .01357216
.333438 .01367074 .00539532
.3653212 .01520623 .00143895
.395985 .01625526 0
.4260191 .01905259 0
.4560969 .02121449 0
.4861264 .02213796 0
.5168204 .01949403 0
.5477923 .01377659 0
.5797525 0 0
.611654 0 0
.6425747 0 0
.6732883 0 0
.7047229 0 0
.7362013 0 0
.7675228 0 0
.7987508 0 0
.8298078 0 0
.8604956 0 0
.8910978 0 0
.9216368 0 0
.9524427 0 0
0 .07145066 .05079296
0 .07441803 .04710659
0 .07605753 .04596498
.00342347 .06845945 .03950489
.05958255 .05173869 .02382814
.1001633 .05384399 .02901741
.1356495 .05122378 .02867658
.1708235 .04872877 .02702582
.202983 .04618793 .02533958
.2346557 .04930162 .02219084
.2669459 .05382293 .01597139
.3007453 .05589677 .00744058
.3336158 .0565946 .00291099
.3653846 .05665351 0
.3960316 .05742825 0
.4262124 .05883111 0
.4563301 .05971923 0
.4865947 .05985895 0
.5173711 .05629384 0
.548086 .05305646 0
.5801828 .0374621 0
.6120663 .02301124 0
.6429527 .00956653 0
.6735087 0 0
.704936 0 0
.7363835 0 0
.7677346 0 0
.7989791 0 0
.8299864 0 0
.8606093 0 0
.8912055 0 0
.9217547 0 0
.9525823 0 0
0 .1029689 .03263596
0 .1043186 .03094714
0 .09848533 .02330951
.01007691 .08961161 .01610694
.06905255 .08664248 .0217256
.1025347 .0868277 .0236324
.138953 .08578628 .02234431
.1723202 .08603012 .02071778
.2032025 .08964699 .01977252
.2345991 .0930379 .01538007
.2672128 .09600572 .00885942
.3007757 .09710803 .00218122
.333728 .09643071 0
.3654819 .09594674 0
.3961731 .0963589 0
.4265091 .09720101 0
.4565904 .09743013 0
.4873358 .09493644 0
.5181382 .09217424 0
.548801 .09020392 0
.5808123 .08112939 0
.612643 .07217553 0
.6431866 .06455617 0
.6738353 .05515614 0
.7052301 .0477804 0
.7365922 .04070674 0
.7679604 .0329566 0
.7992292 .02362948 0
.8301576 .01639873 0
.8607723 .00750383 0
.8913603 0 0
.921916 0 0
.9527505 0 0
0 .1290853 .00532239
0 .1263443 .00233521
0 .1245793 .0086536
.03336104 .1237388 .01574347
.07401202 .1243652 .01539212
.1060973 .1253312 .016801
.1389842 .1263825 .01570134
.1717262 .1278387 .01491628
.2031904 .1301574 .01373572
.2349972 .1325359 .0094998
.2681342 .1338439 .00275357
.3012036 .1339498 0
.3338226 .1335375 0
.3658237 .1326353 0
.3965185 .1325977 0
.4269561 .1326497 0
.4573482 .1318862 0
.4882457 .1293134 0
.5191423 .1267741 0
.5497687 .1253038 0
.5815116 .1199084 0
.612977 .1147021 0
.6435004 .1097241 0
.6742483 .1048013 0
.7055396 .1015023 0
.7368721 .0980036 0
.7682443 .09400763 0
.799454 .08932956 0
.8302736 .08560648 0
.8609059 .08004113 0
.8914847 .07415792 0
.9220243 .06458607 0
.95293 .05602697 0
0 .1595601 .01083202
0 .1598059 .01123071
.00884237 .1600526 .01140438
.04587215 .1602519 .01157228
.07925505 .1614883 .01305823
.111637 .162785 .01398093
.1423878 .1645128 .01322259
.1728569 .1657875 .01010211
.2048337 .1670998 .00356384
.2356673 .1686475 0
.2690475 .1692065 0
.3016417 .1690032 0
.3342317 .1683564 0
.3664095 .1674448 0
.3970045 .167467 0
.4277227 .1668912 0
.4585623 .1652352 0
.4894685 .1631893 0
.520026 .1620921 0
.5504327 .1614709 0
.5816243 .1588089 0
.6133932 .153569 0
.6438611 .1504081 0
.6746632 .1474407 0
.7059493 .1452678 0
.737201 .1432536 0
.768526 .1407958 0
.7997331 .1376685 0
.8304678 .1353483 0
.8609874 .1324702 0
.8915299 .1277347 0
.9221405 .1237133 0
.9531031 .118049 0
0 .1950533 .00561499
0 .1954164 .00497386
.01777298 .1958239 .00424448
.0524843 .1963962 .0031435
.08311922 .197327 .00330228
.1155763 .1982217 .00036639
.146493 .19938 0
.1769181 .2004412 0
.2066813 .2018498 0
.2383085 .2026826 0
.2704934 .2028466 0
.3024523 .2031253 0
.3349447 .2025664 0
.3669914 .2019452 0
.3983685 .2010524 0
.4289788 .2003402 0
.4595176 .1995204 0
.4900422 .1985231 0
.5205762 .1976567 0
.5510109 .1977087 0
.5823301 .1961806 0
.6136858 .1922881 0
.6440459 .1897072 0
.6749658 .1878421 0
.7062859 .185989 0
.7375897 .1841414 0
.7688597 .18255 0
.7998216 .1820697 0
.8306282 .1793568 0
.8611251 .1765645 0
.8915762 .1729527 0
.9223191 .1708843 0
.9533159 .1664007 0
0 .2303842 0
0 .2304154 0
.02664608 .2304506 0
.06309535 .230637 0
.09509296 .2309546 0
.1251799 .2315835 0
.1547529 .2322875 0
.1837804 .2331711 0
.2135081 .2342029 0
.2431775 .2356192 0
.2747912 .2361007 0
.3049617 .2367023 0
.3360642 .2367716 0
.3681498 .2361126 0
.3997661 .2353812 0
.4300936 .2351667 0
.4602201 .2348669 0
.4906273 .2342342 0
.5210598 .2340137 0
.5514631 .2338478 0
.5827125 .2327384 0
.6131814 .2308648 0
.6442714 .2280422 0
.6752591 .2266012 0
.7065929 .2251013 0
.7379553 .223606 0
.7691017 .2226556 0
.8001904 .2215599 0
.8309647 .2191274 0
.8613917 .2170546 0
.8917014 .2154957 0
.9225215 .213478 0
.9535297 .209848 0
0 .2670429 0
0 .266665 0
.01398184 .2666757 0
.05431567 .2667257 0
.09166779 .2667983 0
.125178 .2669835 0
.1552927 .2674551 0
.1859697 .2680365 0
.216447 .2688548 0
.2467267 .2697217 0
.2766923 .2708645 0
.3066088 .2719409 0
.3385653 .2716101 0
.3695337 .271222 0
.4007105 .2708153 0
.4312486 .2706166 0
.4608307 .2704579 0
.4914315 .2702507 0
.5215997 .2702301 0
.5518717 .2698237 0
.5827975 .2687374 0
.6132196 .2676572 0
.6444269 .2658005 0
.6755048 .2646059 0
.7068421 .2634822 0
.738178 .2623163 0
.7694079 .2609351 0
.8005287 .2596201 0
.8312376 .2578457 0
.8615187 .2559286 0
.891913 .2555676 0
.9226788 .2540022 0
.9537051 .2509241 0
0 .3042628 0
0 .3042396 0
.00035625 .3037201 0
.04152793 .3036854 0
.08339756 .3038208 0
.1181222 .3040983 0
.1521455 .304515 0
.1847952 .3049087 0
.2167236 .3049031 0
.2482423 .3051421 0
.2784412 .3059797 0
.3090914 .3064672 0
.3394315 .3067332 0
.370557 .3066456 0
.4019627 .3062173 0
.4319908 .305846 0
.4615964 .3061275 0
.4920182 .3061564 0
.5221294 .3058071 0
.5530453 .3054679 0
.5831251 .3049788 0
.6133049 .3048576 0
.6442651 .3038985 0
.6757702 .3022127 0
.7070895 .3012664 0
.7383701 .3001537 0
.7695898 .2989752 0
.8005773 .2976862 0
.8312801 .2962689 0
.8618007 .2948957 0
.892217 .2944694 0
.922964 .2927369 0
.953868 .2905213 0
0 .3409539 0
0 .3409767 0
0 .3410316 0
.00592684 .3414378 0
.06982772 .341112 0
.1119619 .3412516 0
.1484829 .3415573 0
.1828331 .341683 0
.2153926 .3418149 0
.247557 .3419437 0
.2792253 .3420296 0
.3111864 .3415337 0
.3426137 .3412879 0
.3721973 .3414873 0
.4029017 .3412164 0
.4328625 .3417948 0
.4633335 .3419787 0
.4928514 .3419254 0
.5230088 .3416451 0
.5535257 .3414601 0
.5836502 .3412494 0
.6138165 .3411762 0
.6448035 .3406727 0
.6759298 .3402182 0
.7074847 .3386165 0
.7385488 .33754 0
.7697459 .3365057 0
.8005726 .3353502 0
.8312858 .3342407 0
.8620692 .3333567 0
.8924667 .3330109 0
.9231971 .3312813 0
.9541494 .3290737 0
0 .3773274 0
0 .3773836 0
0 .3776795 0
.00407971 .3777529 0
.06277317 .3778048 0
.1061351 .3780175 0
.1450618 .3780617 0
.1811882 .378056 0
.2150102 .3780058 0
.2480116 .3778655 0
.2803694 .3777493 0
.3116128 .3777208 0
.3427105 .3776184 0
.3735791 .3772467 0
.403601 .3771677 0
.4338525 .3770686 0
.4641218 .3776239 0
.4942084 .3775022 0
.5252721 .3771267 0
.5547341 .3770938 0
.5843032 .3771523 0
.6145763 .3771335 0
.6452445 .3770564 0
.6765387 .3764386 0
.7076368 .3759231 0
.7390778 .3745548 0
.7698588 .3735847 0
.8005987 .3727797 0
.8313029 .372284 0
.8619482 .3720063 0
.8925908 .3713326 0
.9234464 .3691703 0
.9543565 .3671554 0
0 .4141909 0
0 .4142687 0
0 .4144547 0
0 .4144801 0
.04797858 .4145004 0
.09835062 .414523 0
.1391329 .414528 0
.1763227 .4144953 0
.2122547 .4143758 0
.2458256 .4144133 0
.2783681 .4143423 0
.3101974 .4143026 0
.3413657 .4142477 0
.3718812 .4141857 0
.402471 .413981 0
.4336153 .4136121 0
.4638066 .4134344 0
.4956479 .4128766 0
.5258539 .412733 0
.5560525 .4127055 0
.5863376 .412716 0
.6159441 .4127424 0
.6460923 .412685 0
.677154 .4122815 0
.7082324 .4118727 0
.7392974 .411636 0
.7703547 .4106561 0
.8007138 .41043 0
.8312242 .4102777 0
.8618274 .4100023 0
.8927239 .4088898 0
.9236346 .406698 0
.9545181 .4051178 0
0 .4510193 0
0 .4511254 0
0 .4512024 0
0 .4512345 0
.02136947 .45127 0
.08444872 .4512968 0
.1299239 .4513298 0
.1690847 .4513274 0
.206798 .4511582 0
.2420889 .4510325 0
.2759732 .4508725 0
.3083949 .4506977 0
.339978 .4505703 0
.3707181 .4504572 0
.4014936 .45041 0
.4321295 .4503523 0
.4639387 .4497316 0
.4948818 .4492691 0
.5264749 .4483142 0
.556679 .4481649 0
.5871115 .4481789 0
.6178424 .4482147 0
.6484267 .4481837 0
.6779885 .4485046 0
.7089674 .4483418 0
.739786 .4482663 0
.7702398 .448375 0
.8010083 .4477937 0
.8313231 .4475723 0
.8617701 .4471626 0
.8925043 .4464715 0
.9238104 .4439323 0
.9546492 .442729 0
0 .4877997 0
0 .4878675 0
0 .4878669 0
0 .4878661 0
0 .487865 0
.06666725 .4878635 0
.118234 .4878617 0
.1603028 .4878594 0
.1983024 .4878569 0
.2365117 .487552 0
.271445 .487422 0
.3054321 .4871901 0
.3378966 .4869713 0
.3692195 .4868271 0
.4004619 .4866628 0
.4321194 .4864087 0
.4628239 .4862275 0
.4937456 .4860356 0
.5255823 .4850284 0
.5573225 .484025 0
.587905 .4839188 0
.6182489 .4840719 0
.6490681 .4844434 0
.6799399 .4848534 0
.7108883 .4849722 0
.7400535 .4850599 0
.7704015 .4851942 0
.8008081 .4851733 0
.8315495 .4844098 0
.8619797 .4838783 0
.8925493 .4829233 0
.9237925 .481066 0
.9547128 .4796454 0
0 .5244051 0
0 .5244204 0
0 .5244208 0
0 .5244147 0
0 .5244067 0
.0410581 .5244391 0
.1040744 .5244299 0
.1501363 .524419 0
.1903141 .524406 0
.2274842 .524391 0
.265777 .5239955 0
.300713 .5238015 0
.3346568 .5235897 0
.3668928 .5234578 0
.3994281 .5232508 0
.4304899 .5231155 0
.4615427 .5230056 0
.4925542 .5228339 0
.5236943 .5225055 0
.5559549 .5216638 0
.5880494 .520476 0
.6189106 .5203044 0
.6495634 .520795 0
.6805325 .5210679 0
.710972 .5215476 0
.7415605 .5215769 0
.771639 .5215294 0
.801105 .5209991 0
.8316286 .5204275 0
.8624812 .5195942 0
.8929785 .5186363 0
.923777 .5173339 0
.9547651 .516342 0
0 .5609337 0
0 .5609269 0
0 .5609241 0
0 .5609202 0
0 .5609148 0
.00728087 .560908 0
.08616432 .5608599 0
.138284 .5608702 0
.1814123 .5608823 0
.2204146 .5608954 0
.2571392 .5608993 0
.2934358 .5607723 0
.332358 .5601757 0
.3656823 .56001 0
.397383 .5598632 0
.428958 .559696 0
.4602359 .5596093 0
.4915528 .5594575 0
.5230272 .5592549 0
.5543926 .5590955 0
.5867059 .5584717 0
.6184175 .5577797 0
.6500053 .5571251 0
.68072 .5571797 0
.7112185 .5572644 0
.7417331 .5573156 0
.7722224 .5571446 0
.8027039 .5569393 0
.8325059 .5567187 0
.862353 .5562653 0
.8931826 .5550509 0
.9240461 .5540451 0
.9548722 .553023 0
0 .597362 0
0 .5973594 0
0 .5973563 0
0 .597352 0
0 .5973459 0
0 .5973386 0
.06571175 .5973292 0
.1262763 .5973181 0
.1727715 .5973073 0
.2136348 .5973274 0
.2531304 .5973336 0
.2888092 .5973767 0
.3251353 .5971596 0
.3619975 .5966296 0
.3950682 .5964935 0
.4275964 .5963753 0
.4593171 .5963181 0
.4909965 .596204 0
.5227188 .5960652 0
.5539848 .5960086 0
.5849863 .595965 0
.6173478 .5954001 0
.6489197 .5946614 0
.680249 .5937213 0
.7112091 .5932837 0
.7416804 .5933096 0
.7722347 .5931444 0
.8026947 .5927995 0
.8332586 .5924038 0
.8638093 .5919855 0
.8933728 .5916554 0
.9242968 .5905269 0
.9552378 .5895913 0
0 .6332876 0
0 .6332984 0
0 .6333107 0
0 .6333281 0
0 .6333515 0
0 .6333814 0
.04366484 .6333933 0
.1165016 .6334145 0
.1655625 .6334752 0
.2083166 .6335617 0
.2474532 .6336237 0
.2845549 .6336636 0
.3206609 .6336602 0
.3594221 .6331555 0
.3945567 .6328434 0
.4271459 .6326967 0
.4590772 .6325696 0
.4908618 .6324876 0
.5225154 .6323281 0
.5538628 .6321872 0
.5850899 .6320558 0
.6162018 .6318789 0
.6482229 .6311816 0
.679614 .6303771 0
.7104619 .6298652 0
.7414797 .6291821 0
.7720022 .6289719 0
.802604 .628595 0
.8331733 .6283415 0
.863721 .6281382 0
.8944467 .627872 0
.9254881 .6269445 0
.9554508 .6258976 0
0 .668687 0
0 .6687037 0
0 .6687225 0
0 .6687496 0
0 .6687858 0
0 .6688321 0
.03184209 .6688892 0
.1097524 .6689575 0
.161349 .66904 0
.2048816 .6691507 0
.2442321 .6692943 0
.281918 .6694105 0
.3180677 .669525 0
.3533424 .6696314 0
.3932382 .6688831 0
.4261742 .66882 0
.4588763 .6686463 0
.4909062 .6684889 0
.5226127 .6683408 0
.5540535 .6682177 0
.5849055 .6681377 0
.6158095 .6680046 0
.6472273 .6675081 0
.6790626 .6667204 0
.7098611 .6662278 0
.7405685 .665783 0
.7712079 .6653349 0
.8023658 .6644669 0
.8329183 .6642293 0
.8634681 .6639804 0
.8943561 .6636546 0
.9254078 .6631663 0
.9564206 .6624737 0
0 .7044386 0
0 .7044594 0
0 .7044829 0
0 .7045164 0
0 .7045616 0
0 .7046191 0
.00367765 .70469 0
.09527034 .7047747 0
.1512293 .7048743 0
.1976874 .7049838 0
.2389942 .7050777 0
.2774605 .7051774 0
.3143895 .7052405 0
.3502736 .7053155 0
.3853897 .7054132 0
.4246489 .7046487 0
.4576818 .704552 0
.4904093 .7044798 0
.522098 .7043609 0
.5534844 .704098 0
.5847891 .7038265 0
.6157771 .7035774 0
.6466793 .7031363 0
.6781029 .7025338 0
.7095262 .7019575 0
.7404084 .701418 0
.7713519 .7007732 0
.8014691 .7010101 0
.8326014 .7003099 0
.8633663 .6999098 0
.8943828 .6995922 0
.9254615 .6992562 0
.9564844 .6984155 0
0 .7402329 0
0 .7402546 0
0 .740279 0
0 .740314 0
0 .7403612 0
0 .7404189 0
0 .7404752 0
.07743517 .7405367 0
.1413745 .7406001 0
.1904943 .7406412 0
.2328537 .7407328 0
.2728031 .7407786 0
.3108844 .7408341 0
.3474839 .7408938 0
.3835008 .740731 0
.4180125 .7407262 0
.4563994 .7398505 0
.4891152 .7396472 0
.5208753 .7395107 0
.5527712 .7393438 0
.5843084 .7390425 0
.6154028 .7387462 0
.6465267 .7385418 0
.6777601 .7382234 0
.70933 .7377034 0
.7404547 .7372204 0
.7710441 .7368692 0
.801939 .7363771 0
.8322519 .7364495 0
.8632668 .736077 0
.894783 .7351654 0
.9258062 .7347515 0
.9564131 .7340747 0
0 .775861 0
0 .7758597 0
0 .7758541 0
0 .7758463 0
0 .7758355 0
0 .7758219 0
0 .7758054 0
.05803525 .7757775 0
.1316715 .7757457 0
.1841039 .7757372 0
.2293335 .7757206 0
.2704958 .775702 0
.3091815 .7756812 0
.3461974 .7756619 0
.3812152 .7757037 0
.4154393 .7757321 0
.4531929 .7750418 0
.486299 .7748383 0
.5193965 .7746143 0
.5515327 .7745279 0
.5834802 .7744357 0
.6150656 .7743686 0
.6462747 .7742079 0
.6774039 .7739289 0
.7085228 .773551 0
.7401699 .7730786 0
.7712368 .7726518 0
.8017241 .772447 0
.8324687 .7720246 0
.8632063 .7718037 0
.8943563 .7714438 0
.9256254 .7705198 0
.956107 .7697445 0
0 .8110377 0
0 .8110313 0
0 .8110243 0
0 .8110139 0
0 .811 0
0 .8109809 0
0 .8109531 0
.03220503 .8109162 0
.1212152 .8108702 0
.1774762 .8108093 0
.2243047 .8107398 0
.2658697 .8106728 0
.3044023 .8106645 0
.3412287 .8106563 0
.3769973 .810721 0
.4118894 .8108048 0
.4460053 .8108948 0
.4838248 .8102083 0
.517176 .8101094 0
.5501897 .8099555 0
.5822798 .809866 0
.614054 .8097742 0
.6454381 .809709 0
.6762768 .8097773 0
.7073345 .8096607 0
.7385798 .8092306 0
.7704275 .8086004 0
.8015496 .8081682 0
.8321697 .8078044 0
.8628801 .8074727 0
.8937108 .8071514 0
.9241286 .8068568 0
.9550938 .8057415 0
0 .8460993 0
0 .8460906 0
0 .8460869 0
0 .8460816 0
0 .846075 0
0 .8460709 0
0 .8460656 0
.00052239 .8460594 0
.1062743 .8460523 0
.1666709 .8460517 0
.2152053 .846051 0
.2583356 .8460367 0
.2983079 .8460193 0
.3362451 .8460096 0
.3727105 .8460371 0
.4080306 .846104 0
.4428018 .8461736 0
.4765899 .8462313 0
.5140401 .8455805 0
.5473888 .8454729 0
.5801326 .8454242 0
.6117083 .8453973 0
.6428092 .845531 0
.6738619 .8456734 0
.7054045 .8455651 0
.7369207 .8452979 0
.7682216 .8449385 0
.8001534 .8442554 0
.8314014 .8437377 0
.8624104 .8432397 0
.8930686 .8427465 0
.9235172 .8421184 0
.9538073 .8416551 0
0 .8814064 0
0 .8814079 0
0 .8814093 0
0 .8814114 0
0 .881414 0
0 .8814176 0
0 .8814201 0
0 .8814221 0
.08311342 .8814242 0
.1526518 .8814269 0
.204741 .8814297 0
.2498211 .8814331 0
.2910462 .8814426 0
.3299116 .8814719 0
.3672186 .8815654 0
.4034402 .881614 0
.4389051 .88167 0
.4733894 .881787 0
.5065096 .8818842 0
.5432044 .8813557 0
.5764883 .8812127 0
.6082315 .8813253 0
.6400161 .8814317 0
.6715984 .8814281 0
.7031864 .8813189 0
.7349083 .8810177 0
.7666376 .8806066 0
.7980518 .88019 0
.8302957 .8795135 0
.8614699 .87886 0
.891978 .878181 0
.9225298 .8775109 0
.9534491 .8767956 0
0 .9169282 0
0 .9169317 0
0 .9169362 0
0 .9169422 0
0 .9169505 0
0 .916961 0
0 .9169738 0
0 .9169892 0
.0531418 .9170073 0
.1372291 .9170283 0
.1935533 .9170467 0
.2408137 .91704 0
.2834702 .9170485 0
.3232999 .9170655 0
.361548 .9170809 0
.3984907 .9170787 0
.4343496 .9170733 0
.4692361 .9170281 0
.5030493 .9169785 0
.5357218 .9171795 0
.5716593 .916759 0
.6051067 .9166599 0
.6370867 .9166186 0
.6690742 .9165477 0
.7009954 .9163854 0
.7327952 .9162139 0
.7646916 .9159025 0
.7964359 .9154288 0
.8279245 .9148394 0
.8600037 .9141146 0
.891066 .9135519 0
.9218475 .9129689 0
.9526463 .9124463 0
0 .9523547 0
0 .9523483 0
0 .9523414 0
0 .9523315 0
0 .952318 0
0 .9523011 0
0 .9522797 0
0 .9522545 0
.01477352 .9522256 0
