luts/Timeless_6.cube
# 3D LUT of size 33x33x33 converted by Filestar.
#   Input:
#     color space: sRGB
#     white point: default (D65)
#     transfer function: default (sRGB)
#   Output:
#     color space: sRGB
#     white point: default (D65)
#     transfer function: default (sRGB)
#   Exposure: +0.53999996
#   Contrast: +23
#   Whites: +8
#   Blacks: -20
#   Vibrance: +5
LUT_3D_SIZE 9
0 .00158175 .00933342
.1319987 0 .00377358
.2991159 0 0
.4510992 0 0
.5908476 0 0
.7181631 0 0
.8302338 0 0
.926108 0 0
.9999999 0 0
0 .1563611 0
.1379749 .153878 0
.3031777 .155362 0
.4534773 .1547935 0
.5924299 .1517556 0
.7187071 .1471551 0
.8305694 .1442069 0
.9263114 .1363514 0
.9999999 .1347188 0
0 .3069375 0
.1574877 .306373 0
.3077243 .3086948 0
.4555666 .3098588 0
.5929725 .310728 0
.7202877 .310225 0
.8318517 .3092061 0
.9274675 .3077551 0
.9999999 .3075098 0
0 .4583277 0
.1468686 .4584262 0
.309516 .4589952 0
.4590213 .4588069 0
.5957197 .4600415 0
.7217906 .4602774 0
.8327049 .4612144 0
.9287021 .4596962 0
.9999999 .4589985 0
0 .5988439 0
.1296344 .5989424 0
.307424 .5992039 0
.4573388 .5995087 0
.5973675 .5997109 0
.7219416 .600158 0
.8328683 .5996479 0
.9287446 .5987781 0
.9999999 .5981662 0
0 .7243841 0
.1319219 .7244116 0
.3089593 .7244864 0
.4597518 .7249485 0
.5978207 .7244743 0
.7233411 .723703 0
.8325354 .724591 0
.9292058 .7239854 0
.9999999 .7236829 0
0 .8344085 0
.1122714 .8343182 0
.3024013 .8340989 0
.4597836 .833738 0
.5987733 .834102 0
.724807 .8340688 0
.8350959 .8338658 0
.9288331 .8337051 0
.9999999 .8331844 0
0 .9293804 0
.09906813 .9293571 0
.2990789 .9292021 0
.4570852 .9290263 0
.5978684 .9291338 0
.7237348 .9291357 0
.8344687 .928207 0
.9287332 .9275433 0
.9999999 .9270139 0
0 .9999999 0
.09213323 .9999999 0
.2949422 .9999999 0
.455279 .9999999 0
.5979891 .9999999 0
.7229342 .9999999 0
.83197 .9999999 0
.9269828 .9999999 0
.9999999 .9999999 0
0 .00378392 .1491843
.136539 0 .1502095
.3021668 0 .1513571
.4541236 0 .1490758
.5927532 0 .1477687
.7192814 0 .147683
.8309742 0 .1449589
.9266163 0 .1405836
.9999999 0 .1374799
0 .1500967 .1528544
.1412842 .1531711 .1509602
.3044581 .1504423 .1488263
.4549592 .1473309 .1475671
.5933267 .1457059 .145093
.7197496 .1420479 .1456159
.831203 .1390414 .1423754
.9267196 .1323557 .1410362
.9999999 .1296073 .1354311
0 .3084697 .1483048
.1454941 .308269 .1458709
.3079341 .3089046 .1450787
.4560398 .3090159 .1468814
.5939904 .3095974 .1447986
.7209727 .3090717 .1414499
.8322145 .3075348 .1390727
.9276397 .3061833 .1379032
.9999999 .306 .1309172
0 .4585729 .1408144
.1342009 .4588411 .1394497
.3092553 .4591631 .1374193
.4583489 .4594985 .1416478
.5962651 .4599997 .1408373
.72192 .4597486 .1392075
.8331774 .4595113 .1362976
.9288694 .4589508 .1311752
.9999999 .4581097 .1269249
0 .5991209 .129227
.1192354 .5993086 .1276859
.303085 .5995245 .1269193
.4561679 .6001565 .1286775
.5975689 .6000797 .1301104
.7226914 .6000199 .1305855
.83311 .5993193 .1285693
.9288201 .5984235 .1247258
.9999999 .5977507 .1200962
0 .7246825 .1169759
.1189422 .7247079 .1144035
.3052342 .7247741 .1139126
.4584688 .7251947 .1117671
.5976503 .7246456 .1180805
.7236315 .7237507 .1187092
.8330877 .7244867 .1101083
.9295889 .7237021 .1049169
.9999999 .7235592 .1090513
0 .8346328 .1053019
.1016884 .8344839 .1033275
.299112 .8342727 .1035848
.4577181 .8339118 .105089
.5977361 .8343046 .1015193
.7249058 .834183 .1013815
.8353744 .8337579 .1037081
.9292303 .833638 .1033378
.9999999 .8330805 .1043312
0 .9296089 .0948249
.08705211 .9295124 .09437703
.2950163 .9294695 .09632342
.4551482 .9293897 .09512689
.5966235 .9293613 .09156085
.7231454 .9293037 .09110544
.8346842 .9281711 .09651772
.9287097 .9274745 .09789164
.9999999 .9267719 .1008708
0 .9999999 .09058966
.07594492 .9999999 .09014145
.2917016 .9999999 .08989144
.4536234 .9999999 .08865298
.5974169 .9999999 .08684713
.7222828 .9999999 .08038747
.831294 .9999999 .07687581
.9269781 .9999999 .07572841
.9999999 .9999999 .08363702
0 0 .3062341
.1437338 0 .3079126
.3035214 0 .3091494
.4543405 0 .3108685
.5943566 0 .3108963
.7200876 0 .310561
.831525 0 .3105803
.9273924 0 .3088532
.9999999 0 .3077493
0 .151592 .3096653
.1411546 .1492574 .3101281
.3067189 .1471046 .3114861
.4559215 .1452965 .3108583
.5944422 .1396016 .3099921
.7203553 .1363757 .3105057
.8318254 .1315093 .3098271
.9275841 .1249508 .3082704
.9999999 .1184526 .3068171
0 .3085709 .3118358
.1390252 .3092466 .3115252
.3068216 .3089942 .3107131
.4560322 .308454 .3098228
.5942926 .3082963 .3099704
.7218758 .3073136 .3095987
.8328443 .3050628 .3083467
.9281842 .3025612 .3074307
.9999999 .3018986 .3048578
0 .4596222 .3087741
.1232704 .4594271 .3079553
.3043698 .4594529 .3071206
.4584031 .4601512 .306642
.5974376 .4601937 .30685
.7227163 .4596401 .3079839
.8338423 .4583422 .3071131
.9294344 .456898 .3045848
.9999999 .4559124 .3029737
0 .5990425 .3037811
.114179 .5990788 .303369
.2995152 .599727 .3036851
.4562194 .6002969 .303234
.5973018 .6001091 .3034687
.7236407 .5998988 .3024637
.8344713 .5989097 .3003272
.9296711 .5975802 .30139
.9999999 .5965955 .3012354
0 .7250732 .2970813
.09512869 .7250438 .2975898
.296738 .7252522 .2968297
.4559479 .725239 .296088
.5967771 .7250592 .2970911
.7244829 .7241575 .2954364
.8349814 .7245849 .2925338
.9312009 .7235221 .2920552
.9999999 .723477 .295708
0 .8346728 .293031
.0699763 .8346724 .2927826
.2894674 .8346687 .2917611
.4525685 .8343598 .2923989
.5959023 .8345833 .2918448
.7242276 .8346818 .2903841
.8369319 .8337471 .2905579
.9306581 .8338234 .289325
.9999999 .8326949 .2907773
0 .9297472 .2909625
.05728114 .9298089 .2907951
.2866306 .9298491 .2891687
.4489716 .929873 .2879491
.5945176 .9294453 .2898506
.7224474 .929709 .2873647
.8347794 .9285873 .2877974
.9297204 .9275194 .2884865
.9999999 .9267592 .2892413
0 .9999999 .289838
.05528487 .9999999 .2894583
.2840578 .9999999 .2888441
.4499341 .9999999 .2900742
.5932779 .9999999 .2860912
.7208883 .9999999 .2839119
.8299205 .9999999 .2812132
.9271857 .9999999 .2838423
.9999999 .9999999 .2838665
0 0 .4587146
.1409055 0 .4590363
.3070825 0 .4591209
.457468 0 .4598526
.5950374 0 .4607289
.7216252 0 .4609445
.8325338 0 .4601797
.9279536 0 .459084
.9999999 0 .4583995
0 .1467976 .4593797
.1352526 .1448625 .4596556
.3074962 .1421447 .460321
.4593825 .1371421 .4608234
.5962825 .1340387 .460984
.7220036 .1278919 .4602718
.8327128 .1236858 .4595886
.9284582 .1142368 .4585798
.9999999 .1032494 .4575313
0 .3070543 .4602585
.1324685 .3064278 .4603954
.3057131 .3056583 .4606895
.4597431 .3051489 .4603267
.5971087 .3062771 .4598721
.7229517 .3046109 .4591867
.8333398 .3018113 .459041
.9289385 .2987345 .4581834
.9999999 .2974845 .4573562
0 .4599668 .4600121
.1173316 .4600967 .4597794
.300462 .4592636 .4601328
.4576177 .459198 .4601945
.5986766 .458891 .4589068
.7236977 .45948 .4592651
.8336745 .4572574 .4585524
.9293272 .4553126 .4572724
.9999999 .4539121 .4567034
0 .5991701 .4583641
.09129507 .5993269 .457733
.2926865 .5997771 .4562196
.4547377 .6001158 .4558882
.5982031 .5999004 .4568035
.7255309 .5982971 .45517
.8344897 .5976171 .4567969
.9299132 .5965258 .4565586
.9999999 .5953245 .4566315
0 .7249963 .4532115
.07132774 .7250175 .4527805
.2902633 .7250588 .4520389
.4508218 .7254084 .4515169
.5970902 .7248303 .451426
.7246846 .7245142 .4510447
.8347684 .7244309 .4520289
.9306431 .7236181 .4520822
.9999999 .7231662 .4561859
0 .8344613 .4510237
.05929595 .8343393 .4506918
.2871586 .8341856 .4505213
.4488859 .8344073 .4502388
.5944824 .8345291 .4503398
.7240105 .8346325 .4502238
.8359979 .8344992 .4501516
.9301252 .8343195 .4498654
.9999999 .8323707 .4505705
0 .9295532 .4500488
.01630083 .9296001 .4499908
.2796689 .9297004 .4499343
.4464705 .9296724 .4496689
.5935219 .9292804 .4499632
.7222753 .9292049 .4499856
.8336065 .9289683 .449495
.9294754 .927965 .4493129
.9999999 .9270853 .4485439
0 .9999999 .4488403
.03810088 .9999999 .4492182
.282799 .9999999 .4490448
.4481534 .9999999 .4489485
.592801 .9999999 .4507012
.7200332 .9999999 .4509462
.8303495 .9999999 .4461251
.9276105 .9999999 .4454871
.9999999 .9999999 .4457128
0 0 .5980736
.1383356 0 .5982711
.3088338 0 .5988023
.45939 0 .5988562
.596233 0 .5991379
.7216198 0 .5996808
.8337317 0 .6004198
.9288054 0 .6001179
.9999999 0 .5996544
0 .1413702 .5989315
.1289005 .1391656 .5993072
.3069613 .1332915 .5995131
.4593491 .1297695 .5995198
.5967287 .1259497 .5999951
.7228355 .1225185 .6002387
.8336972 .1150277 .6002434
.9292006 .1057274 .5998378
.9999999 .09731174 .5992539
0 .3052868 .5994996
.1275565 .3040539 .5996472
.3034658 .3034621 .5998823
.4575223 .301981 .5997967
.5970166 .3016369 .6002914
.7245117 .3002222 .5998853
.834361 .2991624 .5993843
.9297035 .2973005 .598756
.9999999 .2942136 .5979947
0 .4591939 .5999873
.1017589 .4584872 .6000308
.294682 .4569793 .599997
.4547435 .4549824 .6004612
.5992893 .4560899 .6003804
.724995 .4561356 .5983962
.8343902 .4545627 .5977769
.9299626 .4533723 .597858
.9999999 .4529728 .5974578
0 .5984758 .6003072
.08300235 .5985548 .6001811
.2916107 .5991348 .5999519
.45424 .5989457 .5995705
.5983793 .5984038 .5993717
.7242216 .5977153 .5985615
.8331552 .5974763 .5988053
.9290787 .5965065 .5979109
.9999999 .595084 .5971679
0 .7250342 .5977021
.04829477 .7250226 .5975041
.2861981 .7249765 .5971572
.4486349 .7249048 .5967111
.595484 .7243248 .5966687
.7253292 .7238844 .5954121
.836418 .7229124 .5942318
.9297143 .7223777 .5968714
.9999999 .7223177 .5969689
0 .8351869 .594815
.01396774 .8351939 .5946773
.2789743 .8350986 .5945573
.4473913 .8344531 .5937122
.5936596 .8343494 .5927518
.7240525 .8339627 .5929561
.8358289 .8337182 .5929618
.9295895 .834001 .5934017
.9999999 .8322544 .59316
0 .9299362 .5935357
0 .9298142 .5935524
.2711177 .9295177 .592944
.4438116 .9291535 .5924689
.5921454 .9289069 .5923868
.7217738 .9286762 .5924098
.8333918 .928274 .5931128
.929276 .928642 .590934
.9999999 .927801 .5913032
0 .9999999 .5916806
0 .9999999 .5907118
.2765033 .9999999 .5910741
.447336 .9999999 .5909553
.592927 .9999999 .5910959
.7184054 .9999999 .5934014
.8290222 .9999999 .5926378
.92749 .9999999 .5907812
.9999999 .9999999 .589672
0 0 .7232369
.1278334 0 .7235036
.3056735 0 .7237834
.4584699 0 .7239099
.5972692 0 .7240478
.7233442 0 .7244866
.8336665 0 .7241269
.928864 0 .7241179
.9999999 0 .724582
0 .135529 .7234995
.1214298 .1325262 .7236435
.3027611 .1270517 .723837
.4572972 .1212052 .7240599
.5969304 .1221002 .7240304
.7233957 .1133775 .7247649
.8341162 .1086923 .7244899
.9296784 .1049893 .7242772
.9999999 .09327898 .7243827
0 .3033579 .7237698
.1121845 .3030899 .7238911
.2993214 .3013912 .7241746
.455394 .2988515 .72451
.5972117 .2985266 .724626
.7232024 .2965634 .7249438
.8354937 .2932338 .7253116
.9306867 .2924406 .7242049
.9999999 .2893771 .7237315
0 .4556166 .7248541
.08150988 .4553078 .7247239
.2902998 .4543094 .7247
.4526526 .4528527 .7246522
.5973746 .4524109 .7247009
.7247095 .450927 .7256743
.8366677 .4498629 .7252437
.9309645 .4512728 .7238378
.9999999 .450997 .7237962
0 .5963244 .7254183
.04420997 .5962345 .725361
.284978 .5960224 .7249513
.4514884 .5956892 .7246178
.5954391 .5950673 .7248916
.7246568 .5947388 .7252355
.8350952 .5958349 .7235411
.9304198 .595293 .7234786
.9999999 .5952656 .7237663
0 .7242224 .7249433
.05867101 .7244021 .7249486
.2875889 .724773 .7248431
.4478027 .7252433 .7244048
.59446 .7244007 .7246061
.7235355 .7234158 .724493
.833252 .7236441 .7241681
.9280193 .7224743 .7235529
.9999999 .721875 .7234599
0 .8354113 .7239971
.0074593 .8352373 .7240204
.2784417 .8348091 .7240776
.4458872 .8344927 .7234964
.5928972 .8339304 .7227498
.7230995 .8329031 .7234704
.8350589 .8333816 .7222635
.9302847 .8333302 .7197742
.9999999 .8323399 .7232005
0 .9295731 .721459
0 .9295297 .7211972
.2716677 .9293318 .7208856
.4427826 .9289871 .7204943
.5917745 .9283978 .7206506
.722082 .9278512 .7202663
.8312433 .9282871 .7199454
.9273089 .9277602 .7205807
.9999999 .926562 .7199721
0 .9999999 .7193471
0 .9999999 .7190785
.2719449 .9999999 .7190744
.4427669 .9999999 .7195078
.5925614 .9999999 .7186502
.7197664 .9999999 .718906
.8288412 .9999999 .7195215
.9250475 .9999999 .7200947
.9999999 .9999999 .7192012
0 0 .8342858
.1183059 0 .8343593
.2998299 0 .8345355
.4566507 0 .8349137
.5959657 0 .8345033
.7242613 0 .8346655
.8338568 0 .8349621
.929189 0 .8347391
.9999999 0 .8346037
0 .1282576 .8343506
.1118693 .1248187 .8344315
.2977779 .1182971 .83459
.4553131 .1123485 .8349826
.595325 .1165299 .8346391
.723893 .10996 .8348613
.8338002 .1006454 .8351555
.9294675 .0946902 .8349207
.9999999 .08052476 .8348505
0 .3008855 .8343827
.08998542 .300175 .834383
.2927363 .2993236 .8344971
.4512605 .2977389 .8348449
.5942723 .2971215 .8350021
.7224304 .294254 .8356311
.8345648 .2901659 .8355774
.9304754 .2878707 .8355054
.9999999 .2837069 .8351335
0 .4545194 .8345704
.06176408 .4540797 .834649
.2861793 .4532222 .8348986
.448366 .4519626 .8355175
.5934049 .4496328 .8358366
.7217855 .4488264 .8361368
.8345783 .4476295 .8359232
.9318753 .4457951 .83569
.9999999 .4463871 .8345515
0 .5949776 .8353988
.00325787 .5950457 .8354459
.2768985 .5947497 .835587
.4475042 .593378 .8355645
.5929598 .5925871 .8356776
.7213199 .5921828 .8360277
.8348731 .5918473 .8357419
.9319633 .5909477 .8349325
.9999999 .5931108 .8335044
0 .7218288 .835374
.02747804 .7219282 .8353144
.2797804 .7222816 .8352314
.4448072 .7228506 .8351739
.592186 .7217655 .8353977
.721607 .7211431 .8355339
.8334646 .7213303 .8348805
.9291309 .721162 .8338524
.9999999 .721046 .833137
0 .8341293 .8348895
.02047444 .834118 .8348143
.2815332 .8340588 .8346292
.4470247 .8338549 .834501
.5916339 .8335151 .8343592
.7215493 .8332422 .8343672
.8325273 .8329042 .834497
.9266635 .83348 .834201
.9999999 .8324624 .833822
0 .9297171 .8338956
0 .9295409 .8339457
.27292 .9290985 .8340483
.444787 .9284971 .8341639
.5936618 .9276969 .8340289
.7221835 .9272947 .8329712
.8319094 .9270744 .8345199
.928452 .9274548 .8339537
.9999999 .9266992 .8328891
0 .9999999 .8327557
0 .9999999 .8327103
.2742512 .9999999 .8322833
.4442134 .9999999 .8315669
.5936916 .9999999 .8307284
.7215409 .9999999 .8314311
.8315908 .9999999 .8318193
.9249752 .9999999 .8324326
.9999999 .9999999 .8310919
0 0 .9283949
.1173176 0 .9285044
.2984555 0 .9287698
.4537002 0 .9292091
.5930852 0 .9292842
.7224496 0 .929408
.8340901 0 .9297281
.9284353 0 .9294219
.9999999 0 .9287789
0 .1245755 .9285555
.1060132 .1217764 .9286554
.2950961 .1170857 .9288592
.45231 .1127526 .9292443
.5928904 .1097319 .9293231
.7215253 .1038948 .9294089
.8334492 .09416271 .9296991
.9285925 .08412173 .9295787
.9999999 .07492305 .9289945
0 .2986851 .9288
.08534122 .2983521 .9288588
.2896144 .2975809 .929018
.4496651 .2963641 .9293812
.5922962 .2950156 .9293562
.7197058 .2925473 .9295795
.8326651 .2898036 .9300197
.9289861 .2860158 .9300605
.9999999 .2842058 .9296461
0 .4509661 .9291245
.03474751 .4502254 .9292284
.2794235 .4495221 .929383
.4446769 .4493055 .9294896
.5915937 .4484623 .9294458
.7181686 .4478043 .929384
.8326354 .4479797 .9298198
.9291968 .4461744 .9298486
.9999999 .4448007 .9300431
0 .593187 .9289891
.00568925 .5930413 .9289538
.2786891 .5926808 .9288905
.446183 .5921471 .9288427
.5920729 .591552 .9288371
.7203341 .5910608 .9289769
.83258 .5911335 .9293079
.9292089 .5902138 .9295217
.9999999 .589567 .9297591
0 .7201332 .9293067
0 .7202117 .9292384
.2702688 .7204314 .9290672
.4418014 .7195309 .928797
.5915698 .7185881 .9286273
.7206026 .7186785 .92884
.8314627 .719887 .9292838
.9283181 .7188151 .9299265
.9999999 .7181302 .9298652
0 .8319547 .9292668
0 .8319653 .9292324
.2755654 .8319862 .9292352
.4420616 .8323409 .9293143
.5888343 .832321 .929355
.7196901 .8316575 .929373
.8317133 .8313053 .9293211
.9278677 .8313118 .9293579
.9999999 .8315333 .9284974
0 .9283381 .9291835
0 .9283061 .9291035
.2762067 .928219 .9289322
.4455389 .9280993 .9289158
.5920455 .9280105 .9288447
.7186268 .9285182 .9287586
.8300447 .9287331 .928714
.9270338 .9278286 .9283718
.9999999 .9273081 .9286868
0 .9999999 .927151
0 .9999999 .9272097
.2743413 .9999999 .9272433
.4450589 .9999999 .9269115
.5924246 .9999999 .9270737
.7214215 .9999999 .9268956
.8353757 .9999999 .9269146
.9276016 .9999999 .9278253
.9999999 .9999452 .9284968
0 0 .9999999
.1198222 0 .9999999
.2994206 0 .9999999
.4538165 0 .9999999
.5939129 0 .9999999
.7196738 0 .9999999
.831441 0 .9999999
.9275241 0 .9999999
.9999999 0 .9999999
0 .1217809 .9999999
.1095805 .1200198 .9999999
.2959491 .1168156 .9999999
.4526041 .1141883 .9999999
.5937316 .108329 .9999999
.7192468 .1002141 .9999999
.8313512 .09305961 .9999999
.927648 .08475818 .9999999
.9999999 .0812547 .9999999
0 .2985066 .9999999
.08795791 .2985005 .9999999
.2901569 .2984418 .9999999
.4504409 .2974183 .9999999
.5930532 .2955766 .9999999
.7185695 .2926421 .9999999
.8306279 .2902424 .9999999
.927516 .288616 .9999999
.9999999 .286816 .9999999
0 .4490091 .9999999
.00221633 .4489009 .9999999
.2765785 .4485933 .9999999
.4443403 .4493548 .9999999
.5909934 .4491397 .9999999
.7175004 .4494068 .9999999
.8303198 .4483745 .9999999
.9276766 .4475914 .9999999
.9999999 .4463775 .9999999
0 .5914184 .9999999
.0099338 .5912446 .9999999
.2761551 .5902753 .9999999
.4402884 .5886467 .9999999
.5897574 .589978 .9999999
.719436 .590998 .9999999
.8302243 .5920554 .9999999
.9274517 .5915641 .9999999
.9999999 .5904969 .9999999
0 .7180392 .9999999
.02382049 .7181886 .9999999
.2755596 .7183322 .9999999
.4414314 .718437 .9999999
.5881116 .7177503 .9999999
.7176971 .717737 .9999999
.8291656 .7188413 .9999999
.9261668 .7178012 .9999999
.9999999 .7170671 .9999999
0 .8301728 .9999999
0 .8301412 .9999999
.276332 .8299274 .9999999
.4447558 .8299116 .9999999
.5910804 .8294964 .9999999
.7191576 .829312 .9999999
.8288233 .8301327 .9999999
.9235146 .8306462 .9999999
.9999999 .8301722 .9999999
0 .9255259 .9999999
.02366608 .9254403 .9999999
.283149 .9251866 .9999999
.4485592 .924873 .9999999
.5930492 .9245384 .9999999
.7189679 .9243904 .9999999
.8322064 .9239799 .9999999
.9262599 .9250855 .9999999
.9999999 .9265003 .9999999
0 .9999999 .9999999
.00608488 .9999999 .9999999
.2800279 .9999999 .9999999
.447458 .9999999 .9999999
.5935012 .9999999 .9999999
.7195878 .9999999 .9999999
.8361387 .9999999 .9999999
.931601 .9989386 .9999999
.9999999 .9978988 .9999999
