luts/Timeless 24.cube
# 3D LUT of size 33x33x33 converted by Filestar.
#   Input:
#     color space: sRGB
#     white point: default (D65)
#     transfer function: default (sRGB)
#   Output:
#     color space: sRGB
#     white point: default (D65)
#     transfer function: default (sRGB)
#   Exposure: +0.5
#   Contrast: +21
#   Whites: +7
#   Blacks: -19
#   Vibrance: +5
LUT_3D_SIZE 5
0 .0019221 .00886285
.3023004 0 0
.5970772 0 0
.8397444 0 0
.9999999 0 0
0 .2836612 0
.3099635 .2847733 0
.5986682 .2869097 0
.8411571 .2846765 0
.9999999 .2821344 0
0 .5606682 0
.3105745 .5611854 0
.6031292 .5606746 0
.8425198 .5613722 0
.9999999 .5593759 0
0 .7933083 0
.3091375 .7931148 0
.6032386 .793017 0
.8441337 .7925584 0
.9999999 .7921646 0
0 .9742096 0
.2986636 .9740626 0
.6034333 .9740953 0
.8428048 .9728358 0
.9999999 .9721208 0
0 0 .3089982
.3072073 0 .3118684
.6004463 0 .313273
.84098 0 .3132592
.9999999 0 .3108754
0 .2850229 .3143333
.3105993 .2842943 .3136554
.6001567 .2835912 .312679
.8421183 .2803743 .311379
.9999999 .2760348 .3086235
0 .5606484 .3083356
.3047844 .5614349 .3076616
.6033173 .5615267 .3079911
.8433613 .5603131 .3078152
.9999999 .5576538 .3051411
0 .7935612 .2978247
.296347 .7937054 .2971988
.6016111 .7936093 .2966597
.8460207 .7924717 .2949695
.9999999 .7917004 .2949267
0 .9745751 .2911722
.2868833 .9745988 .2906053
.5994918 .974445 .2924009
.8416485 .9735929 .2885791
.9999999 .9720395 .2900832
0 0 .6039146
.3114118 0 .6044589
.6020939 0 .6045922
.8431819 0 .6056899
.9999999 0 .6049261
0 .280208 .6050262
.3065748 .278527 .6054259
.6026405 .2767703 .6056181
.8436881 .2740613 .6050805
.9999999 .2681942 .6035821
0 .5599843 .6058829
.296999 .5598009 .6055729
.6058032 .5584595 .6053709
.8423801 .5587196 .6045203
.9999999 .5565543 .6032293
0 .7940078 .6014841
.2860421 .7939912 .6013263
.6013137 .7932223 .6000151
.8445683 .7928323 .5999749
.9999999 .7916394 .6025687
0 .9741759 .5980645
.2761211 .9737877 .5975624
.59802 .9734709 .5972967
.8404304 .9735489 .5990446
.9999999 .9722802 .5945732
0 0 .8435996
.3021154 0 .8439452
.6012538 0 .8438455
.843186 0 .8440583
.9999999 0 .8438247
0 .2747037 .8437461
.296244 .2729581 .8438654
.5995842 .271881 .8439718
.8437529 .2639615 .8446743
.9999999 .257914 .8443021
0 .5563236 .8442727
.2847013 .5549434 .8445689
.5980768 .5534119 .8449068
.8444049 .5522351 .844929
.9999999 .5517457 .8437673
0 .7921181 .8443363
.2847995 .7919737 .8443648
.5985393 .7914939 .8441753
.8430759 .7907201 .8436526
.9999999 .7908871 .8427038
0 .9741194 .8427442
.2764159 .9735771 .8428701
.5994172 .9730482 .842034
.8404271 .9724234 .843051
.9999999 .9713339 .8415787
0 0 .9999999
.3018011 0 .9999999
.5994738 0 .9999999
.8415521 0 .9999999
.9999999 0 .9999999
0 .2723662 .9999999
.2944492 .2721137 .9999999
.5989992 .2686091 .9999999
.8406853 .26296 .9999999
.9999999 .2586504 .9999999
0 .5520517 .9999999
.276497 .5497212 .9999999
.5959237 .551648 .9999999
.8402207 .5526991 .9999999
.9999999 .5509961 .9999999
0 .7883409 .9999999
.2752689 .7884083 .9999999
.5959516 .7879036 .9999999
.8385187 .7891392 .9999999
.9999999 .787352 .9999999
0 .9710386 .9999999
.284195 .970791 .9999999
.5988202 .9701644 .9999999
.8419845 .9699772 .9999999
.9999999 .9722064 .9999999
