luts/Timeless_3.cube
# 3D LUT of size 33x33x33 converted by Filestar.
#   Input:
#     color space: sRGB
#     white point: default (D65)
#     transfer function: default (sRGB)
#   Output:
#     color space: sRGB
#     white point: default (D65)
#     transfer function: default (sRGB)
#   Exposure: +0.32999998
#   Contrast: -48
#   Whites: -26
#   Blacks: +13
#   Vibrance: +30
LUT_3D_SIZE 33
.05650328 .0111147 .0211726
.08224354 .00378151 .02183082
.1039925 0 .02190284
.1318864 0 .02343208
.1657593 0 .01921009
.2008585 0 .01527575
.2357088 0 .01197405
.2707368 0 .00829091
.306328 0 .00281741
.3427917 0 0
.3796872 0 0
.416079 0 0
.4512743 0 0
.4857926 0 0
.5185338 0 0
.5506358 0 0
.5820935 0 0
.6124094 0 0
.6434011 0 0
.6738871 0 0
.702993 0 0
.7313828 0 0
.7590498 0 0
.7856661 0 0
.8118017 0 0
.8374445 0 0
.8626647 0 0
.8874752 0 0
.9119924 0 0
.9358741 0 0
.9586985 0 0
.9808555 0 0
.9999999 0 0
.04873642 .04442413 .01098634
.07700723 .03960275 .01352956
.09945717 .03828464 .01686266
.1316887 .03573381 .02015517
.1656958 .03413539 .02018324
.1998972 .03198948 .01795802
.234676 .02949164 .01502447
.2712701 .02489953 .00899187
.3074224 .02875491 .00234946
.3437928 .03001062 0
.3803267 .02868374 0
.4165912 .02906716 0
.4513796 .03010019 0
.4857728 .02826237 0
.5184261 .01789558 0
.5504314 .00537847 0
.5818092 0 0
.6122462 0 0
.6430971 0 0
.6735458 0 0
.702652 0 0
.7310546 0 0
.7586831 0 0
.7853166 0 0
.8114698 0 0
.8371315 0 0
.8623494 0 0
.8873603 0 0
.9118555 0 0
.9357537 0 0
.9586145 0 0
.9807554 0 0
.9999999 0 0
.03318016 .08163696 .01256777
.06869543 .08145929 .01382261
.09728753 .08193051 .01497427
.1282974 .08260507 .01743445
.1621341 .08118317 .01639192
.1974165 .08013924 .01395974
.2345423 .07915733 .01119873
.2715748 .0754363 .00925962
.3078014 .07418375 .00469366
.344512 .07279012 0
.380701 .07235386 0
.4167204 .07218271 0
.4514963 .07271691 0
.4856824 .06954337 0
.5183569 .06175879 0
.5501859 .05204535 0
.5814717 .04133439 0
.6119334 .03697895 0
.6427349 .03165929 0
.6730913 .02720807 0
.7022493 .02307053 0
.7306663 .01895869 0
.7582605 .0150666 0
.7848649 .0126832 0
.8110496 .00545194 0
.8367512 0 0
.8620885 0 0
.8871973 0 0
.9116954 0 0
.9356031 0 0
.9584654 0 0
.9806426 0 0
.9999999 0 0
.01866901 .1242661 .00736238
.06250257 .1237393 .00834585
.09468869 .1233322 .00955305
.1287726 .122611 .01031307
.1631892 .1225628 .01072583
.1993107 .1217347 .00632602
.2359121 .1201061 .00155195
.2724095 .1174814 .00004164
.3080609 .114549 .00119936
.344456 .1125361 0
.3805702 .1120283 0
.416615 .1120763 0
.4513291 .111532 0
.4854168 .108418 0
.518122 .1027469 0
.5500211 .09597506 0
.5808718 .09116086 0
.6114053 .08915814 0
.6421867 .08633926 0
.6724612 .08386665 0
.7016293 .08122551 0
.7300757 .07872698 0
.7576226 .07637725 0
.7843286 .07339848 0
.810404 .07058007 0
.8362795 .06602608 0
.8617149 .06073751 0
.8868899 .05266081 0
.911437 .04442594 0
.9353618 .0381563 0
.9582031 .0319032 0
.9804007 .02449366 0
.9999431 .01836017 0
.02001502 .1591116 .00121521
.06311236 .1587195 .00110619
.09647881 .1584093 .00123119
.1299103 .158362 .00061055
.1647994 .1578366 .00152564
.1997149 .1578586 0
.2366191 .1562892 0
.2738708 .1548275 0
.3092468 .1539636 0
.3443778 .1524079 0
.3808053 .15119 0
.4160239 .1507111 0
.4508039 .1496707 0
.4847624 .1462429 0
.5176066 .1416156 0
.5497649 .1357456 0
.5805269 .1332178 0
.6107303 .1325693 0
.6414517 .1308986 0
.6718229 .128744 0
.7007962 .1273239 0
.7292846 .1256733 0
.7567682 .1241993 0
.7834563 .1221456 0
.8097695 .1205736 0
.8357277 .117458 0
.8612698 .1140166 0
.8864623 .1094402 0
.9110561 .1046168 0
.9349917 .1008705 0
.9578394 .0977203 0
.9800141 .09408998 0
.999563 .09095853 0
.01410757 .1964993 0
.05932641 .1961155 0
.09361709 .1957956 0
.1302459 .1952992 0
.1659977 .1945685 0
.2019988 .1936783 0
.2381222 .1927792 0
.2749511 .192587 0
.3104275 .1922046 0
.3453061 .19148 0
.3802202 .1906218 0
.4157646 .1888173 0
.4497766 .1872468 0
.4838082 .1841619 0
.5168732 .1799135 0
.5491716 .1747684 0
.5799241 .1731106 0
.6101849 .1727146 0
.6405722 .1715774 0
.6710507 .1697016 0
.6998369 .168884 0
.7282416 .1677771 0
.7557712 .1663298 0
.7827284 .1643505 0
.8091749 .1627292 0
.8351164 .1616793 0
.8607063 .1588488 0
.8859199 .1555837 0
.9105562 .1518421 0
.9344926 .148664 0
.9573416 .1465408 0
.9795191 .1443634 0
.9990802 .1423146 0
.01522501 .2324006 0
.06246618 .2321078 0
.09740389 .2317936 0
.1335196 .2315361 0
.1688681 .2310439 0
.2047212 .2302173 0
.238673 .2300452 0
.2742476 .2304136 0
.3105322 .2299593 0
.3456229 .2295858 0
.3804561 .2286015 0
.4147539 .2267052 0
.4495344 .2238552 0
.4824785 .2214225 0
.5156845 .2179032 0
.5481401 .2140931 0
.5789103 .2125284 0
.6095426 .2118174 0
.6405338 .2105407 0
.6701871 .209572 0
.6990545 .2086824 0
.7273123 .2077659 0
.754783 .2061667 0
.7817704 .2047396 0
.808269 .2032671 0
.8343775 .2016566 0
.8600161 .2001501 0
.8852556 .19761 0
.9100121 .1944465 0
.9338285 .1916503 0
.9566875 .1897872 0
.9789076 .1883116 0
.9985263 .1863716 0
.00463152 .2688533 0
.05430887 .268532 0
.09214058 .2681503 0
.13027 .2677501 0
.1680599 .2674151 0
.2041848 .2670443 0
.2390126 .2670367 0
.2737145 .267638 0
.3087347 .2681999 0
.3449401 .2671734 0
.3804211 .2654917 0
.4145407 .2635547 0
.4481471 .261398 0
.4815615 .2584514 0
.5146571 .2554006 0
.5466081 .2526163 0
.5774409 .2512359 0
.608923 .2494524 0
.6397185 .248472 0
.669396 .2477312 0
.6982348 .2469641 0
.7263271 .2461361 0
.7536407 .2453431 0
.7806044 .2442483 0
.8071432 .243024 0
.8335701 .241177 0
.8593389 .239214 0
.8844521 .2374779 0
.9091686 .234669 0
.9329792 .2320885 0
.9558687 .2305487 0
.978202 .2285804 0
.9979636 .2266062 0
0 .3044657 0
.04296502 .3042782 0
.08450069 .3040667 0
.1237186 .3039755 0
.1617087 .3039313 0
.1995808 .3038556 0
.2372045 .3038234 0
.2739201 .3039211 0
.308351 .3045144 0
.3424732 .3044402 0
.3782213 .3027847 0
.4138781 .3006818 0
.4474691 .2978115 0
.480525 .2955578 0
.513665 .2931963 0
.5460301 .2898446 0
.5760972 .2887457 0
.6078003 .2867875 0
.6386669 .2857199 0
.6683052 .2849349 0
.6972206 .2843674 0
.7252082 .2838782 0
.752529 .2831618 0
.7793955 .2824171 0
.8062968 .2811105 0
.8326254 .2794837 0
.8584311 .2778301 0
.8835435 .2759711 0
.9080827 .2740106 0
.9319214 .2712256 0
.9549769 .2686395 0
.9774104 .2668565 0
.9972195 .2651182 0
0 .3400155 0
.02387539 .340081 0
.07094919 .3401495 0
.1134552 .3402469 0
.1535555 .3402995 0
.1933622 .3403298 0
.2321632 .3400708 0
.269557 .3396516 0
.3070698 .3392495 0
.3421777 .3391808 0
.3760474 .3384426 0
.4111935 .3368778 0
.4463343 .334789 0
.4802676 .3322098 0
.5130287 .3294885 0
.5451321 .3268329 0
.576574 .3241172 0
.607942 .3223515 0
.6372331 .3226248 0
.6669092 .3220503 0
.6958416 .3214559 0
.7239048 .3207572 0
.7513724 .3199762 0
.7786232 .3188589 0
.8054991 .3177686 0
.8317146 .3164762 0
.857472 .3150082 0
.8825302 .3133588 0
.9071462 .3109912 0
.9307406 .3090384 0
.9539477 .3061648 0
.9766565 .3035887 0
.9965681 .3019322 0
0 .3747937 0
.00080986 .3747136 0
.05304576 .3746446 0
.1010985 .3745624 0
.1447511 .3744625 0
.186043 .3743279 0
.2261467 .3741508 0
.2655374 .3737171 0
.3030731 .3734416 0
.3407823 .3730255 0
.375632 .3722634 0
.4094376 .3713126 0
.4445533 .3698901 0
.4793742 .3678994 0
.5126724 .3656759 0
.5445862 .3630913 0
.5760832 .361018 0
.6077111 .3586397 0
.6380459 .357388 0
.6666835 .3572654 0
.6944135 .3577084 0
.7224663 .3570208 0
.7504082 .3558486 0
.7779089 .3547686 0
.8047983 .3535255 0
.8308265 .3525066 0
.8564057 .3509075 0
.8816152 .3488303 0
.906179 .3466039 0
.929915 .3443629 0
.9532333 .3420777 0
.9757633 .3403053 0
.9955744 .3383859 0
0 .4082915 0
0 .4083062 0
.01445658 .4083211 0
.08028328 .4082334 0
.1307861 .4080968 0
.1754563 .4079193 0
.2185641 .4075967 0
.2600345 .4072892 0
.2988946 .4067895 0
.3366046 .4064499 0
.3728564 .4059759 0
.4077752 .4050055 0
.4416458 .4039236 0
.4766764 .4023124 0
.5105031 .4007337 0
.5440472 .3989544 0
.5766817 .3969914 0
.6072474 .3956689 0
.6375977 .3939242 0
.666965 .3922771 0
.6949134 .3917076 0
.7223335 .391311 0
.7494386 .3912576 0
.7770076 .3902413 0
.8036855 .3886789 0
.8297863 .3871677 0
.855222 .3856345 0
.8805174 .383658 0
.905143 .3813062 0
.9290566 .3793015 0
.9522358 .3774379 0
.9748076 .3754137 0
.9943537 .3742658 0
0 .4417682 0
0 .4417964 0
0 .4418281 0
.05997918 .4418735 0
.1175299 .4417742 0
.1665573 .4415364 0
.2110125 .441187 0
.2531995 .4406053 0
.2938564 .4399535 0
.3318976 .4393603 0
.3688467 .4388757 0
.4045307 .4383294 0
.4396915 .4377285 0
.4729673 .4370806 0
.5074314 .4356455 0
.5419051 .4338231 0
.575403 .4326608 0
.6068643 .4313084 0
.6370113 .4298703 0
.6664146 .4284903 0
.6954228 .4267519 0
.7231905 .4253245 0
.7503082 .4244922 0
.7761825 .4238762 0
.8020286 .4232157 0
.8281885 .4217247 0
.8539746 .4199641 0
.8793421 .4180526 0
.903842 .4161146 0
.9278676 .4140649 0
.9510358 .4121914 0
.9736851 .4100503 0
.9938547 .4087329 0
0 .4741976 0
0 .4741854 0
0 .4741715 0
.05415615 .4741027 0
.1134924 .4739946 0
.1619721 .4738069 0
.2071821 .4734821 0
.2495496 .4730738 0
.2902562 .472595 0
.3288017 .4720193 0
.3651013 .4717892 0
.4011797 .4715177 0
.4357419 .4711525 0
.4703858 .4706166 0
.5047804 .4700913 0
.5404796 .468322 0
.5735483 .4669244 0
.6057874 .4653231 0
.6361683 .4636635 0
.6658221 .4620017 0
.6947018 .4607847 0
.7230607 .4595141 0
.7503284 .4581616 0
.7766256 .4570075 0
.8022533 .4560628 0
.8269596 .4555654 0
.852157 .4542091 0
.8776888 .4520503 0
.9024885 .4499693 0
.9265379 .4479218 0
.9498509 .445968 0
.9727064 .444368 0
.9927323 .4428401 0
0 .5060806 0
0 .5060748 0
0 .5060682 0
.04595926 .5060589 0
.1087144 .5060201 0
.1573669 .505913 0
.2022219 .5055638 0
.2455634 .5052096 0
.2869234 .5048055 0
.3265018 .5043781 0
.3632257 .5039485 0
.398209 .5038109 0
.4328017 .5038099 0
.4673178 .5035323 0
.5038742 .5024997 0
.5389369 .5013092 0
.5720974 .5002244 0
.6039444 .49846 0
.6347183 .4966502 0
.6641798 .4952732 0
.6932909 .4939229 0
.7215495 .4927086 0
.7488507 .4916494 0
.7757338 .4903963 0
.8019859 .488621 0
.8274469 .4871467 0
.8525057 .4855778 0
.8767775 .4847154 0
.9007052 .4836451 0
.9251944 .4813565 0
.9487332 .4795703 0
.9714432 .47803 0
.9915265 .476621 0
0 .5385297 0
0 .5385065 0
0 .5384837 0
.03170422 .5384514 0
.1014499 .5384082 0
.1523379 .5383304 0
.1972559 .5381834 0
.2401501 .5379046 0
.2825266 .537388 0
.3224861 .5368553 0
.3606578 .5361528 0
.3958955 .5356591 0
.4304964 .5352469 0
.4665824 .5347034 0
.5019609 .5337815 0
.5366991 .5328996 0
.5699709 .5318822 0
.6012237 .5308735 0
.6320326 .5291304 0
.662157 .5271593 0
.6912363 .5256816 0
.7195417 .5244226 0
.7472897 .5233521 0
.7740974 .522275 0
.8001341 .5212965 0
.8266609 .5194331 0
.8524581 .5174388 0
.8773154 .5159759 0
.9016303 .5144994 0
.9248682 .513362 0
.9474242 .5127301 0
.9703328 .5109413 0
.9904298 .5095555 0
0 .5691307 0
0 .569066 0
0 .5689902 0
.02328528 .5689108 0
.09710746 .5688124 0
.1493341 .5686877 0
.1948743 .5685161 0
.2371653 .568279 0
.2789149 .5678423 0
.3190467 .5672625 0
.357329 .5666372 0
.39402 .5659364 0
.4307791 .5653574 0
.4657336 .5644529 0
.5004203 .5634561 0
.5345257 .5627528 0
.5667624 .5623714 0
.5984529 .5615073 0
.629295 .5603845 0
.6597402 .5588486 0
.6890212 .5570397 0
.7175289 .5553073 0
.7453322 .553893 0
.7729203 .552685 0
.7994166 .5521914 0
.8253959 .5514143 0
.8513117 .5499844 0
.8765267 .5483091 0
.9011987 .5464251 0
.9249442 .5450478 0
.9480019 .5437101 0
.969992 .5428066 0
.9892731 .5426094 0
0 .5984102 0
0 .5983583 0
0 .5982997 0
.00468629 .5982159 0
.087015 .5981037 0
.1427324 .5979613 0
.1898114 .5977898 0
.2329279 .5975856 0
.2738422 .5973148 0
.3147667 .5967795 0
.3532569 .5962728 0
.3926777 .5955712 0
.4292073 .5946817 0
.4644879 .5939815 0
.4983616 .5934098 0
.5312133 .5927086 0
.5638462 .5921569 0
.5956536 .5915224 0
.6269958 .5907729 0
.6574143 .5894074 0
.6865904 .5882078 0
.7150669 .5864525 0
.7433645 .5846074 0
.7710942 .5833542 0
.7983267 .5824999 0
.8245271 .5820673 0
.8501853 .5811126 0
.8754334 .5797997 0
.900137 .5783582 0
.9239886 .5772213 0
.9470745 .5761803 0
.9694614 .5752625 0
.9897383 .5741515 0
0 .6273734 0
0 .6273211 0
0 .6272623 0
0 .6271815 0
.07405663 .6270733 0
.1346923 .626936 0
.1838127 .626768 0
.2281636 .6265679 0
.2698397 .6263352 0
.3104849 .6259511 0
.3503408 .6254256 0
.3891366 .6248603 0
.4266496 .6242879 0
.4616757 .6237311 0
.4953448 .6231233 0
.5281679 .6224979 0
.5609379 .6217052 0
.5930282 .6210722 0
.6241791 .6204522 0
.6545526 .6197674 0
.6845537 .6181787 0
.7133403 .6172175 0
.7411287 .6158112 0
.7692639 .6139788 0
.7966231 .6125656 0
.8232702 .6119254 0
.8491799 .6114323 0
.8744035 .6107534 0
.8990064 .6099185 0
.9227272 .6091383 0
.9457857 .6082544 0
.9688029 .6068793 0
.9891892 .605563 0
0 .655766 0
0 .6557151 0
0 .6556578 0
0 .6555756 0
.06007902 .655473 0
.1266521 .6553593 0
.1772035 .6553057 0
.22295 .6552351 0
.266668 .6550645 0
.3059047 .6549187 0
.3452608 .6545786 0
.3843392 .6541528 0
.4222519 .6537165 0
.4574111 .6532251 0
.4912994 .6527214 0
.5244678 .6521021 0
.557458 .6513617 0
.589587 .6504694 0
.6209237 .6496518 0
.6519571 .6489983 0
.6817359 .6485919 0
.7114395 .6467887 0
.7402471 .6457586 0
.7680286 .6444376 0
.7951681 .6431171 0
.821543 .6421365 0
.8474942 .6418865 0
.873028 .6414469 0
.897677 .6406553 0
.9213573 .6397834 0
.9448614 .638755 0
.9680218 .6376362 0
.9883584 .636696 0
0 .6844094 0
0 .6843972 0
0 .6843831 0
0 .6843039 0
.0278859 .6841306 0
.1209625 .6838915 0
.1689209 .6839624 0
.2152196 .6838871 0
.2589163 .6837316 0
.3007579 .6835099 0
.3410144 .6831663 0
.3793176 .6828244 0
.4166546 .6824467 0
.45284 .6820345 0
.487149 .6815162 0
.5207505 .6808879 0
.5537238 .6802016 0
.5859523 .6795134 0
.6173146 .678827 0
.6481203 .6780778 0
.6788689 .6774129 0
.7089158 .6770641 0
.7388702 .675424 0
.7667904 .6747555 0
.793713 .6741506 0
.819793 .6730648 0
.8452806 .6719055 0
.870553 .6711515 0
.8952813 .6706455 0
.9200414 .6695585 0
.9439999 .6687409 0
.9671252 .6678296 0
.9874361 .6669689 0
0 .7126951 0
0 .712674 0
0 .7126501 0
0 .7126288 0
0 .7126063 0
.07800887 .7125793 0
.1461629 .7125022 0
.1999763 .712355 0
.2473149 .7121835 0
.2928027 .7117172 0
.3324517 .7115888 0
.3711304 .7112889 0
.4090853 .7108789 0
.446039 .7104167 0
.4818059 .710047 0
.5153619 .7095316 0
.5490773 .7089405 0
.5821272 .7084172 0
.6140671 .7078157 0
.6451939 .7072223 0
.676302 .7065319 0
.7066039 .706138 0
.7365376 .7053878 0
.7654557 .70386 0
.7926938 .7029593 0
.8189318 .7021634 0
.8442839 .7012861 0
.8691006 .7001555 0
.8935487 .6995455 0
.9182013 .698792 0
.9422844 .698127 0
.9657388 .6974106 0
.9858434 .6969877 0
0 .7404359 0
0 .7404283 0
0 .7403924 0
0 .7402728 0
0 .740117 0
.04234327 .739953 0
.1295736 .7398289 0
.1873945 .7396792 0
.2368552 .7394934 0
.2819098 .7392789 0
.3238483 .7390497 0
.3642167 .7387403 0
.4028291 .7385714 0
.4405888 .7382738 0
.4776285 .7380136 0
.5129101 .7377165 0
.5467716 .7373168 0
.5795316 .7368392 0
.6115825 .7362741 0
.6438347 .7355545 0
.6745158 .7348853 0
.7046602 .7341579 0
.73388 .7336932 0
.7630762 .7327694 0
.7909895 .7314292 0
.8175845 .7303941 0
.8428608 .7298901 0
.8676062 .7293862 0
.8926486 .7281899 0
.9174016 .7272217 0
.9414532 .7264152 0
.9647735 .7256414 0
.9852609 .7250619 0
0 .7671337 0
0 .767106 0
0 .7670761 0
0 .7670332 0
0 .7669791 0
.00423487 .7669221 0
.1129703 .7668583 0
.1763182 .7667828 0
.2287164 .7666885 0
.2749349 .76658 0
.3181182 .7664815 0
.3589937 .7663691 0
.3972279 .7662482 0
.4351709 .7659948 0
.4738938 .7656202 0
.5095947 .7654271 0
.5430368 .7649029 0
.5760884 .7642928 0
.6090914 .7636091 0
.6410991 .762861 0
.6725682 .7620373 0
.7028209 .7612916 0
.7322634 .7606258 0
.7605397 .7602795 0
.7886887 .7596763 0
.8155174 .7586907 0
.8412461 .7576745 0
.8668188 .7567937 0
.8919747 .7558722 0
.9164692 .7548132 0
.9406513 .7539067 0
.9638907 .7532978 0
.9844843 .7526957 0
0 .7937472 0
0 .7937211 0
0 .7937025 0
0 .793663 0
0 .7936037 0
0 .7935156 0
.09820729 .7934067 0
.1676577 .7932742 0
.2220223 .7931201 0
.2699371 .7929439 0
.314027 .7927992 0
.355225 .7926845 0
.3937575 .7926162 0
.4311401 .7924751 0
.4680967 .7921652 0
.504207 .7917983 0
.5398727 .7912926 0
.5736097 .7906823 0
.6064063 .7899692 0
.6384546 .7892177 0
.6699578 .7885364 0
.7001144 .7879175 0
.7297416 .7872143 0
.7582483 .7867139 0
.7863663 .7861593 0
.8139809 .7855691 0
.8406845 .7847376 0
.8666458 .7836708 0
.8915603 .7831118 0
.91592 .7824407 0
.9398997 .7814162 0
.963356 .7804904 0
.9841577 .7800203 0
0 .819478 0
0 .8194531 0
0 .8194284 0
0 .8193967 0
0 .8193571 0
0 .8193102 0
.07416581 .819253 0
.1541618 .8191658 0
.2122897 .819052 0
.2623003 .8189254 0
.3079183 .8187852 0
.3499568 .8186383 0
.3886295 .8184683 0
.425728 .8182887 0
.4620973 .8180054 0
.4995778 .8176348 0
.5356787 .8171652 0
.5702806 .8166049 0
.6041135 .8157966 0
.6362475 .8151632 0
.6677354 .8144186 0
.6980808 .8137799 0
.7277822 .8132265 0
.7563064 .8128846 0
.7842791 .8124958 0
.8122272 .8120717 0
.8395086 .8116269 0
.8658417 .8106636 0
.8914012 .8097218 0
.9158787 .809346 0
.9398162 .809088 0
.963188 .8084645 0
.9839913 .807591 0
0 .844853 0
0 .8448225 0
0 .8447879 0
0 .8447384 0
0 .8446724 0
0 .8445883 0
.04606992 .8445166 0
.1409516 .8444526 0
.2024951 .8443783 0
.2544584 .844264 0
.3003631 .8440935 0
.3421493 .8439393 0
.3814618 .8437907 0
.4193996 .8436061 0
.4575332 .8434149 0
.4947064 .8430993 0
.5314019 .8427111 0
.5670779 .8423223 0
.6006154 .8416181 0
.6331777 .8408831 0
.6658754 .8400431 0
.6964035 .8394772 0
.7256217 .8390999 0
.7544925 .8386773 0
.7828544 .8382965 0
.8106834 .8379663 0
.8378202 .837767 0
.8646395 .8373955 0
.8907148 .8365717 0
.9161202 .8357591 0
.9401464 .8354482 0
.9633588 .8351958 0
.9838355 .8349512 0
0 .8696349 0
0 .8696103 0
0 .8695826 0
0 .8695428 0
0 .8694895 0
0 .8694212 0
.0022859 .8693351 0
.1232511 .8692124 0
.1900706 .8689888 0
