luts/Timeless_34.cube
# 3D LUT of size 33x33x33 converted by Filestar.
#   Input:
#     color space: sRGB
#     white point: default (D65)
#     transfer function: default (sRGB)
#   Output:
#     color space: sRGB
#     white point: default (D65)
#     transfer function: default (sRGB)
#   Exposure: +0.25
#   Contrast: -40
#   Blacks: -21
#   Vibrance: +26
LUT_3D_SIZE 5
.02097418 .01488591 .03060538
.2479393 0 .03126928
.5349846 0 0
.7871464 0 0
.9999999 0 0
0 .2635503 0
.26287 .2642453 0
.5386109 .2655386 0
.7885898 .255015 0
.9999999 .2396283 0
0 .5444974 0
.2505527 .5443392 0
.5431025 .5441602 0
.7929476 .5392495 0
.9999999 .5347311 0
0 .792522 0
.2074571 .7924998 0
.5330161 .792282 0
.7897781 .7908232 0
.9999999 .7863122 0
0 .9999999 0
.1057093 .9999999 0
.5041837 .9999999 0
.7779576 .9999999 0
.9988114 .9999999 0
0 0 .2632177
.2655392 0 .2693995
.543601 0 .2660999
.7914765 0 .2553886
.9999999 0 .2407906
0 .2665 .2691461
.2567298 .2645401 .267695
.5411547 .2580402 .2636975
.7923804 .2437369 .250304
.9999999 .223974 .2324138
0 .5457378 .2339596
.2188845 .546986 .2286727
.5427063 .5465124 .2286572
.7968996 .5351024 .2299773
.9999999 .5306573 .2269225
0 .794314 .1733329
.1576108 .7944529 .1630967
.5249849 .7937908 .1677957
.7913841 .7925347 .1786428
.9999999 .7841654 .1620923
0 .9999999 .03046368
.01048451 .9999999 0
.4930629 .9999999 0
.7743424 .9999999 .02506245
.9990571 .9999999 .07973485
0 0 .5428375
.2584759 0 .543226
.5484934 0 .5460159
.7954663 0 .5414687
.9999999 0 .5305302
0 .237736 .5457081
.2395106 .2326225 .5471497
.5484264 .2252914 .5488995
.7986299 .2201872 .5382352
.9999999 .1941135 .5282921
0 .5458511 .5465124
.1846455 .5458058 .5466669
.5382603 .5355454 .5396614
.7900851 .5341926 .5362447
.9999999 .5240305 .5279794
0 .7966099 .5117711
0 .7960764 .5078374
.5004745 .7948974 .5041889
.7908114 .7937879 .5013619
.9999999 .7819082 .4993626
0 .9999999 .4757364
0 .9999999 .4742411
.4685247 .9999999 .4699412
.7666851 .9999999 .4690333
.9999129 .9999999 .4699291
0 0 .7899002
.2425628 0 .7907117
.5335422 0 .7922462
.7908266 0 .7936525
.9999999 0 .7898209
0 .2176399 .7918795
.2055564 .2068067 .7927415
.5250509 .1871026 .7944632
.7944558 .1732017 .795629
.9999999 .1413786 .7900102
0 .5150338 .7947651
.05399241 .5118636 .7951686
.5056254 .5025105 .7963316
.7961975 .50423 .7962306
.9999999 .5060931 .7860078
0 .7933412 .7938111
0 .7934653 .7939686
.4889374 .7923832 .7927325
.7865734 .7858911 .7885734
.9999999 .7836209 .7858889
0 .9999999 .7704141
0 .9999999 .7686909
.4521728 .9999999 .7652712
.7581609 .9999999 .7618125
.9995819 .9999999 .7604299
0 0 .9999999
.2163751 0 .9999999
.5208778 0 .9999999
.7815859 0 .9999999
.9999999 0 .9999999
0 .1789267 .9999999
.1845988 .1608065 .9999999
.508883 .1299063 .9999999
.7772095 .08098204 .9999999
.9999999 .05109242 .9999999
0 .4908934 .9999999
0 .4860584 .9999999
.4775788 .4759983 .9999999
.7680981 .469844 .9999999
.9999999 .4709176 .9999999
0 .7652058 .9999999
0 .7643886 .9999999
.4556266 .7601842 .9999999
.7583606 .7610212 .9999999
.9999999 .7624398 .9999999
0 .9999999 .9999999
0 .9999999 .9999999
.4377328 .9999999 .9999999
.7577568 .9999999 .9995759
.9999999 .9957438 .9977664
