luts/Timeless_4.cube
# 3D LUT of size 33x33x33 converted by Filestar.
#   Input:
#     color space: sRGB
#     white point: default (D65)
#     transfer function: default (sRGB)
#   Output:
#     color space: sRGB
#     white point: default (D65)
#     transfer function: default (sRGB)
#   Exposure: -0.01
#   Contrast: +17
#   Whites: +19
#   Blacks: -11
#   Vibrance: +34
LUT_3D_SIZE 5
.01322894 .01887361 .03300441
.2283543 0 .02148964
.492436 0 0
.7500997 0 0
.9999999 0 0
0 .2670125 0
.2456637 .2661959 0
.4961746 .2625706 0
.7520189 .2507339 0
.9999999 .227156 0
0 .5494979 0
.2069819 .5498396 0
.4951355 .5494072 0
.7566162 .5431175 0
.9999999 .5348556 0
0 .8273341 0
.1094266 .8274902 0
.4679165 .8280855 0
.7505057 .8249021 0
.9999999 .8188513 0
0 .9999999 0
0 .9999999 0
.4392444 .9999999 0
.7289405 .9999999 0
.9854619 .9999999 0
0 .00036085 .2375319
.2358647 0 .2422005
.4986054 0 .2318935
.7530584 0 .2223586
.9999999 0 .1965991
0 .2665141 .2422838
.2318859 .2627509 .2338841
.4958056 .2552668 .2300233
.7545751 .2399493 .2114197
.9999999 .2106628 .1897524
0 .5519561 .1746458
.1735339 .5521365 .167773
.4939185 .5517437 .1751523
.7623457 .5407301 .1651284
.9999999 .5302321 .1712897
0 .8293929 0
0 .8295942 0
.4589868 .8291374 0
.7500176 .8269262 .00724243
.9999999 .8184764 .02924896
0 .9999999 0
0 .9999999 0
.4285876 .9999999 0
.7231785 .9999999 0
.9856794 .9999999 0
0 0 .4949181
.2208367 0 .49707
.4995158 0 .5005614
.7599947 0 .494272
.9999999 0 .4762622
0 .2388155 .5006419
.1833214 .2281366 .5013192
.5008417 .2151887 .5040344
.7624308 .211435 .4893176
.9999999 .1769193 .473567
0 .5539994 .4963305
.07135508 .5537047 .4930537
.4786043 .5471204 .4807495
.7528769 .5380973 .4851646
.9999999 .5210694 .4714774
0 .8309053 .4372506
0 .8308269 .4337376
.4188327 .830282 .4282379
.7471941 .8284556 .4246692
.9999999 .8129048 .4107685
0 .9999999 .3902235
0 .9999999 .3937963
.3847046 .9999999 .3926386
.708964 .9999999 .3903719
.9849289 .9999999 .3903563
0 0 .7514538
.2058505 0 .7527782
.4817419 0 .7548535
.7562218 0 .756918
.9999999 0 .7505816
0 .2029019 .7546831
.1460398 .1930656 .7557298
.4725986 .1664069 .7575186
.7598327 .1373516 .7591996
.9999999 .08311879 .7479866
0 .5199693 .7582932
0 .5164121 .7582557
.4365138 .5045557 .7579555
.7580605 .5012722 .7590923
.9999999 .5043637 .7410458
0 .8333135 .7491893
0 .8329803 .7484612
.3995301 .8307557 .7450041
.7349746 .8240893 .7364948
.9999999 .8162107 .7417729
0 .9999999 .7086279
0 .9999999 .707058
.3684995 .9999999 .7036271
.705245 .9999999 .7042566
.9815596 .9999999 .7064842
0 0 .9993342
.1747791 0 .9994956
.4678489 0 .9999999
.7332478 0 .9999999
.9999999 0 .9999999
0 .1630958 .9993396
.1030283 .1525065 .9998634
.4508629 .1174534 .9999999
.7294994 .02220526 .9999999
.9999999 0 .9999999
0 .4796103 .9999999
0 .4740576 .9999999
.3922556 .4664627 .9999999
.718259 .4622878 .9999999
.9999999 .4554128 .9999999
0 .7957413 .9999999
0 .7949379 .9999999
.3680831 .7910607 .9998117
.7034497 .7896881 .9974133
.9979694 .7925284 .9991114
0 .9999999 .9918683
0 .9999999 .9917621
.374265 .9999999 .9911879
.7216046 .9999999 .9880965
.9919857 .9999999 .9905725
