luts/Timeless 21.cube
# 3D LUT of size 33x33x33 converted by Filestar.
#   Input:
#     color space: sRGB
#     white point: default (D65)
#     transfer function: default (sRGB)
#   Output:
#     color space: sRGB
#     white point: default (D65)
#     transfer function: default (sRGB)
#   Exposure: +0.53999996
#   Contrast: -26
#   Whites: +22
#   Blacks: -61
#   Vibrance: +20
#   Saturation: +9
LUT_3D_SIZE 33
.0306239 .01605359 .00988733
.03032957 .01627296 .00980986
.03008954 .01639975 .00974764
.0297474 .01657808 .00966049
.02935654 .01670498 .00955776
.03058269 .01647237 .00968287
.03267708 .0161927 .0099233
.04060458 .0165616 .01082687
.05945121 .01609962 .01667893
.1600242 0 .00977833
.23288 0 .0041271
.2927294 0 0
.3465299 0 0
.4057567 0 0
.4568249 0 0
.5047371 0 0
.5493696 0 0
.5921476 0 0
.6327608 0 0
.6701718 0 0
.7065948 0 0
.7448557 0 0
.7813776 0 0
.8151262 0 0
.8474963 0 0
.87857 0 0
.9081936 0 0
.9366713 0 0
.9635898 0 0
.9876415 0 0
.9999999 0 0
.9999999 0 0
.9999999 0 0
.03018944 .01645648 .00977529
.02995295 .01660142 .00971226
.02971291 .01672808 .00965061
.02941496 .0168286 .00957341
.0303087 .01663138 .00966298
.03201859 .01634017 .00985442
.03375801 .01619562 .01005269
.03946835 .0166302 .01448337
.06900242 .01328117 .01425542
.1691666 0 .01044049
.2403429 0 .00281418
.2986261 0 .00044569
.3518705 0 0
.4104681 0 0
.4608579 0 0
.5082897 0 0
.5527103 0 0
.5948496 0 0
.6337991 0 0
.6712053 0 0
.7069585 0 0
.7451035 0 0
.7815208 0 0
.8150485 0 0
.8473794 0 0
.8784963 0 0
.9081429 0 0
.936612 0 0
.9636784 0 0
.9875725 0 0
.9999999 0 0
.9999999 0 0
.9999999 0 0
.02985448 .01674485 .00968878
.02964267 .0168589 .00963258
.02946796 .01686959 .00958676
.03013009 .0167381 .00964979
.03144611 .01650702 .00979651
.03311203 .01621392 .0099815
.03426302 .01619812 .01010824
.0298944 .01628226 .01663446
.08778673 .00811029 .01476032
.1807108 0 .00906073
.24819 0 .00160053
.3051035 0 .00122215
.3585218 0 0
.4155943 0 0
.4653065 0 0
.5121705 0 0
.5560498 0 0
.5958 0 0
.6350163 0 0
.6711021 0 0
.7072492 0 0
.745295 0 0
.7814261 0 0
.8149611 0 0
.8472297 0 0
.8784301 0 0
.9081028 0 0
.9365382 0 0
.9637684 0 0
.9874858 0 0
.9999999 0 0
.9999999 0 0
.9999999 0 0
.02950261 .01694154 .00959616
.02995498 .01686288 .00964197
.03063766 .01674041 .00971582
.03161136 .01656701 .00982295
.03291849 .01633468 .00996774
.03430464 .01619835 .01011295
.0294729 .01541943 .01526699
.03400946 .0154873 .02078448
.1127855 .00023142 .01378251
.1972418 0 .00747373
.2596958 0 0
.3148798 0 .00055322
.3671478 0 0
.4216816 0 0
.4717339 0 0
.5159907 0 0
.5572628 0 0
.5975198 0 0
.6350688 0 0
.670776 0 0
.7075617 0 0
.7453672 0 0
.780737 0 0
.8149366 0 0
.8473335 0 0
.8783492 0 0
.9080465 0 0
.9364612 0 0
.9637148 0 0
.9873572 0 0
.9999999 0 0
.9999999 0 0
.9999999 0 0
.02956186 .01662705 .0109398
.03150345 .01647755 .01210682
.03208653 .01632542 .01264536
.0329166 .01610799 .01341346
.03386019 .01590665 .01442743
.02948863 .0149618 .01520666
.04241888 .00929591 .02196079
.05743587 .01560563 .02366357
.1419004 0 .01033187
.2155717 0 .00595404
.2740347 0 0
.3258197 0 .00000747
.3779685 0 0
.4265544 0 0
.4735154 0 0
.5179406 0 0
.5580486 0 0
.5969515 0 0
.6345006 0 0
.670231 0 0
.7080712 0 0
.7450807 0 0
.7807083 0 0
.8151412 0 0
.8474292 0 0
.8781765 0 0
.9079058 0 0
.9363158 0 0
.9631582 0 0
.9870761 0 0
.9999999 0 0
.9999999 0 0
.9999999 0 0
.02952999 .01500234 .01600291
.02929851 .0151607 .01713315
.02928321 .014985 .01759435
.0294857 .01446176 .01598039
.03647153 .0115853 .01847802
.04591503 .00784352 .024758
.0287934 .01397048 .025827
.09483173 .01109862 .01511587
.1728949 0 .00416863
.2353525 0 0
.2861292 0 0
.3312032 0 0
.3836297 0 0
.4288249 0 0
.4737036 0 0
.5165895 0 0
.5567952 0 0
.5956741 0 0
.6334785 0 0
.6691976 0 0
.7080001 0 0
.7451377 0 0
.7807599 0 0
.8151607 0 0
.846852 0 0
.8778334 0 0
.9075818 0 0
.9358692 0 0
.9623069 0 0
.986617 0 0
.9999999 0 0
.9999999 0 0
.9999999 0 0
.03011258 .05380217 .00907835
.02866296 .05607518 .00793141
.02695601 .05887708 .0070538
.02498217 .06299928 .00817127
.02224415 .06835775 .00961087
.02491522 .06431708 .01077375
.05121108 .06634708 .00855478
.1193083 .07783175 0
.1858412 .07183973 0
.2356393 .07764388 0
.2827478 .08133546 0
.3324761 .08771271 0
.3822154 .09043414 0
.4272831 .09502069 0
.4719917 .09531453 0
.5134026 .1050914 0
.5543565 .1088143 0
.5942188 .1139345 0
.6317196 .1173827 0
.66832 .1212805 0
.7074721 .1216034 0
.7453454 .1173377 0
.780689 .1185934 0
.8142079 .119196 0
.846453 .1237995 0
.8775119 .1303431 0
.9071712 .1333329 0
.9350943 .1378136 0
.961323 .1378757 0
.9862218 .1368752 0
.9999999 .1364464 0
.9999999 .1334149 0
.9999999 .134468 0
0 .1305341 0
0 .1324808 0
0 .134987 0
0 .1390041 0
0 .1429009 0
0 .1433239 0
.03536743 .149448 0
.1175746 .1517692 0
.1747463 .15364 0
.2304875 .153238 0
.2777629 .159279 0
.3324475 .1627592 0
.37945 .1688585 0
.425348 .1716323 0
.4696168 .1745917 0
.5129406 .177559 0
.5527982 .1841794 0
.5930039 .1884348 0
.6304264 .1924215 0
.6678349 .1959817 0
.7073048 .1971857 0
.7449623 .1966102 0
.7803621 .197279 0
.8132951 .2011066 0
.8460188 .2040109 0
.8771993 .2075209 0
.9066048 .2125745 0
.9340171 .2151625 0
.9602317 .2147626 0
.9856996 .2123482 0
.9999999 .2129199 0
.9999999 .2096486 0
.9999999 .2071821 0
0 .2017739 0
0 .2039062 0
0 .2062475 0
0 .2084966 0
0 .208878 0
0 .2106567 0
.00397189 .2147566 0
.1047087 .2153043 0
.1712014 .2150868 0
.2257182 .2168854 0
.28261 .2197917 0
.3352141 .2236767 0
.3820041 .2270124 0
.4254655 .2308476 0
.4690698 .2327108 0
.5121531 .2352662 0
.5528772 .2400319 0
.5911542 .2465086 0
.6292578 .2500416 0
.6686084 .2535531 0
.7070417 .2571689 0
.7444904 .2583248 0
.7790526 .2612715 0
.8123846 .2646451 0
.8448024 .2675513 0
.8765834 .2698363 0
.9056833 .2744216 0
.9330379 .2766149 0
.9593641 .2751893 0
.9850588 .273671 0
.9999999 .2703868 0
.9999999 .2677 0
.9999999 .265786 0
0 .26626 0
0 .2673625 0
0 .2665466 0
0 .2657562 0
0 .2661574 0
0 .2670962 0
.00278128 .2700441 0
.09796365 .2716059 0
.1642306 .272409 0
.2347335 .2717627 0
.2895472 .2729841 0
.3386841 .2757965 0
.3856752 .2784092 0
.4265394 .2818678 0
.468407 .2845516 0
.5112839 .2871568 0
.5525735 .2906554 0
.5909231 .2952732 0
.6288126 .3008654 0
.6691349 .3048925 0
.7070485 .3089736 0
.7429869 .3139318 0
.7776431 .3178697 0
.8113045 .3203438 0
.8443838 .3225696 0
.8753546 .3257608 0
.9046307 .3276928 0
.9323895 .3297382 0
.9589368 .3278202 0
.9848546 .3245845 0
.9999999 .3212284 0
.9999999 .3187848 0
.9999999 .3172161 0
0 .318636 0
0 .3186498 0
0 .318655 0
0 .3186657 0
0 .3186733 0
0 .3196588 0
.03064596 .3197217 0
.1132644 .3216299 0
.1773895 .3228637 0
.2426183 .3227188 0
.2964161 .3229734 0
.342888 .3240464 0
.3881129 .326017 0
.4298944 .328373 0
.4694335 .3312098 0
.5117016 .3343213 0
.5527542 .3380984 0
.5907052 .3427806 0
.63107 .3464347 0
.6707674 .3508381 0
.7079933 .3556029 0
.7440115 .3597392 0
.7787583 .3637314 0
.8124715 .3678615 0
.845318 .3714168 0
.8760175 .3754286 0
.9057494 .3754744 0
.9340632 .3736319 0
.9600312 .3737732 0
.9857246 .3725555 0
.9999999 .3703525 0
.9999999 .3683821 0
.9999999 .3677311 0
0 .3697532 0
0 .3698148 0
0 .3698811 0
0 .3699948 0
0 .3704238 0
0 .3718297 0
0 .3721491 0
.1228547 .3719694 0
.1847043 .3727435 0
.2487928 .3714626 0
.3008587 .3716681 0
.3471546 .3718773 0
.3907238 .3724313 0
.4324263 .3741361 0
.4743377 .3767764 0
.5139638 .3804117 0
.5524793 .3847611 0
.5920838 .3871466 0
.6339027 .3909969 0
.6735724 .394742 0
.71036 .3993573 0
.7461787 .4033549 0
.7804829 .4075091 0
.8146927 .412683 0
.8473239 .4167348 0
.8780801 .4188741 0
.907922 .4199802 0
.9361392 .4192521 0
.9623179 .418875 0
.987577 .4184842 0
.9999999 .4178488 0
.9999999 .41714 0
.9999999 .4168394 0
0 .4181803 0
0 .4181626 0
0 .4182462 0
0 .4184572 0
0 .4190633 0
0 .4193963 0
.02943985 .4190563 0
.1450618 .4186562 0
.2096371 .4182204 0
.2586322 .4185083 0
.3085631 .4178777 0
.3534712 .4174909 0
.3930046 .4187249 0
.4356303 .4193817 0
.4781654 .4207889 0
.5173619 .423388 0
.5541152 .4273298 0
.594683 .4307402 0
.6362177 .4339633 0
.6766861 .4366123 0
.7133612 .4405513 0
.7480909 .4467824 0
.7826551 .4517467 0
.8167868 .455633 0
.84961 .4586592 0
.8809686 .4603444 0
.9106581 .4612679 0
.938293 .461904 0
.9657245 .4609516 0
.9908057 .4611444 0
.9999999 .4609979 0
.9999999 .4590636 0
.9999999 .4573753 0
0 .4627943 0
0 .462855 0
0 .462908 0
0 .4633957 0
0 .4635342 0
0 .4635865 0
.07265922 .4635136 0
.1610428 .4634462 0
.2213826 .4632654 0
.2719863 .4632084 0
.3149736 .4636716 0
.3596368 .4631415 0
.4028667 .4625226 0
.4433476 .4625332 0
.4830087 .4629787 0
.5205964 .4651639 0
.5591577 .46857 0
.5982132 .4724609 0
.6398571 .4764086 0
.679489 .4796576 0
.716149 .4835922 0
.7510514 .4880462 0
.7856329 .492654 0
.819423 .496281 0
.8529134 .4978761 0
.8842619 .4993268 0
.9136055 .5007629 0
.94124 .5016319 0
.9673737 .5023925 0
.9929569 .501161 0
.9999999 .4986493 0
.9999999 .4970061 0
.9999999 .4960271 0
0 .5055818 0
0 .5060005 0
0 .5062043 0
0 .5062548 0
0 .5063224 0
0 .5064158 0
.09720927 .5064679 0
.1724777 .5065165 0
.2306502 .5065162 0
.2822063 .5062801 0
.3228416 .507063 0
.3668222 .5071705 0
.4108745 .5067406 0
.4510107 .5068054 0
.4900539 .5065708 0
.5284784 .5082402 0
.5662786 .5108711 0
.6027221 .514791 0
.6424665 .5180847 0
.6826106 .5205714 0
.7196103 .5236575 0
.7548197 .5278057 0
.789154 .5310506 0
.8234538 .5333281 0
.8564947 .5354554 0
.8876569 .5375786 0
.9159836 .5390673 0
.9431762 .5399446 0
.968546 .5385243 0
.9929935 .537641 0
.9999999 .5355392 0
.9999999 .5327085 0
.9999999 .53164 0
0 .550363 0
0 .5504238 0
0 .5504642 0
0 .5504875 0
0 .550478 0
0 .5504748 0
.1148202 .5505216 0
.1824558 .5506424 0
.2356285 .5508209 0
.2884469 .550479 0
.3359769 .5502157 0
.3734801 .5521804 0
.4168751 .5519419 0
.4574977 .5519249 0
.4962902 .5520446 0
.5367141 .5517172 0
.5739934 .5528508 0
.6104741 .5546201 0
.6472249 .5576401 0
.6859371 .5598851 0
.7233948 .5626113 0
.7593089 .5654089 0
.7943717 .5674661 0
.8274876 .5697688 0
.8591051 .572031 0
.8888739 .574191 0
.9165788 .5745595 0
.9430167 .5749437 0
.9683015 .57403 0
.9924745 .5740536 0
.9999999 .5735222 0
.9999999 .5727047 0
.9999999 .5710508 0
0 .5948161 0
0 .5948048 0
0 .5947852 0
0 .5952467 0
0 .5955355 0
0 .5955238 0
.1051943 .5955481 0
.181912 .5955036 0
.2439591 .5954077 0
.2966106 .5953642 0
.343025 .595417 0
.3859961 .5953727 0
.4205574 .5964962 0
.4616604 .5963421 0
.5023234 .5965554 0
.5424278 .5964825 0
.5794685 .5969217 0
.6156893 .5974422 0
.6517531 .5986471 0
.6883862 .600612 0
.7273621 .6018013 0
.764106 .6033186 0
.798168 .6053504 0
.830631 .607497 0
.8611056 .6098277 0
.8891475 .6103622 0
.9159608 .6112717 0
.9417812 .6126584 0
.9667752 .6136747 0
.9912413 .6133639 0
.9999999 .6124333 0
.9999999 .6110143 0
.9999999 .6098967 0
0 .6391868 0
0 .6392 0
0 .6392301 0
0 .6392902 0
0 .6394264 0
0 .6394945 0
.03529755 .6394981 0
.153853 .6393636 0
.2239712 .6392031 0
.2814698 .6390209 0
.3347394 .638705 0
.3813193 .6386238 0
.4264763 .6382949 0
.4645302 .6392454 0
.5078695 .6391885 0
.5472822 .6391807 0
.58482 .6393535 0
.62134 .6394093 0
.6567869 .639733 0
.6934001 .6397648 0
.7302966 .6406273 0
.7670779 .6416352 0
.8010674 .6433814 0
.8320079 .6448354 0
.860926 .6460267 0
.8883663 .6473946 0
.9152908 .6485955 0
.9418613 .6493534 0
.9677274 .6492178 0
.9925004 .6485173 0
.9999999 .6477171 0
.9999999 .6466771 0
.9999999 .6459541 0
0 .6807653 0
0 .6807893 0
0 .6808165 0
0 .6808546 0
0 .6808941 0
0 .6809389 0
0 .6809284 0
.1011265 .6808291 0
.1924122 .6807219 0
.2577963 .6806634 0
.3147032 .6804618 0
.3655317 .6803847 0
.4138548 .6803425 0
.4615744 .6803021 0
.501895 .6807145 0
.5446454 .6803744 0
.5844101 .6804237 0
.620911 .6806675 0
.6581411 .680456 0
.6965356 .6798163 0
.7330341 .6792165 0
.7672588 .6793796 0
.8010163 .6799225 0
.8318841 .6811551 0
.8605291 .6823672 0
.8886684 .6836259 0
.9159881 .6845098 0
.9428288 .684827 0
.9678448 .6849315 0
.992301 .6845914 0
.9999999 .6840886 0
.9999999 .6833523 0
.9999999 .6826267 0
0 .7196284 0
0 .7196486 0
0 .7196455 0
0 .719641 0
0 .7197521 0
0 .7199394 0
0 .7200105 0
0 .7200956 0
.1428291 .7201113 0
.2283346 .7199637 0
.2933085 .7197853 0
.3539312 .7194807 0
.4060892 .7194904 0
.4530344 .7197719 0
.497929 .7192727 0
.5405779 .71866 0
.5812079 .7181137 0
.6213434 .7175134 0
.6611108 .7167367 0
.6987451 .7163776 0
.7346725 .7160441 0
.7687104 .7158124 0
.8015838 .7155924 0
.8324385 .7164248 0
.8613984 .7173142 0
.8890663 .71824 0
.9161812 .7190778 0
.9425092 .7193007 0
.9681166 .7194141 0
.9925928 .7195228 0
.9999999 .7192691 0
.9999999 .7187076 0
.9999999 .7183511 0
0 .7565722 0
0 .7565971 0
0 .7566307 0
0 .7566653 0
0 .756706 0
0 .7567581 0
0 .7569153 0
0 .7571703 0
.1076411 .7572101 0
.2093992 .7571207 0
.2856214 .7567974 0
.3460552 .7567889 0
.4011133 .7571 0
.451149 .7566471 0
.4955435 .7561325 0
.5389627 .755291 0
.5825529 .7542028 0
.6232126 .7534735 0
.6622394 .7527457 0
.6990899 .7524217 0
.7341678 .7525419 0
.7685953 .7524927 0
.8011792 .752265 0
.8324744 .7511422 0
.861367 .7513609 0
.8889779 .7521878 0
.9164272 .7527634 0
.9429142 .7529575 0
.9683389 .753099 0
.9926642 .7532649 0
.9999999 .7534402 0
.9999999 .7531244 0
.9999999 .752906 0
0 .7913158 0
0 .7913237 0
0 .7913253 0
0 .7913275 0
0 .7913343 0
0 .7912791 0
0 .791249 0
0 .7911194 0
.1027707 .7913311 0
.2080666 .7912917 0
.280222 .7913882 0
.3385954 .7919292 0
.3942849 .7918215 0
.4443702 .7912998 0
.4918972 .7906461 0
.5369763 .7898566 0
.5804295 .7892081 0
.6216151 .7886704 0
.6609387 .7883145 0
.6985555 .7878758 0
.7341366 .7874413 0
.7681285 .787091 0
.799831 .7869471 0
.8307701 .786643 0
.8616275 .785648 0
.8896437 .7851099 0
.9171636 .7852572 0
.9434716 .7854503 0
.968601 .7857161 0
.9928479 .7859388 0
.9999999 .7861003 0
.9999999 .7862217 0
.9999999 .7859982 0
0 .8236086 0
0 .8236011 0
0 .8235928 0
0 .8235782 0
0 .8235604 0
0 .8235186 0
0 .8234449 0
0 .8234115 0
.1011521 .8233884 0
.2076889 .8236423 0
.2748521 .823813 0
.3285749 .8241134 0
.3817773 .8243331 0
.4340588 .8241611 0
.4831802 .8238794 0
.5306007 .8233884 0
.5754737 .8227988 0
.6192102 .8219878 0
.6587583 .821556 0
.6972812 .8208038 0
.73348 .8203891 0
.7682102 .8199341 0
.8002679 .8197113 0
.8316495 .8193129 0
.8616498 .8188643 0
.8903879 .8178986 0
.9171233 .8169324 0
.9436594 .8165603 0
.9686578 .8166516 0
.9929592 .8167628 0
.9999999 .8169318 0
.9999999 .8171541 0
.9999999 .8169392 0
0 .854919 0
0 .8549399 0
0 .8549517 0
0 .8549306 0
0 .8549042 0
0 .8548696 0
0 .8548907 0
0 .8548832 0
.041731 .8548675 0
.1808252 .8549586 0
.2548107 .8554224 0
.3159432 .8557603 0
.3714789 .8558108 0
.4251913 .8556485 0
.4763108 .8552888 0
.524689 .8549698 0
.5706449 .8543929 0
.6158947 .853703 0
.6570011 .8531183 0
.69607 .8525161 0
.732832 .8520627 0
.7665832 .8516186 0
.7992064 .851235 0
.8303185 .8509834 0
.8604408 .8504915 0
.8902372 .8493745 0
.9173253 .8484026 0
.9434055 .8472445 0
.9690298 .8463297 0
.9934615 .8462356 0
.9999999 .8464093 0
.9999999 .846216 0
.9999999 .84604 0
0 .8859801 0
0 .8859624 0
0 .8859422 0
0 .8859127 0
0 .8858677 0
0 .8858075 0
0 .8857329 0
0 .8857093 0
0 .8859308 0
.1303717 .8861289 0
.231982 .8863567 0
.3014573 .8868027 0
.3585684 .8869457 0
.416343 .8865604 0
.4706792 .8855618 0
.5214576 .8849233 0
.5678874 .8845832 0
.6105679 .8844396 0
.6541322 .8835158 0
.6923363 .8831494 0
.7291195 .8824263 0
.7644745 .8815904 0
.797456 .8808901 0
.8286517 .8804336 0
.8591298 .8798805 0
.888419 .8791026 0
.916936 .8780151 0
.9426609 .8772264 0
.9682305 .8761916 0
.9931415 .8748949 0
.9999999 .8742092 0
.9999999 .8739187 0
.9999999 .8737493 0
0 .9139508 0
0 .9139345 0
0 .9139161 0
0 .9139007 0
0 .9138746 0
0 .9138609 0
0 .9138414 0
0 .9139029 0
0 .9140288 0
.01798088 .9142078 0
.1903856 .9143481 0
.2811978 .9138566 0
.3508098 .9138265 0
.4125735 .9135011 0
.4687685 .9130592 0
.5192044 .9126765 0
.5649915 .9122607 0
.6072472 .9121612 0
.6471875 .9120314 0
.6898882 .9109613 0
.7267929 .9103812 0
.7618482 .9095499 0
.7955279 .9087548 0
.8272956 .9080111 0
.8576819 .9074047 0
.8869658 .9068401 0
.9153656 .9060747 0
.9424999 .9050427 0
.9677219 .9041558 0
.9925669 .9029016 0
.9999999 .90179 0
.9999999 .9010383 0
.9999999 .900605 0
0 .9401236 0
0 .9401143 0
0 .9401042 0
0 .9400896 0
0 .9400875 0
0 .9400857 0
0 .9399834 0
0 .9397945 0
0 .9398515 0
0 .9399807 0
.1642742 .9401503 0
.2654958 .9399641 0
.3392071 .9397902 0
.4004103 .9397357 0
.4591322 .9393429 0
.5107889 .9390348 0
.5581256 .938812 0
.6017805 .9387886 0
.6445593 .9385828 0
.6868092 .9375564 0
.7234853 .937 0
.75811 .9366483 0
.7920671 .9359404 0
.8247984 .9349741 0
.8554719 .9341975 0
.8844889 .9337997 0
.9127167 .9332778 0
.9405157 .9326316 0
.9663247 .9315545 0
.990069 .9304383 0
.9999999 .9291189 0
.9999999 .9277487 0
.9999999 .9269469 0
0 .9651257 0
0 .965122 0
0 .965118 0
0 .9651124 0
0 .9651096 0
0 .9651751 0
0 .9652783 0
0 .9654004 0
0 .9655315 0
