luts/Timeless 42.cube
# 3D LUT of size 33x33x33 converted by Filestar.
#   Input:
#     color space: sRGB
#     white point: default (D65)
#     transfer function: default (sRGB)
#   Output:
#     color space: sRGB
#     white point: default (D65)
#     transfer function: default (sRGB)
#   Exposure: +0.25
#   Contrast: +2
#   Whites: +3
#   Blacks: -11
#   Vibrance: +6
LUT_3D_SIZE 9
.00689957 .0046586 .02477115
.125562 0 .01421367
.2661107 0 .00220502
.4065743 0 0
.540001 0 0
.6664894 0 0
.7871724 0 0
.8994868 0 0
.9999999 0 0
0 .1402206 0
.1291581 .1383337 .00243059
.2700318 .1384431 0
.4078214 .136265 0
.5403895 .1382355 0
.6666089 .1353975 0
.7873942 .1317449 0
.8997905 .1260341 0
.9999999 .1147783 0
0 .2765885 0
.1309184 .2759797 0
.2697153 .2766319 0
.4087042 .2765685 0
.5410711 .2768541 0
.6673838 .2762942 0
.7880688 .2756527 0
.9003065 .2709316 0
.9999999 .2684987 0
0 .411037 0
.1335644 .4109802 0
.2746185 .4112973 0
.4121222 .4108315 0
.541479 .4119914 0
.6681878 .4124399 0
.7886473 .4108471 0
.9009123 .4090633 0
.9999999 .4092963 0
0 .5437266 0
.1252465 .5437894 0
.2759408 .5439699 0
.4126052 .5441714 0
.544167 .5436534 0
.6690627 .5438879 0
.7885756 .5437201 0
.901538 .5429544 0
.9999999 .5422609 0
0 .670699 0
.1233569 .67068 0
.2740997 .6706304 0
.4112026 .6707745 0
.5444762 .6703342 0
.6697443 .6708836 0
.7888216 .6708934 0
.9015169 .670083 0
.9999999 .6692972 0
0 .7906578 0
.1083089 .790647 0
.2685839 .7906207 0
.4107359 .7903047 0
.5434195 .7899666 0
.6708664 .7896938 0
.790333 .7896186 0
.9007785 .7894702 0
.9999999 .788399 0
0 .9016034 0
.08018184 .9016364 0
.2588716 .9016651 0
.4048935 .9015145 0
.5416905 .9012134 0
.668925 .9010588 0
.7900984 .900363 0
.9010195 .8997105 0
.9999999 .8996472 0
0 .9999999 0
.05703387 .9999999 0
.2523231 .9999999 0
.4015994 .9999999 0
.5396488 .9999999 0
.6685367 .9999999 0
.7873145 .9999999 0
.9001219 .99963 0
.9998154 .9993352 0
0 .00808948 .1351121
.1247796 .00842672 .1337061
.2685731 0 .134977
.4080845 0 .1349086
.5404854 0 .1336653
.6671081 0 .1333967
.7873257 0 .1320247
.8995355 0 .1288115
.9999999 0 .1245774
0 .1395054 .1371734
.1293162 .1396452 .1352944
.270094 .1383279 .1352772
.4084022 .1337772 .1334
.5407404 .1348919 .1327704
.6672028 .1311996 .1324184
.787555 .1290186 .1306859
.8996637 .1265268 .1279758
.9999999 .1112397 .1233797
0 .2774128 .1345491
.1258679 .2771433 .1316859
.2710371 .27712 .1313329
.4085653 .2765929 .1336744
.5412025 .2758602 .1317092
.6677448 .2756136 .1288862
.7880387 .2752615 .1282547
.9003404 .2710348 .1270258
.9999999 .267221 .1184932
0 .4115135 .127086
.1220933 .4117364 .12449
.2751393 .4113928 .1245451
.4116594 .4110743 .1289658
.5419853 .4119653 .1287824
.6683587 .4119881 .1264306
.7887388 .410404 .1217723
.9009446 .4084923 .1209313
.9999999 .4086784 .1116569
0 .5440046 .1141749
.1181746 .5441353 .1131396
.2731156 .5442852 .1127787
.4121255 .544585 .1149885
.5446022 .543946 .1161643
.6697112 .5439179 .1186134
.7886825 .5435339 .1188593
.9015918 .5428296 .1133279
.9999999 .542022 .1069206
0 .6711641 .1001249
.1134642 .6710455 .09807125
.2707156 .6709301 .09790594
.4102598 .6710161 .09650762
.5446603 .6705889 .1048315
.6704615 .6709227 .1073663
.7894529 .6709837 .1032925
.9019253 .6699556 .0959777
.9999999 .6692547 .09170853
0 .7908185 .08623106
.09873415 .7907663 .08407908
.2655699 .7907665 .08280248
.4094958 .790531 .08198043
.54234 .7904115 .08329829
.6712199 .7897826 .08964374
.790863 .7896521 .09009252
.9011685 .7894314 .08419535
.9999999 .7882252 .08296699
0 .9017214 .07349554
.07119543 .9017136 .07362374
.2565899 .9018179 .07841308
.4035176 .901691 .07722598
.5396279 .9016165 .07015181
.6682176 .9012372 .07336006
.7903125 .9002683 .08071541
.9012203 .8996697 .08574239
.9999999 .8996693 .08554856
0 .9999999 .04490982
.04448001 .9999999 .04742892
.2487539 .9999999 .05104721
.3999887 .9999999 .04997955
.5387794 .9999999 .05099115
.6680079 .9999999 .05105031
.7867272 .9999999 .05772267
.900113 .9996205 .06862749
.9999999 .9992489 .07214885
0 .00479087 .2725326
.1289683 .00067388 .2735034
.2700535 0 .2748632
.4083855 0 .2753099
.5416428 0 .2742095
.6678636 0 .2748647
.7876782 0 .2742743
.9001398 0 .2729668
.9999999 0 .271508
0 .1420083 .2743376
.1231416 .1404942 .2754138
.2713428 .1368292 .2758647
.4092143 .1341462 .2744279
.541554 .1313102 .2742248
.6677044 .1267106 .2747364
.7879035 .1237754 .2740214
.900477 .1181869 .2722358
.9999999 .1064243 .271409
0 .2771827 .2760313
.1232635 .2766389 .2758603
.2727222 .2749479 .2754487
.4095747 .2744708 .2742256
.5412919 .274585 .2743546
.6680269 .2729186 .2739065
.7885851 .2717414 .2725351
.9009849 .2687972 .2711498
.9999999 .2645718 .2703541
0 .4114821 .2725501
.119419 .411228 .2715868
.2736595 .4109264 .2709525
.412931 .4110628 .2704941
.5427458 .4113844 .2710401
.6686492 .4116485 .2719026
.7890952 .4097153 .2713806
.9012882 .407235 .2710485
.9999999 .4072932 .2675461
0 .5436972 .2680156
.1132604 .543788 .2679211
.2703088 .5442351 .2680501
.4121744 .5443877 .2678798
.5439359 .544411 .2681843
.6701687 .5438187 .2683002
.7887506 .5431859 .2702151
.9017166 .5422837 .2681774
.9999999 .5415504 .2651424
0 .6714464 .2606364
.09565604 .6713656 .2611471
.2627375 .6715487 .2607079
.4074003 .6713539 .2614331
.5439487 .6711104 .2634957
.671351 .6708282 .2631327
.7907749 .6712286 .2594698
.902868 .6701822 .2564391
.9999999 .6689113 .2620039
0 .7908662 .2568824
.06707985 .7909664 .2565656
.2562543 .7910874 .2546292
.4037136 .7909112 .255053
.5403557 .7906574 .2553973
.6708932 .7902625 .2545593
.7921602 .7899081 .2541936
.9022388 .7893896 .2538656
.9999999 .7880677 .2536079
0 .9018784 .2538646
.04201311 .9019341 .2538292
.2505623 .9020183 .2531425
.4001331 .9019675 .2527413
.5369697 .9018646 .2508157
.6674181 .9015466 .2495791
.7905769 .90052 .2502691
.9022008 .899699 .2531384
.9999999 .899848 .2515248
0 .9999999 .2442679
.01874096 .9999999 .2443621
.2424661 .9999999 .2443517
.3965314 .9999999 .2456825
.5341676 .9999999 .242424
.6649149 .9999999 .2416098
.7852917 .9999999 .2408951
.9008381 .9997744 .2464499
.9999999 .9990875 .2455179
0 0 .4112771
.1250921 0 .4116274
.2693811 0 .4120304
.4087579 0 .412487
.542805 0 .4132185
.6686943 0 .4122582
.7881745 0 .4117677
.9004514 0 .4107556
.9999999 0 .4090176
0 .1345432 .4118896
.1146179 .1315761 .4120888
.2698007 .1298895 .4127508
.4095907 .1302441 .4131873
.5429303 .1267711 .4131492
.6683795 .1233634 .4123182
.7880985 .1200502 .4117391
.9007531 .112132 .4104714
.9999999 .1025031 .40887
0 .2747058 .4129962
.1111155 .2735656 .4133295
.2688521 .2724226 .4135327
.411273 .2731129 .4131491
.542757 .2734275 .4118843
.6682606 .2713498 .4113052
.7884464 .269621 .4115795
.9007924 .2671389 .4103892
.9999999 .2633884 .4086179
0 .4108963 .4132122
.118182 .4108709 .4131686
.2704759 .4103476 .4127541
.4100622 .4108067 .4126324
.5425387 .4104139 .4113281
.6684572 .4111373 .4116142
.7886156 .4096366 .4106868
.9014449 .407077 .4093814
.9999999 .4052779 .4081594
0 .5440966 .4103981
.09663259 .5440923 .4100161
.2635184 .5444075 .4087303
.4079416 .5446606 .4083798
.543696 .544819 .4087873
.6708806 .5434939 .4079087
.7883685 .5434327 .4095165
.9014325 .5418339 .4083735
.9999999 .5407956 .4062818
0 .6718714 .4055785
.08545998 .6718252 .4052336
.2590708 .6716774 .4048997
.4036129 .6719802 .4047151
.5426758 .6713066 .4054685
.6712275 .6708834 .4037744
.7906559 .671219 .4024006
.90303 .6698612 .4020809
.9999999 .6685472 .4062708
0 .7906925 .4015822
.05556445 .7906566 .4012467
.2515104 .7907933 .4009137
.3994378 .7911798 .4005832
.5382215 .7908639 .3997723
.6698995 .7905149 .3988606
.7919353 .7901055 .3986349
.9024586 .7894108 .3977239
.9999999 .7880041 .3981007
0 .9019476 .3987497
.02272243 .9020138 .3986505
.2437442 .9021233 .3982459
.3948902 .9021955 .3973866
.5355158 .9018509 .3971939
.6662607 .9010922 .3980179
.7898526 .9005865 .3967853
.9030123 .8998712 .397425
.9999999 .9004572 .3947911
0 .9999999 .392794
0 .9999999 .392534
.238624 .9999999 .3918542
.3948437 .9999999 .39186
.5335066 .9999999 .3939169
.6636733 .9999999 .3948252
.7853332 .9999999 .3920512
.9008235 .9999999 .3928936
.9999999 .9990447 .3906104
0 0 .5435684
.1204829 0 .5438451
.2719472 0 .5441892
.4094529 0 .5438238
.5432357 0 .5439161
.6696014 0 .5439149
.7891991 0 .5448415
.9010429 0 .543578
.9999999 0 .5415678
0 .1287205 .5439994
.1133594 .1280016 .5441222
.2699158 .1240667 .5445902
.4098813 .1254996 .5445574
.5438212 .1203075 .5447333
.670158 .1189024 .5442358
.7893576 .1138864 .5444888
.9012494 .1087535 .5432718
.9999999 .09495028 .5409486
0 .2723753 .5441375
.1090096 .2717351 .5442399
.2667687 .2701298 .5445479
.4085208 .2686971 .5449541
.5440286 .2691815 .5447037
.6708353 .267153 .5443109
.7895133 .2677347 .5434387
.9015171 .2655748 .5424694
.9999999 .2613319 .5405771
0 .4089994 .544672
.1068488 .4086005 .5446746
.2641928 .4082363 .5445294
.4064102 .4074456 .5447372
.5438746 .4076409 .5448819
.6705741 .4087111 .5427147
.7892066 .4084939 .5426076
.9018186 .4058208 .5420306
.9999999 .403966 .5406168
0 .5441124 .5448163
.09660665 .5441249 .544552
.2617958 .5441765 .5441706
.4055484 .5436195 .5439376
.542399 .5442069 .5439011
.6700222 .5433926 .5433648
.7884904 .5429658 .5432117
.9014937 .5412067 .5420718
.9999999 .5398336 .5407073
0 .6719604 .5424286
.0617358 .6719751 .5422869
.251887 .6717688 .5419751
.400524 .6718214 .5407372
.5394927 .6716803 .5403423
.6709725 .6710457 .5394933
.7918541 .6696154 .538129
.9016765 .6692231 .5406018
.9999999 .6682504 .5398546
0 .790966 .5380409
.01299694 .7909458 .5378205
.2445224 .7908219 .5374683
.3973754 .7905813 .5365663
.5363451 .7909054 .5360698
.6689531 .7901695 .5360743
.7916931 .7898756 .5355124
.9018626 .789402 .5357853
.9999999 .7877624 .5355102
0 .9020486 .5344411
0 .9020196 .5341988
.2373382 .9018444 .5344127
.394145 .9016412 .5343201
.5338673 .9015374 .5343637
.6657451 .9010494 .5348172
.7888862 .9004867 .5349852
.9021713 .900394 .5342568
.9999999 .9006988 .5335492
0 .9999999 .5317729
0 .9999999 .5316616
.2329639 .9999999 .531549
.3930174 .9999999 .5318583
.5335214 .9999999 .5317048
.6626577 .9999999 .5333951
.7841986 .9999999 .5330291
.9003902 .9999999 .5319129
.9999999 .9990222 .5312533
0 0 .6698347
.1122374 0 .6699224
.2671989 0 .6701372
.4082571 0 .670305
.5435719 0 .670589
.6696747 0 .6709082
.7890981 0 .6713095
.9013781 0 .6703121
.9999999 0 .6700451
0 .1258178 .6701318
.1030902 .1240168 .6702089
.2643851 .1203777 .6704301
.4074475 .1150838 .670656
.5433527 .1139477 .6708319
.6697179 .110073 .671191
.7890997 .1061847 .6714458
.9018469 .09747162 .6703583
.9999999 .08655024 .6699694
0 .2701573 .6707566
.09293532 .2697066 .670819
.2620418 .2682781 .6708409
.4063778 .2661874 .6709055
.5423855 .2648145 .6711711
.6693968 .2634608 .6717928
.7904837 .2611737 .6718099
.9025844 .2606333 .6699722
.9999999 .2556297 .6698472
0 .4069295 .6715677
.09062739 .406924 .6716321
.2583295 .407382 .67192
.4039266 .4062364 .6716246
.5402901 .4043741 .6716675
.6698696 .4032487 .6720726
.7913415 .4035532 .6716644
.9027572 .4045278 .670341
.9999999 .4030461 .669502
0 .5418569 .6721066
.06522708 .5416699 .672061
.2518205 .5411724 .671929
.3988356 .5405892 .6717328
.5386687 .5400795 .6715024
.6706712 .5396451 .6715901
.7907834 .5409842 .6692191
.901198 .5411737 .6696184
.9999999 .5394276 .6687647
0 .6710196 .671714
.04145269 .6711509 .6717048
.2485603 .6714856 .6716872
.3976867 .6716212 .6715311
.5373071 .6712213 .6708921
.6690702 .6703442 .6703275
.789031 .6698933 .6701899
.9001997 .6688293 .6698594
.9999999 .6680541 .6696582
0 .7912763 .6699697
.00538121 .7912197 .669683
.2420363 .7910107 .6690626
.3952545 .7907252 .6683668
.5353177 .7902691 .6677777
.6674873 .7895465 .6683139
.7919518 .7893981 .6670591
.9021701 .7891204 .6654602
.9999999 .7876537 .6685907
0 .9016644 .6656753
0 .9016425 .6656947
.2331245 .9015912 .6657571
.3891226 .901504 .6657711
.5316098 .901154 .6648356
.6654741 .9008579 .6647927
.7876406 .9003569 .6646889
.8994494 .9009215 .6642803
.9999999 .8998662 .6636466
0 .9999999 .6642205
0 .9999999 .6640612
.2237122 .9999999 .6636676
.3862295 .9999999 .6626253
.529367 .9999999 .6616331
.6628311 .9999999 .6622152
.7829856 .9999999 .6628082
.898627 .9999999 .663448
.9985846 .9994714 .6613631
0 0 .7899491
.09405182 0 .7900349
.2576743 0 .790114
.4062715 0 .7909448
.5418128 0 .7908742
.6699967 0 .7910607
.7886935 0 .7911791
.901588 0 .790579
.9999999 0 .7896441
0 .1180858 .7900581
.08758389 .1186781 .7901036
.2564469 .1167491 .7902308
.405381 .1047019 .7909454
.5416071 .100664 .7909834
.6698593 .1012868 .7911411
.7887614 .09654099 .7913538
.9018733 .08927111 .7907345
.9999999 .08453063 .789669
0 .26676 .7902658
.07789337 .2665289 .7902895
.2569658 .264384 .7905028
.4029555 .2618965 .7907846
.5405006 .259473 .7911331
.6687596 .2588958 .7914187
.7894668 .2569081 .7915424
.9025934 .2557158 .7909746
.9999999 .2537581 .7897882
0 .4053862 .7906163
.06154294 .4049895 .7906279
.2524577 .4042564 .7907752
.3997893 .4029155 .7910047
.5379579 .4010427 .7915014
.6667874 .4000784 .7918103
.7900323 .3997205 .7913924
.9036379 .3980823 .7910787
.9999999 .3991168 .7892188
0 .539268 .7912201
.02850977 .5392165 .7912203
.242587 .5388029 .7912869
.3954139 .5378791 .7913321
.5344234 .5361104 .7910817
.6661807 .5359182 .7911744
.7904349 .5359995 .7911667
.9042964 .5351791 .7904317
.9999999 .5371604 .7892082
0 .667958 .7912974
0 .6681025 .7912422
.2389608 .6682281 .790996
.3950166 .6679268 .7906275
.5340463 .6676964 .7902105
.6658332 .6667518 .7902102
.7905887 .6663802 .7902231
.90143 .6676033 .7886809
.9999999 .6669874 .788241
0 .7896779 .7908462
.00309211 .7897381 .7907945
.2418362 .7898997 .7905664
.3940452 .7901062 .7901499
.5344504 .7899649 .7902054
.666571 .789458 .7902372
.7889233 .7887498 .7897794
.8990316 .7885417 .789172
.9995154 .787199 .7889507
0 .9019737 .7889763
0 .9018775 .7890019
.2347679 .9016482 .789025
.3913849 .901311 .7888542
.5319812 .9010478 .7882537
.6653784 .9003946 .7875957
.7869447 .8998425 .7882535
.9004728 .8994448 .7873308
.9999999 .8993594 .7856481
0 .9999999 .7860618
0 .9999999 .7858933
.2302485 .9999999 .7854696
.3885646 .9999999 .7846559
.5277808 .9999999 .7836576
.6608905 .999932 .7844568
.784216 .9999374 .7844197
.8957241 .9999999 .7846011
.9975621 .9999999 .7841291
0 0 .9004549
.09646002 0 .9004982
.2607257 0 .9006237
.4044879 0 .9008639
.5407104 0 .900885
.6677079 0 .900886
.7888799 0 .9008993
.9007207 0 .9012531
.9999999 0 .9008578
0 .1042357 .9005072
.09075231 .1021631 .9005614
.2589283 .09712011 .9006869
.403698 .09155544 .9008561
.5397733 .08849635 .9008552
.6672214 .08610473 .9009064
.7884752 .07755292 .9009321
.9008943 .06932064 .901502
.9999999 .06923427 .9009752
0 .2596904 .9006144
.07381385 .2593526 .9006152
.2541583 .2585607 .9006255
.4018182 .2569149 .9008383
.5385786 .2558203 .9009987
.6657292 .2543259 .9009014
.7879052 .2513514 .9013047
.9014136 .2490078 .9019303
.9999999 .2497107 .9012757
0 .4020692 .900748
.02779589 .4015649 .9007671
.2448643 .3999814 .9008883
.3966388 .3993293 .9010644
.5343584 .3973826 .9011135
.6634769 .3959029 .9013103
.7878525 .3945932 .9019809
.902289 .3941593 .9018146
.9999999 .3945376 .9018393
0 .5361869 .9009942
.01160721 .5361919 .9010253
.2404599 .5359678 .9010562
.3927465 .5351884 .9011316
.5330499 .5336407 .9013024
.6637576 .5321046 .9015013
.7883027 .5326649 .9017382
.9023462 .5323729 .901392
.9999999 .5321446 .9014162
0 .665818 .9015297
0 .6658447 .9015279
.226355 .665745 .9014913
.3874312 .6649081 .901341
.5308602 .6642178 .9011957
.6638213 .6640748 .900984
.7878836 .6635612 .9012492
.9018385 .6633351 .9013844
.9999999 .6625301 .9012218
0 .7866605 .9014596
0 .7867142 .9014388
.2300562 .7869032 .9014654
.3877627 .7874308 .9012735
.5294548 .7873753 .9012755
.662727 .7868271 .9013419
.7863628 .7861787 .901351
.8995981 .7863843 .9011517
.9999999 .7866563 .9001142
0 .9004318 .9009905
0 .9004751 .9009096
.2337021 .9006153 .9007608
.3913529 .9007484 .9005607
.532947 .9007499 .9006537
.6632858 .9008113 .9005309
.7847601 .900808 .900891
.8987101 .8993628 .9008966
.9990225 .8994063 .9006379
0 .9999999 .8991622
0 .9999999 .8991996
.2249651 .9999999 .8992856
.3861039 .9999999 .8994781
.5286522 .9999999 .8995651
.6624917 .9999266 .8997963
.7850291 .9994552 .8988494
.8971393 .9989547 .8996231
.9982077 .9987168 .9003993
0 0 .9999999
.094768 0 .9999999
.2604531 0 .9999999
.4033217 0 .9999999
.5396417 0 .9999999
.6641929 0 .9999999
.786718 0 .9999999
.9008152 0 .9999999
.9999999 0 .9999999
0 .09955821 .9999999
.08644433 .09784525 .9999999
.2578185 .09326998 .9999999
.4022541 .08479431 .9999999
.5387919 .07454359 .9999999
.663871 .06900228 .9999999
.7865263 .06161764 .9999999
.9010278 .05056575 .9999999
.9999999 .0480568 .9999999
0 .2572781 .9999999
.06473297 .2570267 .9999999
.2522432 .2567515 .9999999
.4000252 .2555228 .9999999
.5369042 .2532033 .9999999
.6630735 .2513748 .9999999
.7858504 .2493314 .9999999
.9010506 .2455766 .9999999
.9999999 .2450048 .9999999
0 .3997195 .9999999
0 .3993966 .9999999
.238322 .3984833 .9999999
.3917235 .3973771 .9999999
.5312591 .396084 .9999999
.6609784 .3956438 .9999999
.7847692 .3947293 .9999999
.9011464 .392871 .9999999
.9999999 .3922474 .9999999
0 .5331863 .9999999
0 .5329651 .9999999
.2244232 .5316209 .9999999
.3854393 .5318774 .9999999
.527817 .531217 .9999999
.6609203 .5307167 .9999999
.7841349 .5313444 .9999999
.900577 .5317073 .9999999
.9999999 .5304248 .9999999
0 .6626266 .9999999
0 .6624981 .9999999
.2219172 .6623604 .9999999
.3820551 .6622239 .9999999
.5254701 .6616057 .9999999
.660091 .6613007 .9999999
.784196 .6614006 .9999999
.8990334 .6616843 .9999999
.9999999 .661246 .9999999
0 .7841925 .9999999
0 .7841785 .9999999
.2150962 .784141 .9999999
.380087 .7840002 .9999999
.5268144 .7835056 .9999999
.6612267 .7834651 .9999999
.7834871 .7830994 .9999999
.8954453 .7844176 .9999999
.9991925 .7840378 .9999999
0 .8971395 .9999999
0 .8971344 .9999999
.2227149 .8973805 .9999999
.3843266 .8974651 .9999999
.5275491 .8979157 .9999999
.6588748 .8981811 .9999999
.7832907 .8978927 .9999999
.8970255 .8974543 .9999999
.9976867 .8982821 .99961
0 .9992477 .9999999
0 .999261 .9999999
.2230872 .9992877 .9999364
.3851292 .999376 .9996405
.5275493 .9995422 .9995791
.6598044 .9998396 .9996497
.7834082 .9998463 .9993857
.897774 .9995987 .9987046
.9999999 .9954923 .9984644
