luts/Timeless 39.cube
# 3D LUT of size 33x33x33 converted by Filestar.
#   Input:
#     color space: sRGB
#     white point: default (D65)
#     transfer function: default (sRGB)
#   Output:
#     color space: sRGB
#     white point: default (D65)
#     transfer function: default (sRGB)
#   Exposure: +0.48
#   Contrast: +20
#   Whites: +7
#   Blacks: -18
#   Vibrance: +4
LUT_3D_SIZE 5
0 .00020838 .01245082
.2987514 0 0
.5919785 0 0
.8350097 0 0
.9999999 0 0
0 .2843227 0
.3066309 .285429 0
.5931541 .2879733 0
.8363454 .2859381 0
.9999999 .2836225 0
0 .5614251 0
.3074909 .5617719 0
.5973658 .5616141 0
.8377111 .5623531 0
.9999999 .5607767 0
0 .7952693 0
.3073871 .7950938 0
.5979447 .795224 0
.839452 .7948222 0
.9999999 .794517 0
0 .9785519 0
.2979601 .9783546 0
.5987667 .9783314 0
.8379772 .977322 0
.9999999 .9765591 0
0 0 .3056468
.3036769 0 .3081973
.5946989 0 .3098108
.8360928 0 .3102431
.9999999 0 .307925
0 .2856263 .3107529
.3064129 .2852749 .3098306
.594371 .2848679 .3094263
.8371511 .2820348 .3083726
.9999999 .277844 .3055605
0 .5612579 .3057182
.30266 .561958 .3049563
.5974765 .5624238 .3052439
.8384696 .5614867 .3047247
.9999999 .5590548 .3027208
0 .7955672 .2965289
.2951393 .7956689 .2959358
.5968132 .7956125 .2955256
.8409508 .7946711 .2943269
.9999999 .7940401 .2943552
0 .9788802 .2920459
.2873802 .9789053 .2922033
.5950812 .9787039 .2931882
.836663 .9779997 .2886569
.9999999 .9764078 .2890115
0 0 .5983084
.3076208 0 .5987041
.5965096 0 .5987324
.8381678 0 .6002672
.9999999 0 .5996773
0 .2817713 .599336
.303769 .2810127 .5996286
.5967745 .2792391 .5997425
.8385471 .276708 .5995665
.9999999 .2720759 .598183
0 .5610062 .5999908
.2952413 .5610179 .599811
.6003238 .5597376 .5997708
.8374008 .5600508 .5990735
.9999999 .557933 .5979052
0 .7960095 .5964308
.2862523 .7959983 .5962779
.5961114 .7954242 .5950047
.8396333 .7950528 .5952829
.9999999 .794154 .5973624
0 .9783359 .5940086
.2799036 .9780025 .5936998
.5935698 .9779095 .5934238
.8361011 .9778565 .5948293
.9999999 .9765431 .5908249
0 0 .8387657
.2995852 0 .8390784
.5958846 0 .8389463
.8384104 0 .8391786
.9999999 0 .8389608
0 .2778933 .838807
.2943486 .2766893 .8389765
.5947609 .2753923 .839108
.8388798 .2681795 .839518
.9999999 .2627402 .8393817
0 .5580385 .8392897
.2843826 .5568948 .8395534
.5938827 .5557183 .8398616
.8391548 .5549353 .8398664
.9999999 .5544132 .8389952
0 .7945741 .8394011
.2861638 .7944586 .8394264
.5946111 .7941076 .83921
.838249 .7934183 .8388295
.9999999 .7935887 .8380287
0 .9781812 .838388
.280371 .9778053 .8383507
.5949398 .9775307 .8371659
.8360435 .9766307 .8383718
.9999999 .9758336 .8372505
0 0 .9999999
.2996608 0 .9999999
.5945759 0 .9999999
.8370329 0 .9999999
.9999999 0 .9999999
0 .276472 .9999999
.2930679 .2756962 .9999999
.5940783 .2726832 .9999999
.8362058 .2688476 .9999999
.9999999 .2650889 .9999999
0 .554933 .9999999
.2772223 .5529293 .9999999
.5919451 .5548961 .9999999
.8356112 .555904 .9999999
.9999999 .5541116 .9999999
0 .7913427 .9999999
.2790503 .791357 .9999999
.5920206 .7908976 .9999999
.8343765 .7922962 .9999999
.9999999 .7906073 .9999999
0 .9756021 .9999999
.286584 .975356 .9999999
.5954573 .9749159 .9999999
.8384004 .9748586 .9999999
.9999999 .9762277 .9999999
