luts/Timeless_9.cube
# 3D LUT of size 33x33x33 converted by Filestar.
#   Input:
#     color space: sRGB
#     white point: default (D65)
#     transfer function: default (sRGB)
#   Output:
#     color space: sRGB
#     white point: default (D65)
#     transfer function: default (sRGB)
#   Exposure: +0.9
#   Contrast: +23
#   Whites: +8
#   Blacks: -20
#   Vibrance: +5
LUT_3D_SIZE 9
0 .00158175 .00933342
.1720055 0 .00411609
.3564042 0 0
.5186074 0 0
.6601495 0 0
.7787504 0 0
.8736749 0 0
.9484397 0 0
.9999999 0 0
0 .1914547 0
.1803328 .1904132 0
.3616081 .1905669 0
.5215406 .1895612 0
.6611034 .1874167 0
.7793759 .1854841 0
.8740914 .1832037 0
.9489222 .1790708 0
.9999999 .1780029 0
0 .3638082 0
.1922953 .3639279 0
.3663106 .363841 0
.5229468 .3666517 0
.6632597 .3670945 0
.7808462 .3663092 0
.875333 .3663045 0
.9502261 .3658911 0
.9999999 .3648794 0
0 .5274108 0
.1783048 .5275218 0
.3637656 .5280747 0
.5253666 .5281335 0
.6644382 .5286661 0
.781864 .5288636 0
.8763399 .5279095 0
.951337 .5269905 0
.9999999 .5262708 0
0 .6670132 0
.176046 .6671526 0
.3669302 .6677088 0
.5265321 .6680571 0
.6667184 .6672015 0
.7812095 .6679841 0
.8758317 .6673691 0
.9514784 .6671781 0
.9999999 .6671641 0
0 .7838255 0
.1700029 .783703 0
.3655466 .7833126 0
.5270308 .7833394 0
.6672505 .7830321 0
.7836691 .7827487 0
.8768349 .7831924 0
.951049 .7835215 0
.9999999 .7824746 0
0 .877096 0
.1568919 .8770515 0
.3606369 .877037 0
.5275671 .8767573 0
.6667903 .877291 0
.784279 .8767865 0
.8772947 .8762773 0
.9510788 .8757564 0
.9999999 .8755687 0
0 .9513722 0
.1543092 .9513958 0
.3586229 .9513276 0
.5250658 .9512325 0
.6668692 .9512005 0
.7826086 .9508492 0
.876601 .9498116 0
.9509531 .9496142 0
.9999999 .9490585 0
0 .9999999 0
.1493077 .9999999 0
.3563894 .9999999 0
.5254703 .9999999 0
.6670802 .9999999 0
.7815776 .9999999 0
.8752009 .9999999 0
.9489107 .9999999 0
.9999999 .9999999 0
0 .00624591 .1854246
.1741014 0 .1857391
.3606455 0 .1869972
.5213975 0 .1869718
.6616184 0 .1868951
.779636 0 .1864713
.8744081 0 .1836207
.9490319 0 .1818259
.9999999 0 .179448
0 .1882182 .1895038
.1796094 .1878607 .1873183
.3627305 .1862349 .185624
.5223334 .1851687 .1850799
.6624023 .1831317 .1850072
.7802312 .1802021 .1839451
.874661 .1780839 .1820203
.9493399 .1737982 .1806751
.9999999 .1727338 .1772448
0 .3648355 .1846067
.1848553 .3645199 .1823893
.3658274 .3643139 .1836085
.5242038 .365663 .1844609
.6641365 .3659727 .1833199
.7815278 .3649863 .1807408
.8758427 .3633734 .1797192
.9505731 .3639542 .1755267
.9999999 .3630058 .1733066
0 .5273737 .1768154
.1697468 .527705 .177351
.363325 .5284101 .176556
.5243077 .5289979 .1795939
.6651055 .5283404 .178855
.7822847 .5282795 .1772211
.8767169 .5271397 .1745469
.9517985 .5260416 .1721862
.9999999 .5251911 .1699232
0 .6673642 .1677195
.1640787 .6676167 .1660263
.3621202 .6680606 .1655788
.5260724 .6685405 .1670974
.6672056 .667711 .1681962
.782295 .6680331 .165533
.8765846 .6671956 .1602181
.9520645 .6669492 .1616731
.9999999 .6667977 .1613277
0 .7840745 .1583788
.1588725 .7839407 .1562578
.3613564 .7835751 .1569196
.5253347 .78383 .1549338
.6671265 .7831848 .1578194
.7841104 .7827297 .1572171
.8774133 .7831517 .1539776
.9518116 .7833456 .1549519
.9999999 .7823095 .1537896
0 .8773556 .1531031
.1464811 .8772119 .1516189
.3569514 .8772628 .1520325
.5230451 .8774604 .1465079
.6655485 .8776348 .1464064
.7845553 .8768104 .1505854
.877574 .8762294 .1532623
.9517782 .875553 .1535729
.9999999 .8753982 .152355
0 .9517501 .1459403
.1413891 .9517739 .1457323
.3546246 .9516731 .1467823
.5234295 .9514212 .1492798
.6661879 .9515046 .1444181
.7816896 .9511424 .144763
.8766381 .9497696 .1467057
.9508868 .9495185 .1487631
.9999999 .9488191 .1484186
0 .9999999 .1457519
.1359097 .9999999 .1448273
.3529137 .9999999 .1453799
.5235568 .9999999 .1427937
.6655392 .9999999 .1375753
.7805274 .9999999 .138947
.8748766 .9999999 .1372156
.9489072 .9999999 .1376664
.9999999 .9999999 .1413575
0 0 .3636548
.1830402 0 .3655909
.3614495 0 .3666723
.5232335 0 .3676539
.663368 0 .3669409
.7806687 0 .3668354
.8754997 0 .366341
.9501052 0 .3653036
.9999999 0 .3646988
0 .1873426 .3665732
.178326 .1849071 .3674944
.3641374 .1839376 .3681997
.5243394 .1809848 .3673492
.6637157 .1792353 .3661476
.7808912 .1747977 .3668274
.875383 .1709103 .3662775
.9502172 .1667077 .3649589
.9999999 .1627438 .3641535
0 .3657164 .3676625
.1812958 .3652251 .3672372
.3651982 .3643392 .3673362
.5244628 .3651191 .3657712
.6649916 .3655336 .3660031
.7824958 .363378 .3658144
.8764101 .3612177 .3646115
.9510189 .3603727 .3635587
.9999999 .3593399 .3622041
0 .5277954 .365023
.1592615 .5279663 .3636218
.3597821 .528341 .3629816
.5263201 .5290005 .3627934
.6668997 .5276079 .3627053
.7828031 .5272557 .3638159
.8773484 .5261439 .3627869
.9522343 .524641 .3611954
.9999999 .5234789 .3606184
0 .6675895 .3592867
.152592 .6676775 .3587644
.3550884 .6685718 .3586938
.5252641 .6687655 .358429
.6670142 .6681558 .3575958
.7836689 .6678771 .3556975
.8782747 .6666709 .3543956
.9525536 .6663166 .3588898
.9999999 .6657568 .3594534
0 .7838792 .3542421
.1414725 .7838671 .354066
.3529036 .7839566 .3538335
.522945 .7838476 .3536132
.6659987 .7837173 .3526736
.7850669 .7830078 .3526268
.8788637 .7834716 .3515896
.9534569 .7829481 .3515591
.9999999 .782173 .3518485
0 .8774203 .351585
.1261118 .8773783 .3515679
.347811 .8775131 .3514491
.5204943 .8776412 .3507662
.6648274 .877642 .3513588
.7846435 .8772993 .3508333
.8788072 .8763748 .3512473
.9529763 .8758105 .3502744
.9999999 .8753272 .3496028
0 .9519227 .3506963
.1171233 .9519852 .3500084
.3454438 .9520321 .3489361
.5197527 .951685 .3499647
.6646196 .9514517 .3515447
.7810058 .9515937 .3492865
.8768981 .9502854 .3493089
.9516929 .949585 .3484789
.9999999 .948944 .3474587
0 .9999999 .3510665
.1240767 .9999999 .3506748
.3473839 .9999999 .3497674
.5189919 .9999999 .3512495
.6635386 .9999999 .3496017
.7798691 .9999999 .3460458
.8741111 .9999999 .3447213
.9494037 .9999999 .3440546
.9999999 .9999999 .3443835
0 0 .526407
.1839892 0 .5262971
.3653388 0 .5267677
.5258415 0 .5269412
.6635451 0 .5279955
.7821618 0 .5291038
.876171 0 .5284386
.9505888 0 .5274755
.9999999 0 .5269472
0 .1836797 .5267699
.1741825 .1818118 .5271467
.3648275 .1769238 .5280924
.5267722 .1734096 .5285593
.6654789 .1716592 .5288541
.7824154 .1685566 .5282556
.8764927 .163389 .5273817
.9511032 .1592392 .5261754
.9999999 .1548218 .5259987
0 .3634217 .5276528
.1708907 .3628822 .5278097
.36128 .3617558 .5280561
.5272081 .3615246 .5286394
.6677522 .362212 .5272017
.7829474 .3605811 .5267895
.8769834 .3585657 .5260938
.9518241 .3568552 .525682
.9999999 .3564839 .5255899
0 .5274782 .5278805
.153732 .5274298 .5276411
.3571292 .5274668 .5280386
.5258985 .5276319 .5280716
.6670999 .5269444 .5276577
.7825133 .5265053 .5279234
.8764426 .5250259 .5263216
.9520615 .5233697 .5257577
.9999999 .522552 .5255576
0 .6677539 .5265146
.1369457 .667933 .52624
.3521741 .6680822 .5249431
.522813 .6680267 .5246904
.6677226 .6674753 .5240023
.7855579 .6660702 .5226321
.8778445 .665391 .5255887
.9520254 .6650794 .5255644
.9999999 .6649534 .525686
0 .7842764 .5217465
.1276079 .7840199 .5214252
.3503724 .7834992 .5205669
.520418 .7838847 .5204374
.6660554 .7834123 .5210609
.7845427 .7833822 .5208905
.8772881 .7840956 .5215647
.9524737 .7828302 .5214293
.9999999 .7819629 .5214775
0 .8776997 .5209023
.1157579 .8775964 .5206372
.3459556 .8773028 .5203932
.5185117 .8773022 .5201995
.6645463 .8771635 .5200456
.7846348 .8768785 .520277
.877728 .8769644 .5194801
.9518748 .8766186 .5196005
.9999999 .875534 .52015
0 .9515262 .520357
.09759486 .9514779 .5201023
.34268 .9513958 .5199971
.517334 .9513784 .5194322
.6636219 .9508956 .5203566
.7806823 .9509689 .5200547
.8768023 .9507063 .5189814
.9509781 .9500881 .5182776
.9999999 .9493112 .5165989
0 .9999999 .5187829
.1125862 .9999999 .518563
.3469081 .9999999 .5188996
.5192367 .9999999 .5188445
.6623004 .9999999 .5206882
.7783161 .9999999 .5202368
.8740119 .9999999 .5170255
.9495592 .9999999 .5159662
.9999999 .9999999 .5163367
0 0 .6662087
.1780926 0 .6666907
.3657286 0 .6671739
.5264769 0 .6674924
.6654156 0 .6676753
.7818258 0 .6675101
.8765305 0 .6674762
.9513065 0 .6678811
.9999999 0 .6680459
0 .1773283 .6669436
.1690681 .1744649 .6672303
.3635015 .1702529 .667509
.5260896 .1699345 .6678817
.6655657 .1676113 .6682336
.7829328 .1626672 .6682167
.8773284 .1583748 .6675678
.9521603 .1528783 .6678102
.9999999 .1476163 .667731
0 .3617879 .6676753
.1669011 .3606163 .6678008
.3595021 .3597711 .6676733
.5254486 .3589265 .667848
.6664436 .3581809 .6685932
.7843667 .3555928 .6682595
.878092 .355914 .667237
.9536468 .3529307 .6672752
.9999999 .3524035 .6667045
0 .5256202 .6683441
.1393123 .5248562 .6682768
.354273 .5235984 .6679131
.5245878 .5230867 .6676514
.6685798 .5228709 .66814
.7848157 .5237399 .6663079
.8771921 .5236582 .666833
.9524295 .5230485 .666393
.9999999 .5224283 .6661066
0 .6670391 .6680263
.1282477 .6673254 .6679087
.3511576 .6678501 .6675773
.5219929 .6675815 .6672697
.6670861 .6663373 .6670851
.7830352 .6662352 .6671492
.8763009 .6657393 .6666828
.9510158 .6649524 .6663211
.9999999 .6645315 .6664411
0 .7847025 .6663923
.1187819 .7844735 .6664729
.3463069 .7843093 .6659626
.5179021 .7841378 .6654863
.6654032 .783057 .6658224
.7852531 .7824956 .6644155
.8789464 .7822834 .6624674
.9514305 .7818983 .6658335
.9999999 .7816659 .6655499
0 .8779589 .6640578
.09419816 .8778723 .6638619
.3401877 .8776617 .6634541
.5169189 .8768691 .6631591
.6641322 .8764297 .6627141
.7833632 .8764479 .6623791
.87694 .8762571 .6625821
.9513819 .876381 .6623291
.9999999 .8749302 .6616561
0 .9517213 .6626051
.07449696 .9516473 .6622981
.3350209 .9513184 .6627982
.5150476 .9507385 .6615778
.6634239 .9504388 .6617031
.7798259 .9504188 .6621878
.875783 .9499854 .6628958
.9496897 .9501373 .6619251
.9999999 .9494432 .6608955
0 .9999999 .6622521
.08376233 .9999999 .6619219
.33911 .9999999 .661099
.5169526 .9999999 .6600308
.6621297 .9999999 .6606478
.7769825 .9999999 .6623785
.8726916 .9999999 .6628931
.9492416 .9999999 .6619404
.9999999 .9999999 .6603618
0 0 .7829887
.1647983 0 .7830209
.3609296 0 .7832742
.5253679 0 .783222
.6667848 0 .783209
.7827831 0 .7838157
.8769966 0 .7838791
.9518738 0 .783926
.9999999 0 .7837788
0 .1736077 .7832637
.1583996 .1724729 .7831935
.3585339 .1655477 .7833953
.524111 .163632 .7832248
.6663772 .1627914 .7834388
.7827581 .15743 .7843196
.8775207 .1547219 .7843069
.952786 .1474149 .7842013
.9999999 .1426953 .7838944
0 .3596509 .7834188
.1484839 .359562 .7834868
.3535821 .3578722 .7836193
.5222266 .355154 .7840938
.6655514 .3542462 .7845188
.7835984 .3520207 .7849418
.8788806 .3498683 .7851517
.9540506 .3485494 .784442
.9999999 .3498675 .7832048
0 .5236397 .7843288
.1190548 .5232588 .7842949
.3472758 .5217697 .7845266
.5203075 .5208433 .7847474
.6645488 .5199927 .7851763
.7841497 .5190081 .7853009
.8803711 .517852 .7847241
.9540978 .5201744 .7830612
.9999999 .520832 .7829405
0 .6647751 .7847811
.1194948 .6650894 .7847906
.3476508 .6655077 .7845997
.5184336 .6653846 .7846139
.663696 .6643304 .7850537
.7833902 .6637491 .7847283
.8778548 .6646786 .7831867
.9518214 .6641851 .7827232
.9999999 .6640812 .783056
0 .7836427 .784365
.1225724 .7837805 .7843047
.3473246 .7838015 .7841195
.5176624 .7838282 .7839869
.6636698 .7829179 .7842871
.7826397 .7824489 .7838833
.8751423 .7825851 .7833633
.949609 .781939 .7824539
.9999999 .7811776 .7824212
0 .8781815 .7835432
.09676417 .8778883 .7836569
.3415751 .8771825 .7838931
.5176428 .8764033 .7833068
.6643191 .8755378 .7822146
.7821952 .8752295 .7828869
.8769093 .8756499 .7819136
.9515684 .8754441 .7806417
.9999999 .874835 .7827735
0 .9512476 .7821654
.08472801 .951115 .7819587
.3390716 .9508768 .7812626
.5164942 .9507045 .7803089
.6642814 .9500676 .780893
.7802767 .9497741 .780891
.8739173 .9501794 .7813597
.9499708 .9491814 .7811881
.9999999 .9482548 .7797656
0 .9999999 .7796586
.09620305 .9999999 .7793003
.3420016 .9999999 .7788932
.5166608 .9999999 .7785814
.6632303 .9999999 .7797145
.7800491 .9999999 .7797946
.8716901 .9999999 .7796656
.9471629 .9999999 .7797228
.9999999 .9999999 .7794018
0 0 .8769766
.1649858 0 .8770844
.3582032 0 .8773845
.5226989 0 .8775038
.6653646 0 .8776552
.783402 0 .8776611
.8766425 0 .8775772
.9513808 0 .8771891
.9999999 0 .8772246
0 .1679303 .8771233
.1538169 .1652911 .8772235
.3544634 .1626965 .8774098
.5215555 .1624222 .8775962
.6643721 .1602835 .8777189
.7827872 .1538637 .8778505
.8768783 .147915 .8778024
.9517403 .1431028 .8775128
.9999999 .13766 .8774962
0 .3576584 .8771119
.1343925 .3569626 .8772439
.3497123 .3558116 .8775748
.5194422 .3548944 .87796
.6624075 .3532168 .8780615
.7815567 .3506303 .8787293
.8774061 .3478324 .8783606
.9526708 .3464077 .8785303
.9999999 .3455588 .8781388
0 .5223083 .87747
.1204536 .5219487 .8775234
.3462053 .5211208 .8776973
.5185746 .5198877 .8779727
.6625147 .5184264 .877956
.7817358 .5182981 .8784074
.8769411 .5175954 .8781159
.9532304 .5162283 .8781384
.9999999 .5157747 .8780419
0 .663519 .8780118
.09880889 .663709 .8779712
.3407052 .6631977 .8778609
.517997 .6617524 .8777317
.6631076 .6617335 .8778471
.7807923 .6619294 .8780043
.8774463 .6613514 .878009
.9524981 .6605942 .8777215
.9999999 .6619545 .876953
0 .7811616 .8776334
.1082326 .7813151 .8775551
.341782 .781816 .8775389
.515067 .7819009 .8775992
.6618316 .7806386 .8776325
.7813941 .7805907 .8776624
.8759843 .7806176 .8774966
.9504169 .7801992 .8770291
.9999999 .7807339 .8764085
0 .8765543 .8773313
.1033707 .8764442 .8771653
.3445707 .8762889 .8770773
.5182295 .8762049 .8769761
.6624824 .8761553 .8769185
.7798088 .876485 .877055
.8751715 .8758519 .8775054
.9488649 .8762785 .8774092
.9999999 .8753951 .8771141
0 .9516043 .8764752
.08447691 .9514534 .8765555
.3393412 .9512321 .8766307
.5171532 .9506823 .8767403
.6636376 .9499397 .8768241
.7812758 .9494115 .8765091
.8744918 .9495874 .8772988
.948485 .9494138 .8775296
.9999999 .9489474 .8769615
0 .9999999 .8760308
.08446098 .9999999 .8761114
.3405611 .9999999 .8762273
.5175268 .9999999 .8755802
.6647369 .9999999 .8749427
.7829024 .9999999 .8742762
.8753086 .9999999 .8759674
.9486533 .9999999 .8759155
.9999999 .9999999 .8752938
0 0 .9504151
.1642945 0 .9505511
.3572719 0 .9509109
.5226119 0 .9512846
.6628882 0 .9512768
.7818967 0 .9515246
.8764451 0 .9517348
.9505425 0 .9515131
.9999999 0 .9509224
0 .167778 .9506125
.1548541 .1653532 .9507456
.3547235 .1631945 .9509448
.5211151 .1583473 .9512663
.6622299 .1562679 .9512371
.780799 .1511367 .9514936
.8761254 .1449004 .9517557
.9507226 .1389565 .9517455
.9999999 .1373152 .9511089
0 .3570202 .9508116
.1356095 .3563128 .9509208
.3483028 .3552929 .9510638
.5171378 .3530644 .9513684
.6604488 .351722 .9513826
.7792941 .3495842 .9518209
.8757871 .3493134 .9518796
.9513872 .3469053 .9517747
.9999999 .3467021 .9518768
0 .5186702 .9511767
.1101699 .5181828 .9511617
.3401311 .5166997 .951148
.5170133 .5180059 .9511434
.6614893 .5174971 .9509864
.7791302 .5178027 .9513498
.8758519 .5177577 .9516007
.9513035 .5167378 .9518319
.9999999 .5162963 .951701
0 .6617178 .9508772
.09591279 .6618249 .9508192
.3404431 .6613106 .950799
.5167891 .6608257 .9505175
.6620574 .6609257 .9504206
.7793119 .6610678 .9511068
.8759591 .6605709 .9517722
.9510719 .659927 .9517645
.9999999 .6598431 .951922
0 .7801044 .9513479
.09141891 .7802458 .9512619
.3361722 .7805154 .9510149
.514174 .7799286 .9509063
.6614951 .7789601 .9510877
.7805708 .7788976 .9512981
.8739709 .779807 .9513395
.9499121 .7791405 .951775
.9999999 .7786963 .9516312
0 .875188 .9514106
.09683169 .8750476 .9514731
.3413816 .8749043 .9515625
.5159158 .8747532 .9515278
.6601468 .8750719 .951557
.779072 .8741835 .9512655
.8741642 .873969 .950779
.9494267 .8743026 .9503289
.9999999 .8747749 .9495992
0 .9503424 .9512667
.0912297 .9502801 .9511365
.342272 .9500887 .9509254
.5173791 .9499882 .9507073
.659993 .9501676 .9505417
.7784963 .9502009 .9501517
.8739315 .9500108 .9496296
.9488775 .9497296 .9492953
.9999999 .9495115 .9501953
0 .9999999 .9493715
.08760267 .9999999 .9491548
.3399179 .9999999 .9490227
.5165603 .9999999 .9486746
.6624992 .9999999 .9489066
.7821984 .9999999 .9486318
.878839 .9999999 .9486018
.9492701 .9999999 .9497995
.9999999 .9994952 .9509962
0 0 .9999999
.1662495 0 .9999999
.3575493 0 .9999999
.5219893 0 .9999999
.6622636 0 .9999999
.7793666 0 .9999999
.8748993 0 .9999999
.9496722 0 .9999999
.9999999 0 .9999999
0 .1662734 .9999999
.1556138 .1642484 .9999999
.3547561 .164129 .9999999
.5217494 .1600755 .9999999
.6623479 .1551059 .9999999
.7790226 .1489013 .9999999
.8747117 .1470885 .9999999
.9499206 .1417347 .9999999
.9999999 .1398082 .9999999
0 .3566927 .9999999
.1380204 .3564147 .9999999
.3488792 .355664 .9999999
.5188692 .3542556 .9999999
.6617383 .3531153 .9999999
.7785656 .3519295 .9999999
.8745626 .3508165 .9999999
.9500732 .349099 .9999999
.9999999 .3483399 .9999999
0 .5170839 .9999999
.09459618 .5157965 .9999999
.3395618 .5160896 .9999999
.5158514 .5177794 .9999999
.6613589 .5183209 .9999999
.7779477 .5189843 .9999999
.8748401 .5190063 .9999999
.9498901 .517882 .9999999
.9999999 .5170309 .9999999
0 .6606488 .9999999
.1123876 .6607339 .9999999
.3404543 .6608982 .9999999
.5124961 .6591481 .9999999
.6593257 .659204 .9999999
.7786795 .6610793 .9999999
.8739599 .6607904 .9999999
.9491481 .6600351 .9999999
.9999999 .6598024 .9999999
0 .7785226 .9999999
.1038692 .7785665 .9999999
.3395973 .7786247 .9999999
.5147364 .7782494 .9999999
.6599483 .7782703 .9999999
.7779086 .7786298 .9999999
.8716875 .7790936 .9999999
.9471264 .7783899 .9999999
.9999999 .7772033 .9999999
0 .872774 .9999999
.110847 .8727832 .9999999
.3449779 .8727462 .9999999
.5178304 .8727006 .9999999
.6618111 .8724375 .9999999
.7795813 .8723342 .9999999
.8727928 .8730848 .9999999
.9458813 .8741312 .9999999
.9999999 .8743668 .9999999
0 .9478249 .9999999
.1126448 .9476506 .9999999
.3475552 .9472159 .9999999
.5208706 .9467524 .9999999
.6616221 .9467613 .9999999
.7799457 .946209 .9999999
.8758764 .946007 .9999999
.9491443 .9475374 .9999999
.9999999 .9492486 .9999999
0 .9999999 .9999999
.1086794 .9999999 .9999999
.3453332 .9999999 .9999999
.5185769 .9999999 .9999999
.6617694 .9999999 .9999999
.7823583 .9999999 .9999999
.8793634 .9999999 .9999999
.9533715 .9985831 .9999999
.9999999 .99831 .9999999
