luts/Timeless_26.cube
# 3D LUT of size 33x33x33 converted by Filestar.
#   Input:
#     color space: sRGB
#     white point: default (D65)
#     transfer function: default (sRGB)
#   Output:
#     color space: sRGB
#     white point: default (D65)
#     transfer function: default (sRGB)
#   Exposure: +0.53999996
#   Contrast: +23
#   Whites: +8
#   Blacks: -20
LUT_3D_SIZE 33
0 .00032566 .01089675
0 .00420757 .00492233
.0116203 .00598689 .00137844
.07980958 0 .00161996
.1307513 0 .00289481
.1747902 0 .00393956
.2163252 0 .00344586
.2574968 0 .00335802
.2984913 0 0
.3378738 0 0
.3766002 0 0
.4140463 0 0
.4504401 0 0
.4859486 0 0
.5213623 0 0
.5559359 0 0
.5901511 0 0
.6232444 0 0
.6554205 0 0
.686825 0 0
.7173436 0 0
.7470019 0 0
.7756451 0 0
.803032 0 0
.8293526 0 0
.8548 0 0
.8792302 0 0
.9026282 0 0
.9250403 0 0
.9465572 0 0
.9673234 0 0
.9874675 0 0
.9999999 0 0
0 .02797043 .01390285
0 .03720064 .00623413
.00381233 .03878764 .00322248
.0745934 .03299426 .00243017
.1268626 .02660266 .00225605
.1728339 .02104957 .00292137
.2164745 .02184989 0
.2587632 .0225401 0
.299022 .02662449 0
.3383897 .03136954 0
.3771308 .03301977 0
.4144087 .03309849 0
.4507665 .03253457 0
.4863895 .03085086 0
.5218556 .02656646 0
.556411 .02365151 0
.5905725 .014859 0
.6236582 .00580965 0
.6557961 0 0
.6869686 0 0
.7174924 0 0
.7471393 0 0
.7757443 0 0
.8031098 0 0
.8294228 0 0
.8548343 0 0
.8792685 0 0
.9026727 0 0
.9250816 0 0
.9465997 0 0
.9673679 0 0
.9875199 0 0
.9999999 0 0
0 .07324735 .00048136
0 .07545904 0
.00332545 .07342694 0
.0754148 .07143786 0
.1289256 .0687143 0
.174953 .06786454 0
.2182648 .06855021 0
.2597984 .07113381 0
.2996405 .07472777 0
.3393643 .07654188 0
.3777263 .07703123 0
.4148167 .07715242 0
.4511339 .07680082 0
.4869701 .07456798 0
.5224109 .07189549 0
.5569462 .07029023 0
.591047 .06444474 0
.6241243 .05776721 0
.6558893 .05175008 0
.6871305 .04730514 0
.7176428 .04383868 0
.7472512 .04194696 0
.7758562 .03971902 0
.8031924 .03789676 0
.829502 .03687411 0
.854871 .03552543 0
.8793116 .03321396 0
.9027016 .02879203 0
.925105 .02117975 0
.9466473 .01853089 0
.9674203 .02010683 0
.9875789 .02017943 0
.9999999 .01982964 0
0 .1161396 0
0 .1153005 0
.01103196 .1143687 0
.080307 .1130537 0
.1326226 .1113801 0
.1773546 .1120396 0
.2198842 .1134942 0
.2609932 .1150252 0
.3010431 .1165855 0
.3403324 .1168887 0
.3784308 .1171853 0
.415398 .1173796 0
.4517474 .116875 0
.4877975 .114457 0
.5232022 .1127459 0
.5577008 .1119318 0
.5916534 .1086173 0
.6243311 .1058909 0
.6560118 .1021798 0
.6873653 .1010472 0
.7177839 .100088 0
.7474107 .09910589 0
.7760156 .09792791 0
.8033103 .09692176 0
.8296149 .09639559 0
.8549579 .0958653 0
.8793735 .09486865 0
.9027457 .09210863 0
.925127 .08812288 0
.946723 .08772948 0
.9674954 .08858601 0
.9876642 .08856591 0
.9999999 .08834004 0
0 .1549939 0
0 .1544391 0
.02541354 .1538107 0
.08826674 .1535159 0
.1364802 .1537158 0
.1806014 .1540318 0
.2225012 .1544249 0
.2625813 .1551774 0
.3025313 .1555805 0
.3416189 .1558082 0
.3793685 .1559913 0
.4161915 .1561739 0
.452959 .154727 0
.4889429 .1530026 0
.5241182 .1521229 0
.5582168 .1525873 0
.5918587 .1510484 0
.62451 .1492999 0
.6562641 .147723 0
.6875564 .1469564 0
.7179863 .1466393 0
.747651 .1461423 0
.7762194 .1452702 0
.8034674 .1445609 0
.8297656 .1442021 0
.8551028 .1438412 0
.8794158 .1437107 0
.9027643 .1416318 0
.9251779 .1389398 0
.946826 .1394675 0
.9675953 .140024 0
.9877797 .1399319 0
.9999999 .1398965 0
0 .1927522 0
0 .1929126 0
.03867933 .1930933 0
.09407569 .1931526 0
.1407078 .1931789 0
.1835462 .1931455 0
.224792 .1933384 0
.2645501 .1937396 0
.3041782 .1940183 0
.3430731 .1939809 0
.3805704 .1940766 0
.4178601 .1932047 0
.4540852 .1927079 0
.489619 .1922881 0
.5244736 .1921843 0
.55847 .1927464 0
.5920352 .192341 0
.6246457 .1912921 0
.6565152 .1903301 0
.6878397 .1897502 0
.7182662 .1894921 0
.7479593 .1892964 0
.7763594 .1887791 0
.8036349 .1884537 0
.8299308 .1881155 0
.8552592 .1877516 0
.8795291 .187421 0
.9027893 .1863588 0
.9253049 .1849847 0
.9469562 .1853591 0
.9677314 .1857525 0
.9879072 .1857037 0
.9999999 .1857521 0
0 .2300507 0
.00210087 .2299158 0
.05739854 .2298974 0
.1056801 .229902 0
.1487525 .2299081 0
.1895483 .2299114 0
.2296505 .229829 0
.2682504 .2303922 0
.3063559 .2314231 0
.3443746 .2319048 0
.3816634 .2320535 0
.4184237 .2319484 0
.4544461 .2318948 0
.4899739 .23197 0
.524748 .2321996 0
.5587127 .232676 0
.5921035 .232582 0
.6247645 .2316376 0
.6567137 .2310141 0
.6881744 .2307389 0
.7186447 .2305399 0
.7482132 .2304302 0
.776499 .2304599 0
.8038061 .2303874 0
.830157 .2296263 0
.8554439 .2294901 0
.8796509 .2289716 0
.9029238 .2283102 0
.9254713 .228109 0
.9471146 .2284303 0
.967894 .228732 0
.9880393 .2287752 0
.9999999 .2286366 0
0 .2675879 0
.00755106 .2672921 0
.06335928 .2670693 0
.111227 .2669896 0
.1538612 .2671396 0
.1933518 .2674658 0
.2314335 .267999 0
.2689205 .2692371 0
.3064554 .2704087 0
.3449185 .2704532 0
.3824534 .2706114 0
.4188315 .2709464 0
.4547786 .2709154 0
.4903247 .2711151 0
.5250356 .2713015 0
.5590001 .2716415 0
.5922525 .271555 0
.6248342 .2712982 0
.6570941 .2709388 0
.6885439 .2707539 0
.7190515 .2707482 0
.7484475 .2705978 0
.7767705 .2704328 0
.804106 .2702656 0
.8303862 .2699927 0
.8555722 .269908 0
.8797979 .2691019 0
.9032158 .2695147 0
.9258147 .2690912 0
.9473496 .2696502 0
.9680642 .2700186 0
.9881632 .2702313 0
.9999999 .2701815 0
0 .3057544 0
.01477932 .3055866 0
.06818085 .305539 0
.1141415 .3055669 0
.155886 .3058169 0
.1950017 .3061787 0
.2326955 .3065033 0
.2702832 .3074139 0
.3082648 .307971 0
.3461701 .308115 0
.3827811 .3087352 0
.4194007 .3088218 0
.4551568 .3091124 0
.4906288 .3095308 0
.5252233 .3097649 0
.558956 .309991 0
.5922922 .3101063 0
.6250515 .3102973 0
.657471 .31022 0
.6889578 .3101726 0
.7193272 .3100488 0
.7486488 .3099051 0
.7769759 .3097823 0
.8043149 .3096581 0
.8307068 .3094927 0
.8557703 .3089144 0
.8800408 .3091125 0
.9035445 .3097092 0
.9261621 .3090056 0
.9476603 .3095989 0
.9683891 .3100212 0
.9884041 .3099405 0
.9999999 .3098168 0
0 .3446459 0
.01273575 .3446355 0
.06674927 .3446131 0
.1132325 .344557 0
.1553408 .3446264 0
.1948901 .3447999 0
.2331532 .3451217 0
.2714777 .345338 0
.3102352 .3452146 0
.3481892 .3450744 0
.3852745 .345013 0
.4208628 .345723 0
.4558526 .3471953 0
.4909781 .3476046 0
.5254443 .3478794 0
.5592782 .3483218 0
.5926151 .3486142 0
.6254514 .3488814 0
.6579397 .3488227 0
.6893239 .3487491 0
.7195367 .3486409 0
.7488495 .3485358 0
.7771669 .3484292 0
.8044975 .3483214 0
.8307498 .3478441 0
.8560774 .3476183 0
.8803608 .3483616 0
.9037805 .3491285 0
.9264358 .3485389 0
.9479288 .3490117 0
.9686409 .3489595 0
.9886281 .3487491 0
.9999999 .3485594 0
0 .382528 0
.01360331 .3825362 0
.06689613 .3825453 0
.1130206 .3825584 0
.1550584 .3826635 0
.1956159 .3827614 0
.2344992 .3828439 0
.2727868 .3828807 0
.3110801 .3828615 0
.3487751 .3828236 0
.3858253 .3830119 0
.4222439 .3832601 0
.4575803 .3840664 0
.4916761 .3849639 0
.5260147 .3853108 0
.5598726 .3857941 0
.593042 .3862845 0
.6261426 .3865138 0
.6583639 .3865992 0
.6896617 .3865248 0
.7197726 .3864133 0
.7490733 .3863206 0
.7773882 .3861548 0
.8045807 .3859209 0
.8308332 .3863205 0
.8561372 .3868878 0
.880598 .3872667 0
.9040544 .3876278 0
.926754 .386545 0
.9481555 .3868254 0
.9688627 .3869278 0
.9887803 .3869298 0
.9999999 .3868071 0
0 .4202604 0
.00159998 .4202678 0
.05813318 .420276 0
.1077288 .4202801 0
.1519058 .420268 0
.1940337 .4201808 0
.2346775 .4200698 0
.2733343 .4201008 0
.3112344 .4202588 0
.3489765 .420409 0
.3860035 .4205768 0
.4225788 .4208735 0
.458243 .4210531 0
.4927293 .4214787 0
.5268524 .4220645 0
.5605647 .4224945 0
.5938844 .4230633 0
.6267986 .4233575 0
.6588268 .4235599 0
.6898531 .4234582 0
.72 .4234636 0
.7492594 .4234805 0
.7774246 .4235403 0
.8046463 .4240522 0
.8308938 .4245789 0
.8562212 .4250114 0
.880707 .4252425 0
.9042474 .4251723 0
.9269491 .4239524 0
.9483317 .423987 0
.9690359 .4240953 0
.9889421 .424132 0
.9999999 .4241845 0
0 .4571409 0
0 .4571535 0
.04609203 .4571614 0
.1015813 .4571728 0
.1481156 .4571881 0
.1912465 .4572071 0
.2325236 .4572304 0
.2725591 .457258 0
.3109664 .4573132 0
.348796 .4573272 0
.3862067 .4574142 0
.4228653 .4575945 0
.4584185 .4576403 0
.4934505 .457901 0
.5278891 .4580933 0
.5615556 .4584162 0
.5948443 .459015 0
.6274298 .4596071 0
.6591751 .4598985 0
.6898851 .4600768 0
.720098 .4601578 0
.7492816 .4605395 0
.7774621 .4610257 0
.804667 .4615167 0
.8309317 .4618241 0
.8562971 .4620163 0
.8807478 .4619799 0
.90432 .4616711 0
.9271064 .4606596 0
.9485198 .4606503 0
.9692243 .4604909 0
.9891314 .4604849 0
.9999999 .4605378 0
0 .4934468 0
0 .4934551 0
.03536012 .4934644 0
.09598196 .4934776 0
.1442542 .4934954 0
.1882994 .4935185 0
.2301678 .4935524 0
.2706102 .4935927 0
.3099791 .4936391 0
.3480786 .4936885 0
.3858017 .4937993 0
.4224078 .4937915 0
.4583619 .4940155 0
.4935333 .4942296 0
.5279493 .4944964 0
.5624941 .4942857 0
.5956292 .494767 0
.6278906 .4953852 0
.6592315 .4957835 0
.68997 .4962963 0
.7201332 .4967431 0
.7492954 .4971784 0
.7774803 .4975407 0
.8047144 .49775 0
.8309534 .4977964 0
.8563539 .497691 0
.8808086 .4975843 0
.9045062 .4967245 0
.9271174 .4964405 0
.9487835 .4961991 0
.9694948 .4960675 0
.9893431 .495931 0
.9999999 .4959956 0
0 .5291671 0
0 .5291784 0
.02371768 .5291911 0
.08979637 .5292094 0
.1401333 .5292338 0
.1852099 .5292645 0
.2276869 .5293019 0
.2685391 .5293462 0
.3083332 .5294119 0
.3473102 .5295168 0
.3849956 .5295519 0
.4220192 .5296094 0
.4579751 .5298077 0
.4932243 .530044 0
.527848 .5303081 0
.5624453 .5302427 0
.5962625 .5299671 0
.6282775 .5300996 0
.6594557 .530867 0
.6901207 .5316536 0
.7202284 .5319505 0
.7494949 .5320215 0
.7777025 .5320309 0
.8049166 .5319464 0
.8312113 .5318473 0
.8566087 .5317456 0
.8810565 .5316439 0
.9045599 .5315523 0
.927073 .53146 0
.9488093 .5313385 0
.9697531 .5310047 0
.9895552 .5309067 0
.9999999 .5310401 0
0 .5638806 0
0 .563891 0
.01174371 .5639026 0
.08339713 .5639193 0
.1363188 .5639415 0
.1826978 .5639682 0
.2260704 .5639872 0
.267626 .5640084 0
.3078566 .5640564 0
.3470112 .5641106 0
.3848485 .5640671 0
.4219438 .5640744 0
.4580482 .5642414 0
.493366 .5644219 0
.5282093 .5645927 0
.562624 .564564 0
.5962142 .5644711 0
.6289159 .5643355 0
.6598674 .5649937 0
.6904784 .5656649 0
.7203491 .5661228 0
.7494631 .5662488 0
.7776557 .5661603 0
.8048716 .566071 0
.8312228 .5659776 0
.8566198 .5658837 0
.8810745 .5657873 0
.9045146 .5656933 0
.9270294 .565608 0
.9488494 .5654836 0
.9699169 .5654235 0
.9899088 .5653373 0
.9999999 .5654356 0
0 .5972651 0
0 .597277 0
.01127485 .5972906 0
.08307286 .5973099 0
.1360715 .5973357 0
.1824622 .5973684 0
.2258873 .5974098 0
.2674626 .5974595 0
.3076949 .5975167 0
.3468494 .5975814 0
.384824 .5976524 0
.4217744 .5976881 0
.4580315 .597776 0
.4939148 .5979898 0
.529192 .5982177 0
.5630038 .5984462 0
.5962281 .5984989 0
.6289201 .598305 0
.6604441 .598271 0
.6908457 .598689 0
.7205021 .5991652 0
.7494122 .5994706 0
.7775995 .5994312 0
.8048745 .5993146 0
.8312401 .5992263 0
.8566423 .5991349 0
.881019 .5990198 0
.9044917 .598942 0
.9270511 .5989035 0
.9490102 .5989637 0
.9700887 .5990199 0
.9900588 .5991189 0
.9999999 .5989778 0
0 .6299039 0
0 .6299152 0
.0081555 .6299276 0
.08123606 .6299455 0
.1350717 .6299707 0
.1818995 .6300026 0
.2254884 .6300415 0
.2671396 .6300877 0
.3074224 .6301416 0
.3467899 .630239 0
.3854676 .630379 0
.4226147 .6304504 0
.4594594 .6305524 0
.4952294 .6307909 0
.5297566 .6309838 0
.563496 .6311871 0
.5964616 .6312373 0
.6290315 .6309688 0
.6607301 .6307749 0
.6913553 .6308358 0
.7208287 .6311917 0
.7495176 .6316608 0
.7774481 .6318846 0
.8047704 .6317521 0
.8311205 .6316186 0
.8564999 .631498 0
.8809256 .6313975 0
.9044368 .6314874 0
.9270533 .6316082 0
.9490742 .6316479 0
.9701043 .6317124 0
.9899518 .6317403 0
.9999999 .6318427 0
0 .6616043 0
0 .6616191 0
.00739581 .6616343 0
.08164797 .6616557 0
.1359011 .6616842 0
.1830134 .6617205 0
.2268518 .6617729 0
.2686218 .6618652 0
.3089774 .6619824 0
.3482535 .6621153 0
.3866608 .662225 0
.4239099 .6623521 0
.4602502 .6624683 0
.4957371 .6624942 0
.5303878 .6625148 0
.5641605 .6625465 0
.5970886 .66257 0
.629408 .6624372 0
.6613111 .6621756 0
.6918612 .6622506 0
.7214582 .662357 0
.7497559 .6626786 0
.7776315 .6630352 0
.8047346 .6632247 0
.8310915 .6631072 0
.8565053 .6630995 0
.8809804 .6631778 0
.9044997 .6632731 0
.9271985 .6633419 0
.9491829 .6633741 0
.9700862 .6634393 0
.9900091 .6634041 0
.9999999 .6636049 0
0 .6926053 0
0 .6926302 0
.01475579 .6926588 0
.08568911 .6926997 0
.1382513 .6927541 0
.1845504 .6928232 0
.2278787 .6929071 0
.2693978 .6930065 0
.3095561 .6931384 0
.3487528 .6931906 0
.3872238 .6932238 0
.4245142 .6932673 0
.460354 .6932381 0
.4958858 .6932106 0
.5305958 .6931899 0
.5644625 .693168 0
.5974687 .693145 0
.6297916 .6930832 0
.661687 .692893 0
.6922393 .6929846 0
.7217412 .6930073 0
.7505487 .6928602 0
.7782193 .6930594 0
.8049536 .6936961 0
.8312162 .6939342 0
.8566408 .6940058 0
.8811056 .6940814 0
.904621 .6941675 0
.9274746 .6942165 0
.949372 .6941466 0
.9701796 .6940693 0
.9899742 .6940699 0
.9999999 .694248 0
0 .7228125 0
0 .7228248 0
.01869054 .7228264 0
.08793158 .7228454 0
.1396853 .722874 0
.1853221 .7229353 0
.2280725 .7230101 0
.26955 .7230257 0
.309887 .7230088 0
.3490658 .7230161 0
.3871724 .7230253 0
.4244377 .7230352 0
.4606766 .7230227 0
.4959681 .7229955 0
.5306717 .7229735 0
.5645744 .7229518 0
.5976363 .7229295 0
.6301703 .7228771 0
.6620257 .7227138 0
.6926352 .7227537 0
.7222209 .7226524 0
.7511046 .722537 0
.7790523 .722595 0
.8058686 .7228414 0
.8314082 .7237936 0
.8567854 .7239023 0
.8813356 .7239714 0
.9049246 .7239735 0
.9278136 .7239336 0
.9494132 .7238947 0
.9700263 .7239339 0
.989888 .7239674 0
.9999999 .7239623 0
0 .7518388 0
0 .7518359 0
.01435317 .7518327 0
.08578692 .751828 0
.1385934 .7518219 0
.185065 .7518142 0
.2287179 .7517624 0
.2701348 .7517277 0
.3102289 .7517298 0
.3489858 .751789 0
.3871018 .7517975 0
.4243098 .7518144 0
.4607182 .751843 0
.496203 .7517976 0
.530956 .7517788 0
.5648634 .7517587 0
.5980281 .7517287 0
.6306072 .7516732 0
.6622548 .7516156 0
.692912 .7515616 0
.7228853 .7514616 0
.7517656 .7515113 0
.7796317 .7515993 0
.8065788 .7516855 0
.8325397 .7519089 0
.8571401 .7527426 0
.8816946 .7527556 0
.9052739 .7527586 0
.9276695 .7528005 0
.9492311 .7528458 0
.9699345 .752875 0
.9898099 .7528507 0
.9999999 .752809 0
0 .7798122 0
0 .7798094 0
.01130541 .7798064 0
.08354969 .7798018 0
.1365476 .7797953 0
.1833026 .7797671 0
.2270641 .7797335 0
.2689303 .7796941 0
.3094234 .7796485 0
.3488213 .7795967 0
.3870267 .7795938 0
.4242867 .7796115 0
.460712 .7796873 0
.4964103 .7796708 0
.5312092 .7796372 0
.5651485 .7796162 0
.5985025 .7795733 0
.6310898 .7795706 0
.6627902 .7796421 0
.6934769 .77959 0
.7233585 .7796001 0
.7523345 .7796565 0
.7803151 .7796593 0
.8072239 .7797392 0
.8332537 .7798291 0
.858259 .7799808 0
.8820004 .7805933 0
.9051199 .7807587 0
.9275662 .7808062 0
.9491336 .7808369 0
.9698494 .7808197 0
.9897025 .780637 0
.9999999 .7804508 0
0 .8068264 0
0 .8068221 0
.00165945 .8068173 0
.07806758 .8068084 0
.1336443 .8067962 0
.1813325 .8067807 0
.2255272 .8067561 0
.2676766 .8067185 0
.3083651 .8066754 0
.3477747 .8066375 0
.386215 .806595 0
.4239456 .8065519 0
.4607902 .8065332 0
.4966679 .8065287 0
.5312998 .8065401 0
.5653713 .8066136 0
.5989664 .8066816 0
.6316333 .8067523 0
.663129 .8067762 0
.6940058 .8068128 0
.7239071 .8068138 0
.7528216 .8068164 0
.7807986 .8068373 0
.8078212 .8068869 0
.8338501 .8069134 0
.8587578 .8070261 0
.8825465 .80722 0
.9052955 .8075759 0
.9274589 .8078642 0
.9490253 .8077514 0
.9697165 .8075492 0
.9895698 .8073494 0
.9999999 .8071713 0
0 .8328765 0
0 .832871 0
0 .8328649 0
.07402664 .8328561 0
.131202 .8328443 0
.1795574 .8328295 0
.2241057 .8328114 0
.2663299 .8327982 0
.3070858 .832767 0
.3466675 .8327306 0
.3853731 .832692 0
.4232762 .8326489 0
.4604336 .8326113 0
.4967505 .8326135 0
.531767 .8326768 0
.566128 .8327531 0
.599565 .8329378 0
.6319918 .8329929 0
.6634442 .8331054 0
.6940446 .8332173 0
.7240691 .83318 0
.7531733 .8331856 0
.7811701 .8331807 0
.8080619 .833207 0
.8341037 .8332419 0
.8590671 .8332689 0
.8827467 .8333086 0
.9055903 .8333849 0
.9277686 .8333111 0
.9488841 .8335217 0
.9695792 .8333277 0
.9894362 .8331361 0
.9999999 .8329652 0
0 .8579846 0
0 .8579793 0
0 .8579734 0
.06979398 .857965 0
.1286744 .8579545 0
.1775643 .8579474 0
.2223808 .8579392 0
.2648568 .8579335 0
.3057734 .8579314 0
.3457452 .857968 0
.3847596 .8580107 0
.42292 .8580282 0
.4601595 .8580232 0
.496542 .8579887 0
.5318956 .8579566 0
.5664358 .8580086 0
.5998339 .8581236 0
.6320578 .8582497 0
.6635876 .8583942 0
.6942826 .8585776 0
.7239757 .858663 0
.7531433 .8585251 0
.7812247 .8583597 0
.8082326 .8583657 0
.8342385 .8583599 0
.8590215 .8582848 0
.8827618 .8581803 0
.905752 .8581075 0
.9277912 .8581215 0
.9493183 .8578484 0
.9694415 .8581876 0
.989302 .8580033 0
.9999999 .8578388 0
0 .8822371 0
0 .882248 0
0 .8822604 0
.06451217 .8822778 0
.1257626 .8823012 0
.1757247 .8823308 0
.22118 .8823668 0
.2641182 .8824093 0
.305352 .8824522 0
.3453546 .8824332 0
.3845329 .8824402 0
.4226029 .8823978 0
.4597361 .8823513 0
.4960076 .8822982 0
.5317156 .8822346 0
.5663151 .8822433 0
.5996966 .8823726 0
.6322036 .8825833 0
.6637701 .8826874 0
.6943317 .8828021 0
.7239361 .8828372 0
.7530166 .8827436 0
.781269 .8825725 0
.8083842 .8825058 0
.8340865 .8824146 0
.8588446 .882296 0
.8827339 .8821874 0
.9057691 .8820716 0
.9279138 .8819837 0
.9491965 .881912 0
.9698681 .8816516 0
.9892839 .8818527 0
.9999999 .8818027 0
0 .9058015 0
0 .9058479 0
0 .9058497 0
.06282861 .905852 0
.1249227 .9058522 0
.1752957 .905845 0
.2210018 .9058364 0
.2641235 .9058262 0
.3055196 .9058143 0
