luts/Timeless_51.cube
# 3D LUT of size 33x33x33 converted by Filestar.
#   Input:
#     color space: sRGB
#     white point: default (D65)
#     transfer function: default (sRGB)
#   Output:
#     color space: sRGB
#     white point: default (D65)
#     transfer function: default (sRGB)
#   Exposure: +0.9
#   Contrast: +23
#   Whites: +6
#   Blacks: -20
#   Vibrance: +5
LUT_3D_SIZE 9
0 .00152409 .00613534
.1718096 0 .00537712
.3543736 0 0
.517047 0 0
.6586127 0 0
.776131 0 0
.8707724 0 0
.945579 0 0
.9999999 0 0
0 .190405 0
.180083 .1892285 0
.3591144 .1900638 0
.519955 .1891571 0
.6596236 .1873495 0
.7767879 .18476 0
.8714091 .1839334 0
.9460991 .1785247 0
.9999999 .1774135 0
0 .3627506 0
.190762 .3628571 0
.3653139 .3629087 0
.5212796 .3660219 0
.6610845 .3668537 0
.778171 .3659903 0
.8725591 .3648336 0
.9475248 .3642349 0
.9999999 .3637512 0
0 .5258468 0
.1794715 .5258828 0
.3642488 .5263759 0
.5255517 .5262159 0
.6624121 .5269482 0
.7788765 .526941 0
.8737907 .5259667 0
.9487012 .5253506 0
.9999999 .525183 0
0 .6653829 0
.17716 .6654117 0
.3661657 .6655093 0
.5253882 .6656021 0
.6645066 .6654314 0
.7789465 .6658298 0
.8736692 .665054 0
.9488644 .6645575 0
.9999999 .6650705 0
0 .781266 0
.1699839 .7812542 0
.3647621 .7810653 0
.5260159 .7811275 0
.6649258 .7808089 0
.7816056 .7802171 0
.8744036 .7808847 0
.9478109 .7811961 0
.9999999 .7799767 0
0 .8746228 0
.1597745 .874468 0
.3600649 .8741859 0
.5251342 .874158 0
.6645949 .8745234 0
.7820103 .8740346 0
.8749846 .8734952 0
.947993 .8733962 0
.9999999 .8733999 0
0 .9485702 0
.1513796 .9486269 0
.3573747 .9486771 0
.5235335 .9484772 0
.6651316 .9482474 0
.7804509 .9479554 0
.8741403 .9472774 0
.9479534 .9468977 0
.9999999 .9466892 0
0 .9999999 0
.1407185 .9999999 0
.3530726 .9999999 0
.5229012 .9999999 0
.6653168 .9999999 0
.7794285 .9999999 0
.8725008 .9999999 0
.94652 .9999999 0
.9999999 .9999999 0
0 .00708457 .1844227
.1720813 0 .1851505
.3587431 0 .1863618
.5199761 0 .1858793
.6602719 0 .1847918
.7769553 0 .184278
.8715242 0 .1816302
.9463525 0 .1782525
.9999999 0 .1778651
0 .1880217 .1882098
.1790131 .1871433 .186481
.3604829 .1861776 .1847754
.5209441 .1852745 .1837727
.6610658 .1831824 .1826811
.777528 .1804881 .1817682
.8720758 .179224 .1800097
.9466607 .1749895 .1789241
.9999999 .1724759 .1762307
0 .3639124 .1838897
.1839212 .3635769 .1817346
.3649979 .3635267 .1828031
.522665 .3651885 .1829465
.6621374 .3658177 .181219
.7789965 .3647829 .1779156
.8732153 .3633999 .177325
.9478882 .3622094 .1750961
.9999999 .3618478 .1714241
0 .5257161 .1753239
.1722948 .5259629 .1755677
.364682 .5264787 .1745422
.5247911 .5269316 .1769506
.6632846 .5268483 .1762186
.7793635 .5263264 .1763173
.8740672 .5252901 .1734827
.9490107 .5244993 .1697702
.9999999 .5242956 .1674711
0 .6657394 .1649358
.1678197 .6659217 .1636573
.3612204 .6659683 .1638985
.5249593 .6661036 .1658908
.6651902 .6656004 .1665607
.7800246 .6658762 .1646119
.8744357 .6649886 .1592393
.9491829 .6644008 .1603563
.9999999 .6646207 .1597279
0 .7815546 .1575735
.1586563 .7815042 .1552749
.3605388 .7813305 .1555741
.5244845 .7816247 .1533174
.6652351 .7808868 .1568023
.7820146 .7802354 .1564482
.8748922 .7807503 .1525916
.9485305 .7810523 .1536139
.9999999 .7799052 .1524163
0 .8748907 .1524688
.1502139 .8747265 .151005
.3565918 .8745149 .1515817
.5210219 .8747433 .1463141
.6634824 .8747538 .1459807
.782443 .873958 .1497036
.8752414 .8734456 .1528568
.9487005 .8731881 .1535695
.9999999 .8732415 .1511644
0 .9488044 .1452664
.1398497 .9488128 .1449828
.3535937 .9488682 .1448793
.5214398 .9486349 .1472321
.664359 .9486179 .1424493
.7796029 .9482463 .1431698
.8741586 .9472415 .1466765
.9479433 .9468668 .1491968
.9999999 .9464474 .1497772
0 .9999999 .1396388
.1287196 .9999999 .1399673
.3497632 .9999999 .1396738
.5209332 .9999999 .1393088
.6636075 .9999999 .1348906
.7783955 .9999999 .1366098
.8724036 .9999999 .1377071
.9466726 .9999999 .1371144
.9999999 .9999999 .1377544
0 0 .3620423
.1831742 0 .3640539
.359964 0 .365129
.52192 0 .3661739
.6618022 0 .3655084
.7777799 0 .3652081
.8726224 0 .3649485
.9473365 0 .3640858
.9999999 0 .3631778
0 .1872554 .3648753
.1778212 .1846853 .3659166
.3625066 .1838261 .3666689
.5230156 .181311 .3658577
.6622063 .1797342 .3645945
.7778904 .1759749 .365607
.8725955 .173055 .3650758
.9474965 .1696722 .363719
.9999999 .1644991 .363229
0 .3647482 .3664624
.1817323 .3642534 .3660304
.3641776 .3638075 .3661081
.5228887 .3648639 .3645619
.6629807 .3654138 .3646058
.7795046 .3635754 .3644285
.8738399 .3615392 .3633132
.9483767 .3589522 .3629977
.9999999 .3583769 .361544
0 .525728 .363768
.1633166 .5259969 .3623295
.360714 .5264544 .3617117
.5255713 .5273077 .3613132
.6649292 .5262348 .3611766
.779911 .5258006 .3629355
.8744276 .5245321 .3621306
.9492928 .523351 .3604104
.9999999 .5225863 .3594794
0 .6661006 .3580473
.1564666 .6661829 .3575189
.3555735 .6668969 .3575618
.5238424 .6663315 .3584722
.6649836 .6658002 .3573535
.7810038 .6661502 .3553662
.8756197 .6652097 .3538888
.949042 .6641853 .3578348
.9999999 .6636633 .3583488
0 .7814749 .3538195
.1398222 .7815543 .3536001
.3516259 .7817973 .3533275
.5213327 .7817238 .3528551
.6640537 .7815003 .3519351
.7826977 .7804667 .3517437
.8764198 .7808037 .3509592
.9500895 .780574 .3506222
.9999999 .7798214 .3509749
0 .8749493 .3512679
.1300532 .8749025 .3512754
.3481855 .8749539 .3509683
.5182998 .8747428 .3499484
.6624412 .874684 .3506491
.7826447 .8742943 .350231
.8763902 .8735916 .3509172
.9499822 .8734082 .3501443
.9999999 .8732359 .3488204
0 .9487495 .3492504
.1180133 .9487967 .3485421
.3445812 .949003 .3476356
.5176122 .9489267 .3491009
.6624113 .9487758 .3507399
.7787126 .9488304 .3485776
.8743865 .9477525 .3491908
.9492058 .9470567 .3487853
.9999999 .946657 .3478754
0 .9999999 .3485895
.1175567 .9999999 .3481928
.3447534 .9999999 .3472496
.517051 .9999999 .3483998
.6610552 .9999999 .3479787
.7778593 .9999999 .3454674
.8712348 .9999999 .3448521
.947013 .9999999 .3438751
.9999999 .9999999 .342762
0 0 .5253098
.1833374 0 .5251696
.3633784 0 .5255975
.5239238 0 .5257453
.6618227 0 .5267842
.7790258 0 .5278589
.8732476 0 .5271296
.9478757 0 .5260014
.9999999 0 .5249317
0 .1834278 .5256034
.1717141 .1819084 .5259701
.3628096 .177509 .5269245
.5249488 .1747861 .5273337
.6636752 .1733329 .5276635
.7792807 .1703727 .5271243
.8735736 .1664141 .526135
.948365 .1625594 .5247251
.9999999 .1588101 .5240024
0 .3623292 .5265343
.1715024 .3618032 .5266834
.3592626 .3617419 .5269134
.5257313 .3614354 .5275406
.6650121 .3621089 .5261391
.7800375 .360537 .5256087
.8742417 .3589366 .5247952
.9492164 .3565247 .5241785
.9999999 .3547447 .5238408
0 .5255814 .526803
.1580197 .525515 .5266082
.3573436 .5257662 .5269518
.5244598 .5261624 .5267866
.6646391 .5256085 .5263104
.7799344 .5253096 .5263171
.8739755 .5233058 .5249542
.9488588 .5222148 .5241466
.9999999 .521623 .5236257
0 .6664631 .5252975
.139639 .6666788 .5249836
.3510698 .6668903 .5235745
.52153 .6664429 .523284
.66498 .6657453 .522873
.7827771 .6643592 .521095
.8750151 .6640665 .5237485
.9485835 .6635548 .5234075
.9999999 .6627448 .5237056
0 .7819459 .5206286
.125028 .7818348 .5204477
.3474621 .7816178 .5194253
.5181906 .7818086 .5189322
.6641919 .7811375 .5193891
.7827991 .7808428 .5193298
.8747211 .7816083 .5197663
.9493747 .7805329 .5194677
.9999999 .779525 .5195186
0 .8748857 .5192143
.1221802 .8747647 .5188679
.3467946 .8745909 .5185728
.51658 .8747635 .5183714
.6621211 .874455 .518552
.7823071 .8740693 .5187358
.8753886 .8741999 .518043
.9486708 .874467 .5175354
.9999999 .8733883 .5180651
0 .9486613 .5183482
.09933602 .9485777 .5182341
.3423289 .948451 .5182285
.5158174 .9485438 .5177506
.66164 .948468 .5184562
.7786655 .9484321 .5179179
.8745171 .9479544 .5175444
.9490095 .9475736 .5172024
.9999999 .9470617 .5154554
0 .9999999 .5166097
.1060239 .9999999 .5163233
.3441802 .9999999 .5164201
.5173202 .9999999 .5161496
.6597574 .9999999 .5179216
.7763525 .9999999 .5176842
.8716608 .9999999 .514816
.9464584 .9999999 .5141371
.9999999 .9999999 .5137651
0 0 .664097
.1753736 0 .6645294
.3634527 0 .6649734
.5250292 0 .6652972
.6637507 0 .6654727
.7792127 0 .6655701
.8737744 0 .6654478
.9486135 0 .665718
.9999999 0 .6654661
0 .1792659 .6650385
.1639891 .175984 .6652111
.3612307 .1712056 .6653066
.5246056 .1708698 .6656814
.6639884 .1689023 .6660705
.7798213 .1653216 .6661456
.8746272 .1606456 .6654816
.9494341 .1556816 .6654864
.9999999 .1516729 .6650411
0 .3610784 .6657345
.1665952 .3599781 .6658998
.3578631 .3597915 .6657103
.5236868 .3581564 .6658992
.663567 .3572397 .666648
.7814806 .355579 .6664107
.8753483 .356221 .6651977
.9505455 .3539172 .6649547
.9999999 .3520601 .6647807
0 .5241678 .6664451
.1423413 .5235177 .6663681
.3536728 .5223179 .6662551
.5224736 .5218048 .6660196
.6654618 .5221903 .6661409
.781949 .5232066 .6639541
.87433 .5230424 .6644441
.9493354 .5215192 .6643407
.9999999 .5209101 .6641721
0 .6655691 .6661792
.1328122 .6659792 .6660349
.3502566 .6665325 .6656575
.5210784 .6660388 .6651224
.664405 .6650576 .664959
.7804695 .6642759 .6649469
.8738698 .6638696 .6647838
.9478119 .663339 .6642634
.9999999 .6625977 .6643927
0 .7820166 .664235
.1217175 .7819162 .6642925
.3463036 .7818265 .6637757
.5169736 .781661 .6632628
.6632081 .7806293 .6638285
.7829985 .780415 .6622879
.8754584 .7804382 .6606318
.9479825 .7796747 .6638469
.9999999 .7793245 .6634062
0 .8750505 .661967
.09919491 .8749808 .6618225
.3403455 .8748887 .661477
.5148076 .874476 .6612447
.6620427 .8738449 .6608362
.7812178 .8735476 .6604956
.8733884 .8743168 .6602355
.947993 .8743847 .6601396
.9999999 .8727726 .6597537
0 .9489406 .660578
.0833739 .9488299 .6602894
.33526 .9483623 .660861
.5139532 .9477112 .6596996
.6612322 .9477718 .6597034
.7776769 .9478027 .6603267
.8730392 .9475127 .661047
.9472175 .9481885 .6597796
.9999999 .9476307 .6586632
0 .9999999 .6601471
.07724384 .9999999 .6598248
.3364109 .9999999 .6590884
.5153755 .9999999 .6580834
.6600611 .9999999 .6586034
.7748607 .9999999 .6603646
.8700497 .9999999 .6604998
.9462906 .9999999 .6592783
.9999999 .9999999 .6570296
0 0 .7806868
.1616708 0 .7807164
.3588213 0 .7809338
.5237946 0 .7810516
.6646942 0 .7812304
.7799067 0 .7816424
.874011 0 .7814112
.9488282 0 .7812657
.9999999 0 .7808763
0 .1757292 .7809329
.1531607 .1745335 .7808504
.3564116 .1671748 .7810743
.5226301 .1643503 .7811075
.6641235 .1640275 .7814299
.7799059 .1584341 .7819779
.8746104 .1556712 .7817836
.9497494 .1493056 .7814315
.9999999 .1451013 .7808995
0 .3584482 .7811539
.1471599 .3583612 .7813027
.3525555 .3566278 .7815685
.5211201 .3544058 .7819245
.6622362 .353782 .7822441
.7804019 .3524014 .7824307
.8760805 .3499801 .7824156
.9508381 .3492793 .7814406
.9999999 .3494456 .7804539
0 .5216878 .7820246
.1237922 .5213575 .7820196
.3475299 .5200377 .7822221
.5181416 .519383 .7822276
.6615858 .5187856 .7825862
.7813413 .5183523 .7824957
.8773739 .5171911 .7821394
.9504328 .5188199 .780718
.9999999 .5190626 .7806539
0 .6627752 .7820591
.1235713 .6630753 .7820654
.3464293 .66358 .7819071
.5165473 .6636718 .7818023
.6610541 .6626434 .7821882
.7810441 .6616066 .7820202
.8753955 .6623684 .7807336
.948721 .6621521 .7802899
.9999999 .66208 .7806579
0 .7810836 .7820288
.1207137 .7812186 .7819674
.3462712 .7812963 .7816929
.5158658 .781378 .7813883
.662406 .7804812 .7816603
.7803749 .7801374 .7814909
.8721763 .7803615 .7808592
.9465243 .7793074 .7801943
.9999999 .7784303 .7802745
0 .8754813 .7808734
.1052247 .8752608 .7809998
.341829 .8747303 .7812952
.5150182 .8742386 .7808704
.6620564 .8733069 .7799174
.7796898 .8725873 .7808957
.8739012 .8730904 .7795922
.9484966 .8731129 .7779629
.9999999 .872302 .780074
0 .9484386 .7798181
.0891533 .94831 .7795961
.3384002 .9480973 .7788244
.5151399 .9478989 .7780871
.6612735 .947478 .7786874
.7777407 .9471949 .7785321
.8711066 .9475378 .7784322
.9468953 .9469374 .7786293
.9999999 .9461336 .7772698
0 .9999999 .7775437
.08722941 .9999999 .777217
.3387063 .9999999 .7767376
.5140797 .9999999 .7762592
.6598143 .9999999 .7769518
.7764494 .9999999 .7765633
.8687964 .9999999 .7764181
.9446388 .9999999 .7772074
.9999999 .9999999 .7768549
0 0 .8742296
.1600074 0 .8743034
.3559932 0 .8745627
.5213985 0 .8745237
.6632078 0 .874458
.7807428 0 .8746343
.8740384 0 .8747332
.9482401 0 .8744403
.9999999 0 .8744385
0 .1657006 .8743051
.1509177 .1627599 .8744093
.3535844 .1599287 .8745575
.5205307 .1598972 .8745373
.6621112 .1591465 .8745146
.7800144 .153592 .8748736
.8741257 .1472593 .8750313
.9485685 .1448503 .8747315
.9999999 .1397212 .8747262
0 .3565294 .8741828
.1326261 .3558213 .8742622
.3489612 .3546771 .8744805
.518647 .3532868 .8748786
.6599165 .3509218 .8752214
.7792093 .3489476 .875906
.8747957 .3473589 .875611
.94958 .3468845 .8756561
.9999999 .3463806 .8753323
0 .5202966 .8745716
.1216275 .519931 .8746228
.345432 .5197187 .8749504
.5160689 .51785 .8753503
.6599364 .5163363 .8753499
.7797291 .516661 .8756288
.8751274 .5160248 .8753431
.9498149 .5158938 .8754126
.9999999 .5149232 .8755595
0 .6614881 .8753513
.1018069 .6616659 .8753136
.3389823 .6614974 .8752002
.5153145 .6604564 .8750455
.6606045 .6602013 .875204
.7790089 .6598094 .8755699
.8746819 .6594217 .8756347
.9494287 .6587632 .8754133
.9999999 .6597739 .874594
0 .7790634 .8751224
.1045579 .7791352 .875055
.3411551 .7793999 .8750765
.5133713 .7795994 .8751519
.6596594 .7787579 .8751759
.7790174 .7781777 .8753752
.8728414 .7781949 .8748351
.9474509 .7778913 .8741873
.9999999 .7779138 .8734618
0 .8740438 .8748665
.1089549 .8739977 .8747244
.3434388 .8739768 .8745648
.5164789 .8739487 .8743719
.6608227 .8737632 .8741611
.7773428 .8738389 .8742999
.8718957 .8730633 .8745463
.9457691 .8734815 .8746452
.9999999 .8726285 .8745269
0 .9487621 .8735825
.0892506 .9486334 .873616
.3385068 .9483927 .8736968
.5151018 .9479167 .8738324
.6608368 .9472122 .8738523
.7785081 .946591 .8738871
.8714873 .9472687 .8744215
.9462677 .9468061 .8750868
.9999999 .9464483 .8747633
0 .9999999 .8730627
.08175585 .9999999 .8731211
.3390039 .9999999 .8734533
.5151379 .9999999 .873156
.6606624 .9999999 .872555
.7786844 .9999999 .8719032
.8716345 .9999999 .8735104
.9461403 .9999999 .8734121
.9999999 .9999999 .8730649
0 0 .9477245
.1615099 0 .9478081
.356282 0 .9480973
.5219907 0 .9484624
.6612076 0 .9484239
.7797185 0 .9486699
.8741903 0 .948844
.9477016 0 .9486082
.9999999 0 .9482858
0 .1649095 .9478267
.1524481 .1623581 .9479335
.3537545 .1601303 .9481358
.520456 .1550035 .948455
.6601651 .1539092 .9483801
.7786589 .148389 .9486546
.8740119 .1433977 .9488834
.947966 .1396771 .9489465
.9999999 .1377687 .9485763
0 .3557635 .9479962
.132915 .3550577 .9481071
.3472156 .3539437 .9482481
.5164881 .3517466 .9485505
.6579134 .350408 .9485406
.7772461 .3481082 .9490243
.8739496 .3469272 .9493513
.948816 .3460222 .9491625
.9999999 .3466677 .9492405
0 .5172933 .9484362
.1068941 .5168957 .9484615
.3399442 .5162804 .9484271
.5139744 .5164419 .9486085
.6589096 .5153948 .9486261
.7771122 .5161855 .9488446
.8738625 .5162205 .9489705
.9486302 .5151795 .9490085
.9999999 .5143574 .9488584
0 .6597878 .9485829
.09400251 .6599292 .9485405
.3383501 .6593974 .9485222
.5132784 .6593176 .948284
.6594496 .6593752 .9479747
.7771834 .659061 .9484152
.8730029 .6585836 .9489143
.9480357 .6576827 .9487882
.9999999 .6572759 .9490685
0 .7779834 .9489267
.08192813 .7780907 .9488233
.3331003 .7780834 .9485316
.5116037 .7773837 .9483086
.6588024 .7765633 .9483271
.7781354 .7763621 .9484455
.8706402 .7773183 .9484683
.9469215 .7767228 .9488843
.9999999 .7764446 .9488294
0 .8721726 .9484901
.09834532 .8720746 .9485145
.3394874 .8720696 .9485667
.5137925 .8720715 .9485689
.6585364 .8724725 .9486428
.7765723 .8719494 .9486013
.8712083 .8716229 .948483
.9466392 .8717164 .9481451
.9999999 .8721215 .947441
0 .9475248 .9482951
.09014165 .9475021 .9481818
.3418812 .9473504 .9480162
.5163019 .9475334 .9478822
.6580199 .9480215 .9479038
.7753803 .9479802 .9479648
.8703091 .9480545 .9475309
.9472744 .9468911 .9472464
.9999999 .9475643 .9475585
0 .9999999 .9467439
.08898779 .9999999 .9465296
.3396077 .9999999 .9464176
.5141501 .9999999 .9463808
.6593949 .9999999 .9467532
.7779846 .9999999 .9463241
.8750824 .9999999 .9464199
.945918 .9999999 .9475471
.9995889 .9987013 .94898
0 0 .9999999
.1615906 0 .9999999
.355687 0 .9999999
.5218537 0 .9999999
.6602941 0 .9999999
.7776824 0 .9999999
.8732584 0 .9999999
.9474179 0 .9999999
.9999999 0 .9999999
0 .1646275 .9999999
.1518392 .1618652 .9999999
.3536055 .1601181 .9999999
.5206528 .1546971 .9999999
.6598812 .1502817 .9999999
.7772897 .1455343 .9999999
.87302 .1422961 .9999999
.9476309 .1375822 .9999999
.9999999 .1374599 .9999999
0 .3549685 .9999999
.1337082 .3544862 .9999999
.347062 .3534776 .9999999
.5171118 .3518342 .9999999
.6587956 .3504841 .9999999
.776179 .3490508 .9999999
.8726031 .3483867 .9999999
.9477583 .3469126 .9999999
.9999999 .3455682 .9999999
0 .5160185 .9999999
.08914224 .5147265 .9999999
.3381215 .5149977 .9999999
.5119717 .5160243 .9999999
.6583391 .5162061 .9999999
.7754507 .5162817 .9999999
.8727737 .5166644 .9999999
.9473369 .5157089 .9999999
.9999999 .5145728 .9999999
0 .6587201 .9999999
.1009686 .6587605 .9999999
.3367264 .6585876 .9999999
.5094629 .6576165 .9999999
.6569192 .6573802 .9999999
.7763558 .6586437 .9999999
.871101 .6585768 .9999999
.9467593 .6582704 .9999999
.9999999 .6578357 .9999999
0 .776004 .9999999
.09105328 .7760926 .9999999
.3336808 .7761301 .9999999
.5108067 .7755703 .9999999
.6574587 .7755442 .9999999
.775533 .7759692 .9999999
.8689762 .7768863 .9999999
.9446301 .7760509 .9999999
.9999999 .7751024 .9999999
0 .8702458 .9999999
.09641657 .8704317 .9999999
.3396512 .8705637 .9999999
.5143445 .87061 .9999999
.6588895 .8703571 .9999999
.7765563 .8704602 .9999999
.8705752 .8706947 .9999999
.9437563 .8713578 .9999999
.9999999 .8717983 .9999999
0 .9455233 .9999999
.100071 .9453456 .9999999
.3442014 .9448749 .9999999
.5180438 .9446592 .9999999
.6588526 .9448944 .9999999
.7767187 .9443373 .9999999
.8724826 .9441748 .9999999
.9475669 .9448032 .9999999
.9999999 .9458838 .9999999
0 .9999999 .9999999
.09919857 .9999999 .9999999
.3426232 .9999999 .9999999
.5160164 .9999999 .9999999
.6587024 .9999999 .9999999
.7777184 .9999999 .9999999
.8755086 .9999999 .9999999
.9494191 .9981539 .9999999
.9999999 .9969763 .9999999
