luts/Timeless 12.cube
# 3D LUT of size 33x33x33 converted by Filestar.
#   Input:
#     color space: sRGB
#     white point: default (D65)
#     transfer function: default (sRGB)
#   Output:
#     color space: sRGB
#     white point: default (D65)
#     transfer function: default (sRGB)
#   Exposure: +0.74
#   Contrast: +23
#   Whites: +28
#   Blacks: -30
#   Vibrance: +5
LUT_3D_SIZE 33
0 .00121253 .00968886
0 .00142012 .00731541
.00615998 0 .00594342
.08978835 0 .01370075
.1478203 0 .00729621
.1975916 0 .00172115
.2479437 0 0
.2941059 0 0
.337044 0 0
.3792261 0 0
.4222664 0 0
.4646952 0 0
.5051011 0 0
.543169 0 0
.5807881 0 0
.6167937 0 0
.6517218 0 0
.6871939 0 0
.7225661 0 0
.7560777 0 0
.7873596 0 0
.8171688 0 0
.8456256 0 0
.8725129 0 0
.898236 0 0
.9232501 0 0
.946169 0 0
.9679267 0 0
.988615 0 0
.9999999 0 0
.9999999 0 0
.9999999 0 0
.9999999 0 0
0 .00147804 .00665094
0 .00121031 .00688705
.06183396 0 .0100022
.1092803 .00386497 .00388432
.1588592 0 0
.2050852 0 0
.2515735 0 0
.2956686 0 0
.3376383 0 0
.3801001 0 0
.4231539 0 0
.4654358 0 0
.5059124 0 0
.5440339 0 0
.5817242 0 0
.6173856 0 0
.6520968 0 0
.6877149 0 0
.7230832 0 0
.7566559 0 0
.7878773 0 0
.8176772 0 0
.8460907 0 0
.8729787 0 0
.8985679 0 0
.9234201 0 0
.9463171 0 0
.9680975 0 0
.9887802 0 0
.9999999 0 0
.9999999 0 0
.9999999 0 0
.9999999 0 0
0 .04073387 0
.02194244 .04403934 0
.08192811 .03922204 0
.1232359 .03875194 0
.1625236 .0413708 0
.2081014 .03797951 0
.2526421 .03560389 0
.2957301 .03785813 0
.3385209 .04071595 0
.3812121 .04815737 0
.4239601 .05511016 0
.4661978 .05332757 0
.5066543 .04963686 0
.54496 .04058395 0
.5825037 .02665389 0
.6180726 .02649045 0
.6527035 .04575428 0
.6883411 .05562705 0
.7236643 .04523563 0
.7573056 .03109124 0
.7884604 .01925029 0
.8182577 .007011 0
.8466113 0 0
.8734456 0 0
.8988602 0 0
.9235553 0 0
.9464695 0 0
.9682423 0 0
.988918 0 0
.9999999 0 0
.9999999 0 0
.9999999 0 0
.9999999 0 0
0 .09512798 0
.03131581 .09554664 0
.08530039 .09344044 0
.1264319 .09265814 0
.1670906 .09399041 0
.2089174 .09833092 0
.2534432 .09896431 0
.2970982 .09981424 0
.3396597 .1008229 0
.3827113 .105343 0
.4249422 .109603 0
.4670442 .1087152 0
.5075351 .1078338 0
.5462749 .1041759 0
.5835854 .09776839 0
.6188598 .1032698 0
.6537662 .1108975 0
.6895491 .1129995 0
.7244908 .1103299 0
.7581832 .1034279 0
.7893282 .09800226 0
.8190059 .0908773 0
.8472393 .08094207 0
.8739126 .07309975 0
.8992946 .07398192 0
.9237729 .07295037 0
.9466795 .0709142 0
.9684336 .06912645 0
.9890769 .06767968 0
.9999999 .06545312 0
.9999999 .06436457 0
.9999999 .06750777 0
.9999999 .07153196 0
0 .1446457 0
.02022096 .1463504 0
.06516463 .1476267 0
.1264026 .1462719 0
.168212 .1484181 0
.2114976 .1499991 0
.2546232 .1520666 0
.29834 .1531067 0
.3407929 .1538107 0
.3844586 .1550077 0
.4264344 .1565597 0
.468402 .156439 0
.5088902 .1561591 0
.5480157 .1541454 0
.58485 .1534957 0
.6199344 .1594066 0
.6551079 .1640978 0
.6908167 .1629808 0
.7256875 .1615823 0
.7591853 .1586388 0
.7903332 .1547292 0
.8197607 .1497698 0
.847781 .1453821 0
.8744857 .1425754 0
.9000567 .1435684 0
.9240593 .1448196 0
.9469208 .1440526 0
.968651 .1432912 0
.9893282 .1424776 0
.9999999 .1413832 0
.9999999 .1413717 0
.9999999 .14278 0
.9999999 .1450492 0
0 .1984742 0
.00836772 .1991125 0
.06165283 .1999604 0
.1183586 .2000027 0
.1709118 .1993186 0
.2144098 .200094 0
.2565744 .2006097 0
.2984996 .202834 0
.3431166 .2027271 0
.386961 .2028649 0
.4285159 .2039976 0
.4701793 .2040851 0
.5104313 .2041363 0
.5496403 .2027068 0
.5860264 .2061876 0
.6211 .2106504 0
.656331 .2119838 0
.6922124 .2104875 0
.726923 .2098613 0
.760241 .2069396 0
.7912951 .2041675 0
.8204526 .2024952 0
.8484198 .1995935 0
.8751791 .1990836 0
.9007332 .1997498 0
.924513 .2010666 0
.9472052 .2017635 0
.9689246 .2012325 0
.9896591 .20059 0
.9999999 .2003658 0
.9999999 .2004302 0
.9999999 .2013187 0
.9999999 .2029094 0
0 .2479081 0
.01845338 .2480321 0
.07364405 .2485516 0
.1206483 .2490325 0
.1735354 .2476589 0
.216464 .2478556 0
.2583119 .2483319 0
.300385 .2483264 0
.3444549 .2491169 0
.3879172 .2499055 0
.43002 .250486 0
.4713238 .2508466 0
.5113667 .2513432 0
.550401 .2540889 0
.5867761 .2568677 0
.6216843 .2586877 0
.6572966 .2590306 0
.6931804 .2581715 0
.7280536 .2564478 0
.7607123 .2548682 0
.7920843 .2523135 0
.8212789 .2505512 0
.8492759 .250068 0
.8759387 .2502766 0
.9013301 .2506028 0
.9250896 .2516252 0
.947692 .2526255 0
.9692566 .25309 0
.990105 .2528127 0
.9999999 .2529766 0
.9999999 .2531072 0
.9999999 .2539558 0
.9999999 .2558589 0
0 .2936529 0
.02281345 .293766 0
.082666 .2938843 0
.1266497 .2942532 0
.1740752 .2938353 0
.2165966 .2938657 0
.2587453 .2936608 0
.3029989 .2936635 0
.3460736 .2938801 0
.388216 .2950234 0
.4302096 .2960882 0
.4714895 .2976401 0
.5115298 .3000664 0
.5513973 .30272 0
.5873926 .3036336 0
.6226006 .3043908 0
.6584426 .3044985 0
.6941327 .3031459 0
.7288055 .3014773 0
.761237 .3005157 0
.7926196 .298466 0
.8221734 .2979544 0
.8501187 .2979697 0
.8768289 .2976698 0
.9020531 .29779 0
.9258088 .2986593 0
.948348 .2999021 0
.9697689 .3017302 0
.990566 .3031338 0
.9999999 .3036643 0
.9999999 .3036706 0
.9999999 .303799 0
.9999999 .3046526 0
0 .3388154 0
.00614868 .3388122 0
.07340961 .3388139 0
.1273433 .3387315 0
.1726853 .3389677 0
.217734 .3389221 0
.2627619 .3388775 0
.3061228 .3388682 0
.3486811 .3387643 0
.3901412 .3390068 0
.4306992 .3413792 0
.4717957 .3437467 0
.5119638 .3459661 0
.5515774 .3473809 0
.5881009 .3477683 0
.623895 .3478095 0
.6597973 .3473237 0
.695147 .3462835 0
.7295764 .3449137 0
.7622997 .3436062 0
.7933853 .3436222 0
.8233085 .343149 0
.8510582 .3438018 0
.877272 .3447933 0
.9023065 .3457536 0
.9259685 .3472741 0
.9485447 .3484148 0
.9702608 .3496032 0
.9911314 .3501936 0
.9999999 .3501922 0
.9999999 .35036 0
.9999999 .3503795 0
.9999999 .3508653 0
0 .3824443 0
0 .3823529 0
.07042124 .3822608 0
.1268184 .3821785 0
.1780222 .3821282 0
.2204429 .3828404 0
.266624 .382526 0
.3098917 .3821547 0
.3523809 .3823169 0
.3935066 .3827108 0
.4334563 .3837556 0
.4727324 .3855575 0
.5127641 .387326 0
.5514017 .3888991 0
.5879388 .3895552 0
.6250759 .3897493 0
.6613786 .3889552 0
.6962007 .3888175 0
.7300755 .3885777 0
.7627644 .3891449 0
.7936268 .390251 0
.8234715 .3905634 0
.8515676 .3907671 0
.8774881 .3912569 0
.9025511 .3916544 0
.9264172 .3922708 0
.9490699 .3935007 0
.9708887 .3945114 0
.9916235 .3951329 0
.9999999 .3953749 0
.9999999 .395554 0
.9999999 .3955961 0
.9999999 .3959333 0
0 .4237894 0
0 .4236872 0
.07208481 .4235724 0
.1301224 .423414 0
.1805398 .4234401 0
.2246251 .4239979 0
.2689953 .4244522 0
.3143903 .4243807 0
.3562706 .424262 0
.3968537 .4241849 0
.4362094 .4247908 0
.4751462 .4257455 0
.5133301 .427952 0
.5514618 .4304691 0
.5885988 .4319648 0
.6251839 .4324983 0
.6616948 .4332832 0
.6966216 .4337857 0
.7302204 .4339902 0
.7630167 .4338531 0
.7943417 .4337856 0
.823882 .4342323 0
.8517182 .4341314 0
.8780227 .4345618 0
.9030666 .4353436 0
.9270548 .4361103 0
.9498257 .4372362 0
.9715598 .4384138 0
.9920908 .4392395 0
.9999999 .4394579 0
.9999999 .4397109 0
.9999999 .439567 0
.9999999 .4396172 0
0 .4675082 0
0 .4676074 0
.07155264 .4677663 0
.1305844 .4679924 0
.1816762 .4681137 0
.2281575 .4683151 0
.2689802 .4690754 0
.3137293 .4691233 0
.3573773 .4690946 0
.3977075 .4689841 0
.4372906 .4695096 0
.4765188 .470161 0
.514891 .4708612 0
.5519127 .4724001 0
.5897014 .4736351 0
.6260385 .4735777 0
.6625139 .4744764 0
.6973518 .475696 0
.7308804 .4760618 0
.7635493 .4762211 0
.7947529 .4763336 0
.8243134 .4764284 0
.8515995 .4771485 0
.8785245 .4775796 0
.903633 .4784294 0
.927534 .4792662 0
.9505917 .4798729 0
.9722869 .4808049 0
.9927229 .4816616 0
.9999999 .4818502 0
.9999999 .4817738 0
.9999999 .4812766 0
.9999999 .4810025 0
0 .5118733 0
0 .5118968 0
.05472016 .5119236 0
.1209644 .5119525 0
.1749863 .5118845 0
.2242701 .5117607 0
.270867 .5116467 0
.3123451 .5119933 0
.3556088 .5119204 0
.3986167 .5116891 0
.4387782 .5113133 0
.4778508 .5114273 0
.5162395 .5118031 0
.5549912 .5119925 0
.5926619 .5131155 0
.6282495 .5144083 0
.6635415 .5153039 0
.6981444 .5163567 0
.7311305 .5178224 0
.7635785 .5181456 0
.7950526 .5182077 0
.8235727 .5184464 0
.8519005 .5189278 0
.8786802 .5196593 0
.9042299 .5200471 0
.928336 .5206288 0
.9513784 .5211993 0
.9729576 .5217549 0
.9933121 .5225421 0
.9999999 .5219165 0
.9999999 .5215569 0
.9999999 .5213441 0
.9999999 .5209138 0
0 .5519494 0
0 .5519488 0
.03843981 .5519484 0
.112834 .5519502 0
.1689506 .5519243 0
.2194327 .5518789 0
.2670617 .551827 0
.3114886 .5518835 0
.3550666 .5518664 0
.3977216 .5519119 0
.4399898 .5517843 0
.4790862 .5514588 0
.5182179 .5519727 0
.5572368 .5526598 0
.5950218 .5532109 0
.6311586 .5539652 0
.6649141 .5552887 0
.6988044 .5561889 0
.7319337 .557238 0
.7636513 .5584404 0
.7940399 .5587496 0
.8233653 .5591395 0
.8519768 .5595452 0
.8790978 .5599503 0
.9045743 .5606535 0
.9290478 .560894 0
.9519592 .5611932 0
.9736732 .5611464 0
.9932255 .5608816 0
.9999999 .5606062 0
.9999999 .5601086 0
.9999999 .55993 0
.9999999 .5598024 0
0 .5905082 0
0 .5905066 0
.01742201 .5905078 0
.1029256 .5905092 0
.1626113 .5904887 0
.2147216 .5904599 0
.2633116 .5904119 0
.3103429 .5903659 0
.3539128 .590476 0
.3973458 .5907577 0
.4396709 .591137 0
.4805954 .5916498 0
.5202531 .5917389 0
.5592763 .591778 0
.5969632 .5922009 0
.6329898 .5927473 0
.6674724 .5933565 0
.699852 .5945244 0
.7326072 .5954152 0
.7639952 .5966401 0
.7933456 .5976449 0
.823098 .598265 0
.851738 .5986044 0
.8789924 .5988372 0
.9052017 .5988743 0
.929826 .5989877 0
.952826 .5990137 0
.9732198 .5988281 0
.9925177 .5983365 0
.9999999 .5980258 0
.9999999 .5978218 0
.9999999 .5977541 0
.9999999 .5976599 0
0 .6280298 0
0 .6280363 0
0 .6280439 0
.08965342 .6280547 0
.1545668 .6281124 0
.2099141 .6283406 0
.2605885 .6286148 0
.3083592 .6289045 0
.3540944 .6292207 0
.396544 .6296456 0
.4386013 .6299862 0
.4798282 .6301913 0
.5218487 .6303574 0
.5609043 .6303431 0
.5984849 .6303263 0
.6343917 .6304272 0
.6689071 .6308956 0
.7022969 .631397 0
.7336172 .6322271 0
.7637162 .6332583 0
.7937489 .6342021 0
.8233384 .63494 0
.8515629 .6355075 0
.879204 .6355665 0
.9056931 .6356221 0
.9304147 .6355228 0
.9520399 .6354074 0
.9725857 .6352298 0
.992017 .6344183 0
.9999999 .634033 0
.9999999 .633919 0
.9999999 .6337974 0
.9999999 .6337246 0
0 .6649812 0
0 .665061 0
0 .6651483 0
.07960889 .6652628 0
.1498639 .6654152 0
.2066873 .6656036 0
.2580826 .6658204 0
.3063708 .666075 0
.3524897 .6663669 0
.3953921 .6667035 0
.4372205 .6669096 0
.4796616 .6670001 0
.5212098 .6671981 0
.562427 .6671395 0
.5996566 .6671434 0
.6357601 .6671286 0
.6708722 .6670721 0
.7043285 .6674032 0
.7345473 .6679851 0
.7638162 .6686465 0
.7943658 .6692389 0
.8238103 .6695861 0
.8526191 .6696122 0
.8802395 .6696321 0
.9057509 .6696045 0
.9289399 .6692756 0
.9509802 .6690992 0
.971649 .6695691 0
.9912973 .6695009 0
.9999999 .6689568 0
.9999999 .6688202 0
.9999999 .6687508 0
.9999999 .668658 0
0 .7003585 0
0 .700421 0
0 .7004912 0
.07237006 .7005914 0
.1459185 .7007243 0
.203889 .7008919 0
.2559116 .7010946 0
.3040076 .7013207 0
.3490552 .7015589 0
.3938546 .7017561 0
.4370625 .7019978 0
.4798899 .702065 0
.5213318 .7021969 0
.5607216 .7025425 0
.601075 .7023012 0
.63714 .7023644 0
.6720588 .7022603 0
.7040271 .7020946 0
.734991 .7019634 0
.7657031 .7022398 0
.7959769 .7024773 0
.8252301 .7027179 0
.8532335 .702586 0
.8802317 .7022412 0
.9047961 .7018441 0
.9278788 .7020614 0
.9498199 .7023482 0
.9708864 .7024755 0
.9905446 .7029473 0
.9999999 .7026287 0
.9999999 .7020786 0
.9999999 .702035 0
.9999999 .7020648 0
0 .7343998 0
0 .7344054 0
0 .7344117 0
.06043288 .734449 0
.1398878 .7345496 0
.1983032 .73469 0
.2497728 .7348641 0
.2978484 .7350687 0
.3453489 .7352273 0
.3919873 .7353759 0
.4364809 .735721 0
.4789858 .7358714 0
.5203784 .735918 0
.5605519 .736093 0
.6005137 .7360976 0
.6394164 .7353722 0
.6727861 .7347823 0
.7052583 .7344024 0
.7369668 .7340807 0
.7678971 .7343907 0
.797218 .7344911 0
.8260133 .73439 0
.8534109 .7344609 0
.8790208 .7343497 0
.9034716 .7341697 0
.9267967 .7341342 0
.9489806 .734055 0
.9699656 .7342837 0
.9903718 .7342827 0
.9999999 .7344879 0
.9999999 .7341747 0
.9999999 .7335791 0
.9999999 .7336147 0
0 .7662967 0
0 .7663699 0
0 .7664527 0
.02990527 .7665702 0
.1247806 .7667123 0
.1871773 .7668859 0
.241273 .7670882 0
.2929889 .7672991 0
.3421712 .7675154 0
.3901772 .7675824 0
.4359744 .7676671 0
.4791499 .7677375 0
.5203149 .7675863 0
.5615728 .767211 0
.6012151 .7668899 0
.6384245 .7665417 0
.6741642 .7661356 0
.7064306 .7657913 0
.738155 .7656089 0
.7686855 .765531 0
.7979516 .7661065 0
.8260089 .7664074 0
.8521705 .7664679 0
.8773682 .7664068 0
.9017571 .7662735 0
.9252182 .7661207 0
.9478716 .7660745 0
.9694106 .7659378 0
.9897932 .7659141 0
.9999999 .7656324 0
.9999999 .7656738 0
.9999999 .7653935 0
.9999999 .7650586 0
0 .797596 0
0 .7976753 0
0 .7977641 0
0 .7978786 0
.1072857 .7980237 0
.1794328 .798146 0
.2389731 .7982873 0
.2929812 .7984521 0
.3430379 .7984857 0
.3894723 .798542 0
.434148 .7985986 0
.4779876 .7985755 0
.5196717 .7984619 0
.5612216 .7981063 0
.5992528 .798023 0
.6359873 .7980252 0
.6715875 .7977955 0
.7062643 .7973521 0
.7385637 .7972489 0
.7692933 .7972558 0
.7981471 .7970278 0
.8254393 .7968438 0
.8516055 .7967139 0
.8764066 .7965571 0
.9007162 .7962328 0
.9245019 .7958698 0
.9472211 .7955647 0
.9683742 .7950065 0
.9886134 .7946858 0
.9999999 .7945029 0
.9999999 .7944542 0
.9999999 .7946985 0
.9999999 .7944924 0
0 .827127 0
0 .8271092 0
0 .8270714 0
0 .8270261 0
.1045917 .8270012 0
.1779079 .8269693 0
.2377133 .8269074 0
.2931043 .8267422 0
.344344 .8265523 0
.3919949 .8264045 0
.4373395 .8262726 0
.48083 .8261323 0
.522428 .8259158 0
.5605349 .8259691 0
.5975502 .826049 0
.6333344 .826367 0
.6686369 .826551 0
.7048396 .8265689 0
.7386966 .8262663 0
.7696226 .8256735 0
.798353 .8252062 0
.8255779 .8247908 0
.8515443 .8245246 0
.8763276 .8244135 0
.900487 .8242537 0
.9235752 .8236499 0
.9458094 .8234295 0
.9670486 .8232144 0
.9874511 .8229616 0
.9999999 .8229657 0
.9999999 .8228378 0
.9999999 .8225327 0
.9999999 .8218974 0
0 .853048 0
0 .8530063 0
0 .8529595 0
0 .852893 0
.1145715 .8528044 0
.1868236 .8526928 0
.2462334 .8525578 0
.2996626 .8524058 0
.3490608 .8522563 0
.3960029 .8520936 0
.4403809 .8519842 0
.4822412 .8518858 0
.5216238 .8521399 0
.5595868 .8524712 0
.5968115 .8527451 0
.6323791 .8531416 0
.6681333 .8536355 0
.7027 .8541388 0
.7361667 .853895 0
.7671253 .8532606 0
.7966964 .8525558 0
.8243793 .8520235 0
.8510643 .8514295 0
.8761161 .850719 0
.8999392 .8506305 0
.9225934 .8505622 0
.9449174 .850167 0
.9662303 .8499495 0
.9869403 .8498707 0
.9999999 .8500202 0
.9999999 .849795 0
.9999999 .8492985 0
.9999999 .8486366 0
0 .8775954 0
0 .8775455 0
0 .8774896 0
.02840768 .8774211 0
.130685 .8773383 0
.1970349 .8772249 0
.2531127 .8771011 0
.303922 .8769716 0
.3517664 .8769171 0
.3974177 .8769791 0
.4401395 .8770767 0
.4806591 .8773726 0
.5201411 .8777024 0
.5588396 .8779674 0
.596006 .8782459 0
.6327035 .8786225 0
.6685759 .879069 0
.7013466 .8793014 0
.7332969 .8794935 0
.7650814 .8793644 0
.7942156 .8789 0
.8219166 .8779769 0
.848357 .8773361 0
.8743725 .8765497 0
.8991122 .8761801 0
.9222481 .8759959 0
.9439644 .8759378 0
.9652376 .8757064 0
.9866903 .875527 0
.9999999 .8752174 0
.9999999 .8748227 0
.9999999 .8742715 0
.9999999 .8737004 0
0 .9009186 0
0 .9009418 0
0 .9009681 0
.04342389 .9010081 0
.1344209 .9010335 0
.1977165 .9010655 0
.2527596 .9011043 0
.3035434 .90115 0
.3514127 .901203 0
.3951586 .9012825 0
.4379982 .9014653 0
.4791273 .9017417 0
.5187925 .9020355 0
.557658 .9023154 0
.5954952 .9025548 0
.632827 .9028426 0
.6670758 .9030356 0
.7003525 .903204 0
.7324752 .9033698 0
.7631897 .903245 0
.7932173 .9029628 0
.8204055 .9025394 0
.8465953 .9020756 0
.8727695 .9013031 0
.8977003 .9006327 0
.9215137 .900323 0
.9441628 .9000186 0
.966003 .899887 0
.9865009 .8997216 0
.9999999 .8988487 0
.9999999 .8983259 0
.9999999 .8978178 0
.9999999 .8972314 0
0 .9239458 0
0 .923987 0
0 .9240309 0
.04653744 .9240612 0
.135701 .9240888 0
.1985881 .9241236 0
.2537811 .9241427 0
.3027989 .9241816 0
.3486602 .9242375 0
.3933273 .9243473 0
.4366735 .924509 0
.4783989 .9247093 0
.5184948 .9249784 0
.5574304 .9252677 0
.596131 .9254307 0
.6323678 .9254909 0
.6669327 .9256573 0
.7000958 .925589 0
.7322149 .9256608 0
.7629203 .9257376 0
.7923945 .9257178 0
.8204506 .9254243 0
.846912 .924926 0
.8726892 .9243373 0
.8973607 .9237708 0
.9208205 .9234395 0
.9434565 .9231556 0
.9655212 .9231542 0
.9863368 .9227173 0
.9999999 .9217823 0
.9999999 .920922 0
.9999999 .9201388 0
.9999999 .9196576 0
0 .9456879 0
0 .9456918 0
0 .9457167 0
.06325214 .9457528 0
.1424561 .9458048 0
.2007851 .9458801 0
.2521826 .9459541 0
.300781 .9460225 0
.3473549 .9460992 0
.3924987 .9462432 0
.43596 .9464024 0
.4779038 .9465756 0
.5181242 .9468216 0
.5566301 .9469901 0
.5948536 .9470766 0
.6310161 .9468947 0
.6662773 .9469211 0
.6999488 .9469886 0
.732211 .9470577 0
.7626266 .94714 0
.7917438 .9472048 0
.8203231 .947089 0
.8472847 .9466977 0
.873046 .946137 0
.8977694 .9455454 0
.9212111 .9450054 0
.9435079 .9449365 0
.9649108 .9451194 0
.9850591 .9447075 0
.9999999 .9435674 0
.9999999 .942631 0
.9999999 .9418208 0
.9999999 .9409856 0
0 .9663774 0
0 .9663851 0
0 .9664037 0
.06107605 .9664477 0
.1385229 .9665036 0
.1978003 .9665645 0
.2503301 .966638 0
.2992264 .9667267 0
.3463521 .9668817 0
