luts/Timeless_45.cube
# 3D LUT of size 33x33x33 converted by Filestar.
#   Input:
#     color space: sRGB
#     white point: default (D65)
#     transfer function: default (sRGB)
#   Output:
#     color space: sRGB
#     white point: default (D65)
#     transfer function: default (sRGB)
#   Exposure: +0.32
#   Contrast: -38
#   Whites: -8
#   Blacks: -40
#   Vibrance: +18
#   Saturation: +6
LUT_3D_SIZE 9
.02136229 .02735993 .00183079
.02131132 .02735486 .00205671
.2128017 0 .01172002
.3849519 0 0
.5266055 0 0
.6597873 0 0
.7839378 0 0
.8982569 0 0
.9973329 0 0
0 .05344861 0
.06167927 .0553757 0
.2315448 .05101523 0
.384672 .06214284 0
.5266995 .08200983 0
.6599593 .07301392 0
.7837427 .05753145 0
.89838 0 0
.9976096 0 0
0 .2303514 0
.05493011 .2330131 0
.2360491 .232619 0
.386753 .2356778 0
.5262934 .2369321 0
.65977 .2373993 0
.78401 .2379502 0
.8980138 .2275513 0
.9993303 .2171821 0
0 .3831592 0
.02442405 .38292 0
.2418464 .3823208 0
.3936265 .3793118 0
.5307736 .3801727 0
.6621523 .3817193 0
.7858585 .3806317 0
.8973594 .3816686 0
.999552 .3748317 0
0 .5228463 0
0 .522165 0
.2280475 .5210264 0
.389239 .5194569 0
.5317767 .5171944 0
.6620132 .5189317 0
.7858444 .5199605 0
.9002796 .5168875 0
.9999613 .515644 0
0 .6551418 0
0 .655018 0
.1760316 .6542073 0
.3728479 .6533148 0
.5270215 .6521973 0
.6606756 .6514629 0
.7844813 .6505688 0
.8974659 .6486877 0
.9993171 .6460863 0
0 .7755652 0
0 .7753657 0
.1089444 .7753496 0
.3474619 .7751655 0
.5152869 .7740494 0
.6606008 .7722219 0
.7889726 .7694148 0
.8944297 .7696483 0
.9978932 .7674717 0
0 .8859332 0
0 .8854759 0
.01117474 .885128 0
.3276586 .8851014 0
.499096 .8848719 0
.6451167 .8838094 0
.7769185 .8827676 0
.8943967 .8812408 0
.996774 .8796886 0
0 .9874349 0
0 .9873949 0
0 .9872074 0
.2320835 .9865492 0
.4584242 .9863085 0
.627929 .9850658 0
.7677727 .9835485 0
.8879973 .9835442 0
.9938689 .9826229 0
0 .0238113 .06517657
.0291278 .01878932 .06735006
.2233843 0 .07750434
.3910757 0 .07352006
.5360342 0 .0513666
.6681279 0 0
.7921429 0 0
.9058583 0 0
.9999999 0 0
0 .04163086 .06889652
.0868079 .03681189 .07217834
.2415222 .02566705 .06088281
.3938433 .00435084 .05827276
.5360943 0 .02945167
.6678934 0 0
.7918069 0 0
.9060375 0 0
.9999999 0 0
0 .231968 .04974375
.03436744 .2321454 .0423141
.2373156 .231505 .0213776
.3915955 .2326414 .02728613
.5331349 .2275264 0
.6661001 .2192369 0
.7905163 .2097644 0
.9042578 .1946813 0
.9999999 .1831826 0
0 .3857557 0
0 .3855274 0
.2339903 .383457 0
.3915557 .3812279 0
.5330013 .3804912 0
.6647994 .3795022 0
.7889188 .3740663 0
.9012081 .3709595 0
.9999999 .3628293 0
0 .5249068 0
0 .5246497 0
.2037557 .5236765 0
.3846373 .5212284 0
.5325704 .5182731 0
.6640552 .5194606 0
.7874519 .5191577 0
.9020401 .5141971 0
.9999999 .5101414 0
0 .6566041 0
0 .6563911 0
.1498446 .655811 0
.3668539 .6543419 0
.5249904 .6533194 0
.6617407 .6524378 0
.7868004 .6505217 0
.8996384 .6479613 0
.9999999 .6440911 0
0 .7764056 0
0 .7762593 0
.07521147 .7759372 0
.3366214 .7762085 0
.5115125 .7748855 0
.6587807 .7728816 0
.7890858 .7698688 0
.8961474 .7695968 0
.999788 .7664024 0
0 .8864267 0
0 .8859823 0
0 .8856905 0
.3177897 .8854498 0
.4944217 .8855025 0
.6429062 .8844128 0
.77501 .8832764 0
.8948484 .8810451 0
.9980709 .8792109 0
0 .9875738 0
0 .9875694 0
0 .9875117 0
.2115774 .9871773 0
.4516009 .9868248 0
.6217793 .9860736 0
.7608296 .9852772 0
.884949 .9844552 0
.9942878 .9835101 0
0 0 .253569
.04371189 0 .255726
.2419468 0 .2570554
.3946638 0 .2625496
.5389833 0 .2527919
.6719232 0 .2446716
.7962002 0 .2339758
.9079585 0 .2225183
.9999999 0 .2086772
0 .05706523 .2578357
.05454633 .03446247 .2589488
.2474807 .01306921 .258039
.3990594 0 .2556002
.5399966 0 .2473451
.671577 0 .2377727
.7959288 0 .2276079
.9088132 0 .2152638
.9999999 0 .200429
0 .2354574 .2543281
0 .2338538 .2530853
.237455 .2272674 .2501642
.3994071 .2206678 .2455637
.5373349 .2176813 .237764
.6689096 .2105332 .2296379
.794059 .1942369 .2166817
.9074537 .1712743 .2033093
.9999999 .1459575 .1884867
0 .3868208 .2372873
0 .3869216 .2346691
.2084711 .3866073 .2284438
.390002 .382124 .2230393
.5357828 .3776622 .2258122
.6684368 .3747922 .2195908
.7914224 .3699256 .2060434
.9049282 .3612818 .1925892
.9999999 .3494661 .1605397
0 .5272994 .2006796
0 .5263634 .1990527
.178303 .5255016 .1936277
.376001 .5233684 .1893673
.5339538 .5203242 .1855479
.6706401 .5179186 .1797763
.7909839 .515892 .1854058
.9042842 .5099429 .1577905
.9999999 .5036237 .1072872
0 .6579946 .1562494
0 .6579754 .1509876
.09259046 .6577322 .1423836
.3536682 .6569897 .1384163
.5221055 .6555344 .1327348
.6632884 .6540099 .1322212
.7912942 .6494537 .09792677
.9045507 .6444056 .03267423
.9999999 .6399142 .00450465
0 .7780414 .02874609
0 .7780545 .01883578
0 .7775897 0
.317524 .7783114 0
.5036255 .7767558 0
.6561593 .7746968 0
.7878065 .7720396 0
.9000134 .7689113 0
.9999999 .7638171 0
0 .88779 0
0 .8874338 0
0 .8870692 0
.2921114 .8869414 0
.4858103 .8866141 0
.6398347 .8856465 0
.7735977 .8842922 0
.8961702 .8813509 0
.9999999 .8783333 0
0 .9878561 0
0 .9879251 0
0 .9880081 0
.1792991 .9878103 0
.4403791 .9876329 0
.6162924 .9871871 0
.7577006 .9864019 0
.8840922 .9849992 0
.9953938 .9834576 0
0 0 .4188195
.04885995 0 .4189353
.251504 0 .4185353
.4051744 0 .4179114
.5399529 0 .4156662
.6729772 0 .4140241
.7982178 0 .4065253
.9095003 0 .3975878
.9999999 0 .3890446
0 .0330903 .4206793
0 .0113744 .4211795
.2356342 0 .4215666
.4025849 0 .4182892
.5432593 0 .416082
.6736939 0 .4112377
.7985107 0 .4036604
.9100064 0 .3946751
.9999999 0 .3854557
0 .2260671 .4184065
0 .2227477 .4180175
.2203653 .2166171 .4176893
.3974382 .2099927 .4166446
.5446849 .2009213 .411018
.6732394 .1926884 .4032733
.7963166 .1750957 .3960584
.9102625 .149774 .3879435
.9999999 .1152984 .3768979
0 .38326 .4137607
0 .3823573 .4130829
.1966427 .3810219 .4116683
.3822757 .3786337 .4066415
.5365205 .373683 .3991737
.6679015 .3719236 .3945527
.7928696 .3648521 .3877603
.9073887 .3534864 .3792273
.9999999 .3347264 .3671885
0 .5267348 .3967739
0 .5261008 .394808
.1460964 .5250894 .3909403
.3629075 .522764 .3842112
.5305842 .5202121 .3787974
.67101 .5157841 .377161
.7931256 .5130424 .3770815
.9064364 .5047607 .3665591
.9999999 .4958984 .34872
0 .6598291 .371054
0 .6597393 .3696037
0 .6591267 .3666508
.328705 .6587209 .3627715
.5137068 .6572106 .3576644
.6651856 .654573 .3500844
.7960896 .6473951 .3375311
.9084664 .6407008 .3339406
.9999999 .6352171 .3232978
0 .7792886 .336472
0 .7792714 .3333649
0 .7794039 .3274999
.284936 .7795461 .3186696
.4896616 .7785417 .3094262
.6528512 .7762957 .3054072
.7875249 .7733089 .303271
.9048632 .7676312 .2833812
.9999999 .7603942 .2572112
0 .8897402 .2746303
0 .8895035 .2724016
0 .8894346 .2672745
.2383514 .8894628 .2572948
.4672428 .8884532 .2464431
.630055 .8874969 .2417593
.771634 .8851332 .2343972
.898247 .8816791 .209247
.9999999 .8777122 .1756645
0 .9893807 .1662033
0 .9894 .1609117
0 .9894232 .1470531
.0024294 .9897142 .1186856
.40399 .9896274 .0851404
.5982004 .9892948 .03278609
.7507552 .9882845 0
.8821068 .985976 0
.9974925 .9840743 0
0 0 .5611214
.1017782 0 .561163
.2663927 0 .5611645
.4068402 0 .5632131
.5437996 0 .5613136
.6752076 0 .5586848
.7977006 0 .5595676
.9089956 0 .5548746
.9999999 0 .54706
0 0 .5636344
0 0 .563258
.2379416 0 .563073
.401305 0 .5635104
.5450317 0 .5615337
.6760088 0 .5585729
.7990961 0 .5589602
.9097301 0 .5530872
.9999999 0 .5450174
0 .2134429 .5635761
0 .2081989 .5634823
.216245 .1977333 .5630744
.3958607 .188769 .5627276
.5462024 .1793572 .5615839
.6796599 .1619747 .5584431
.8000457 .1488601 .5527542
.9103665 .1218071 .5470722
.9999999 .05651039 .5402586
0 .3734651 .5619166
0 .3711129 .5622334
.1715022 .3670676 .5622174
.3739857 .362922 .5614884
.5364472 .3592056 .5589034
.6773571 .3547398 .5517663
.7997285 .3491568 .5449841
.9100862 .3383251 .5392967
.9999999 .3235299 .5323471
0 .5232172 .5560186
0 .5229702 .5559578
.1374155 .5209814 .5558193
.3574964 .5174196 .5545075
.5284976 .5138611 .5496485
.6666836 .513445 .5408622
.7917925 .5092857 .5369681
.9069565 .5009288 .5314649
.9999999 .4921471 .5241904
0 .658994 .5412523
0 .6590943 .5400296
0 .6590598 .5370066
.3202797 .6575487 .532481
.5062915 .6551382 .5280284
.6648307 .6513456 .523841
.7927266 .6443725 .5226333
.9060769 .6382058 .5229783
.9999999 .6316746 .5135859
0 .7802559 .5196587
0 .7801772 .5180572
0 .7799415 .5144336
.2580027 .7796373 .5116264
.4762393 .7782404 .5090868
.6485767 .775243 .5036194
.7859357 .7734064 .4991137
.9082609 .7649148 .4873613
.9999999 .7581064 .4790822
0 .8905714 .4903009
0 .8902295 .489051
0 .8899653 .4858153
.1987383 .8894303 .4803945
.448362 .8889434 .4735472
.6230555 .8873272 .4643854
.7712911 .8852804 .4637206
.8974881 .8826019 .4554489
.9999999 .8761288 .4381105
0 .9908059 .4426839
0 .9906999 .4406833
0 .9900472 .4358886
0 .9892979 .429699
.395359 .9891495 .4254299
.5905498 .9884978 .4214685
.7492258 .9876708 .41104
.8819243 .9864818 .4002217
.9985647 .9847888 .3820613
0 0 .7002736
.08018818 0 .7003875
.2579236 0 .6998966
.4013423 0 .700141
.5452763 0 .6984404
.6761405 0 .6966507
.7960017 0 .6952408
.9085611 0 .6942965
.9999999 0 .6904335
0 0 .7021794
0 0 .7019327
.2370422 0 .7012284
.3975974 0 .7001061
.543183 0 .6981188
.6767337 0 .6967241
.7972981 0 .6955117
.9094051 0 .6939424
.9999999 0 .6894894
0 .1995846 .7011158
0 .1943659 .7009329
.2047522 .1845128 .7006496
.3870358 .1708672 .6995593
.5377694 .1568205 .6976915
.6772085 .1439086 .6969737
.8013642 .1250832 .695744
.9116467 .08214975 .6925381
.9999999 0 .6876213
0 .3645067 .6991071
0 .3624347 .6991842
.1381086 .3573763 .6987053
.3683407 .3499066 .6978918
.531206 .3405458 .697389
.6759533 .3349084 .6973189
.8043857 .3242281 .6963277
.9136162 .3185661 .6901686
.9999999 .306641 .6828432
0 .5114771 .6967893
0 .5103025 .6968596
.03267597 .5073459 .6969864
.3347307 .5026361 .6966797
.514822 .4974257 .6962011
.6677071 .4953619 .694541
.7980015 .4941272 .6904638
.9086367 .4911327 .6824231
.9999999 .4847732 .6747398
0 .6546069 .6924565
0 .6544456 .6923134
0 .6528888 .6919536
.3099437 .6500764 .6914511
.5028677 .6467286 .6896478
.658536 .6446851 .6862291
.7853578 .6429308 .6797013
.900224 .6387796 .6746936
.9999999 .6329724 .669953
0 .7805165 .6794072
0 .7806863 .6787792
0 .7806078 .6773567
.2536224 .7796372 .6751336
.4738554 .7767253 .6704614
.6451749 .7715396 .6667558
.78756 .7676996 .6623443
.9007902 .764019 .6621787
.9999999 .7583232 .659068
0 .8920441 .6578835
0 .891708 .6572639
0 .8913344 .6554093
.1744923 .8904591 .6524031
.4364923 .8887074 .6486621
.6130426 .8866988 .6455572
.770192 .884012 .6415927
.8966668 .8816044 .6386567
.9999999 .874729 .6246947
0 .991175 .6319295
0 .9908515 .630897
0 .9900523 .6284941
0 .9896496 .6262927
.3948002 .9886723 .6232195
.5908278 .9875548 .6154177
.7467132 .9863172 .6114107
.8809686 .9855888 .6063915
.997063 .9861559 .5883656
0 0 .8211361
.05108591 0 .8211745
.2474506 0 .8216937
.3959478 0 .8227842
.5363593 0 .8223915
.6729797 0 .8213701
.795001 0 .8202546
.9061296 0 .8183941
.9999999 0 .8164617
0 0 .8221878
0 0 .8221757
.2296445 0 .8223315
.3905549 0 .8227547
.5345964 0 .8226399
.6719913 0 .8216887
.7957363 0 .820617
.9073985 0 .8189126
.9999999 0 .8161531
0 .1804654 .8223878
0 .1758554 .8223988
.2003919 .1664093 .8225939
.3758248 .1504889 .8231049
.5292815 .1275489 .8232528
.6684454 .1147984 .8222797
.795768 .08405579 .8216407
.9112434 .03520969 .8197489
.9999999 0 .8154568
0 .352066 .8216503
0 .3495194 .8216797
.1339364 .3436127 .8219011
.3565896 .3351096 .8224108
.5212849 .3263661 .8230097
.6645569 .3206324 .8221467
.7963483 .3142093 .8216433
.9141197 .3028116 .8189536
.9999999 .2883938 .8139705
0 .4988378 .8197035
0 .4975299 .8199033
0 .4940458 .8203002
.3228052 .4900972 .8206971
.5025729 .4864038 .8203164
.6568674 .484066 .8201706
.7913209 .4816208 .8192328
.9119565 .474729 .816293
.9999999 .4716628 .8101389
0 .6419418 .8198623
0 .6412494 .820022
0 .639133 .8196843
.2916936 .6365762 .8185723
.4928386 .633434 .8173437
.6481493 .6306278 .8165481
.7852178 .629752 .815354
.9059837 .6274192 .8112351
.9999999 .6244904 .8052835
0 .7737097 .8159896
0 .7733801 .8159791
0 .7722446 .8157196
.250503 .7702346 .8154452
.4734484 .7674028 .8140996
.6434509 .7651988 .8111805
.7808192 .7639758 .8090643
.8945131 .7646836 .8039008
.9999999 .7608325 .7991972
0 .8926002 .8052545
0 .8924068 .8049009
0 .8918024 .8041428
.1616783 .8906357 .802815
.4355699 .8883991 .8011785
.6140261 .8852657 .7979242
.7699447 .8809057 .7931303
.8961547 .878597 .7881276
.9982679 .8765289 .7897288
0 .9915088 .7870586
0 .9913543 .7863873
0 .9912371 .784668
0 .9904664 .7828179
.3968947 .9892076 .7810637
.5860314 .9875956 .7782235
.7465693 .9846806 .7751417
.8820532 .9842452 .7728367
.9977775 .982588 .7669482
0 0 .9294943
0 0 .9296499
.2349111 0 .9298777
.3883156 0 .9302756
.531764 0 .930854
.6663985 0 .9311298
.7927189 0 .9313427
.9040281 0 .9307255
.9999999 0 .9286903
0 0 .9302668
0 0 .9302471
.2140815 0 .9301624
.3813465 0 .9303419
.5280604 0 .9309675
.6648356 0 .9313052
.7916597 0 .9317814
.9041897 0 .931085
.9999999 0 .9287323
0 .1651152 .9303892
0 .1601762 .9303955
.1801185 .1488612 .930446
.3663434 .1316166 .9307647
.5200186 .1049761 .9314126
.6610276 .06556416 .9319525
.7890049 0 .9323142
.904121 0 .9320234
.9999999 0 .9291123
0 .3404345 .9303855
0 .3379138 .9304306
.1025113 .3328249 .9305888
.3437838 .324831 .9311243
.5112491 .3164888 .9317167
.6556751 .3057031 .9324682
.7866511 .2941644 .9325612
.9058381 .2782786 .9321427
.9999999 .2630768 .9297728
0 .4893667 .9307123
0 .4876696 .930749
0 .4840407 .9309787
.311638 .4796084 .9313421
.4941862 .4751541 .9311938
.6466878 .4732308 .9314304
.7819658 .4684606 .9323357
.9042312 .4594998 .9309111
.9999999 .4536639 .9283613
0 .6304287 .9294195
0 .6293632 .9294776
0 .6270907 .9295084
.2802485 .6252349 .9288914
.4782228 .6225458 .9290779
.6351224 .6215895 .9292465
.7753543 .6202078 .9294194
.8979111 .6170787 .9281844
.9999999 .6117522 .9258354
0 .7615227 .9286044
0 .760929 .9285762
0 .7601179 .9284899
.2204073 .758665 .9283159
.4601085 .7567022 .9276627
.6287795 .7554557 .9260591
.7697468 .7535712 .9255396
.8973522 .7525566 .9248138
.9999999 .7520031 .922258
0 .8839138 .9252514
0 .8838542 .9252654
0 .883578 .9253559
.1422316 .8822393 .9256061
.4323477 .8805372 .9243052
.612824 .8788233 .9221343
.7633856 .8778656 .920209
.892085 .8764934 .9194298
.9974979 .8750511 .9175935
0 .9898759 .9170508
0 .9898111 .9169435
0 .9895723 .9168404
0 .9888443 .9169147
.4076906 .9877047 .9167988
.5969208 .9859315 .9151719
.751359 .9834041 .9131027
.8837962 .9829795 .9114143
.997429 .9809553 .9091024
0 0 .9999999
0 0 .9999999
.2129534 0 .9999999
.3778046 0 .9999999
.5269075 0 .9999999
.6608947 0 .9999999
.7866794 0 .9999999
.903003 0 .9999999
.9999999 0 .9999999
0 0 .9999999
0 0 .9999999
.1950037 0 .9999999
.3735367 0 .9999999
.5234148 0 .9999999
.6598192 0 .9999999
.7858999 0 .9999999
.9031035 0 .9999999
.9999999 0 .9999999
0 .1494738 .9999999
0 .1440904 .9999999
.1548411 .1289504 .9999999
.3586162 .1059104 .9999999
.5148249 .07004846 .9999999
.6558516 .00503024 .9999999
.7831134 0 .9999999
.9033903 0 .9999999
.9999999 0 .9999999
0 .3342975 .9999999
0 .3318998 .9999999
.00780026 .325983 .9999999
.3299677 .3154151 .9999999
.5013137 .3044016 .9999999
.6483101 .292519 .9999999
.7792604 .2772854 .9999999
.9002379 .2581765 .9999999
.9999999 .2484181 .9999999
0 .4822981 .9999999
0 .4802698 .9999999
0 .4766192 .9999999
.2944073 .4700461 .9999999
.4807967 .4665679 .9999999
.6364792 .4629584 .9999999
.7748002 .4577287 .9999999
.8961995 .4478177 .9999999
.9999999 .4414256 .9999999
0 .620578 .9999999
0 .6199328 .9999999
0 .6181117 .9999999
.2678904 .6160748 .9999999
.4669185 .6139778 .9999999
.6256405 .6131295 .9999999
.7672794 .6106479 .9999999
.893856 .6073674 .9999999
.9999999 .6023708 .9999999
0 .7513907 .9999999
0 .7509152 .9999999
0 .7501061 .9999999
.1952035 .7495664 .9999999
.4470959 .748787 .9999999
.619622 .7471021 .9999999
.7610776 .7459803 .9999999
.8914425 .7436385 .9999999
.9999999 .7425879 .9999999
0 .8724658 .9999999
0 .87275 .9999999
0 .8725452 .9999999
.1225458 .8725999 .9999999
.4210769 .8726494 .9999999
.599669 .872189 .9999999
.7507613 .8712872 .9999999
.884041 .8700488 .9999999
.9999999 .8683174 .9999999
0 .9850835 .9999999
0 .9849765 .9999999
0 .9845466 .9999999
0 .9837032 .9999999
.3876155 .9828609 .9999999
.5892944 .9826036 .9999999
.7431014 .9826836 .9997353
.8773636 .9833773 .9993312
.9956744 .9821795 .9993798
