luts/Timeless_9.cube
# 3D LUT of size 33x33x33 converted by Filestar.
#   Input:
#     color space: sRGB
#     white point: default (D65)
#     transfer function: default (sRGB)
#   Output:
#     color space: sRGB
#     white point: default (D65)
#     transfer function: default (sRGB)
#   Exposure: +0.9
#   Contrast: +23
#   Whites: +8
#   Blacks: -20
#   Vibrance: +5
LUT_3D_SIZE 5
0 .00158175 .00933342
.3564042 0 0
.6601495 0 0
.8736749 0 0
.9999999 0 0
0 .3638082 0
.3663106 .363841 0
.6632597 .3670945 0
.875333 .3663045 0
.9999999 .3648794 0
0 .6670132 0
.3669302 .6677088 0
.6667184 .6672015 0
.8758317 .6673691 0
.9999999 .6671641 0
0 .877096 0
.3606369 .877037 0
.6667903 .877291 0
.8772947 .8762773 0
.9999999 .8755687 0
0 .9999999 0
.3563894 .9999999 0
.6670802 .9999999 0
.8752009 .9999999 0
.9999999 .9999999 0
0 0 .3636548
.3614495 0 .3666723
.663368 0 .3669409
.8754997 0 .366341
.9999999 0 .3646988
0 .3657164 .3676625
.3651982 .3643392 .3673362
.6649916 .3655336 .3660031
.8764101 .3612177 .3646115
.9999999 .3593399 .3622041
0 .6675895 .3592867
.3550884 .6685718 .3586938
.6670142 .6681558 .3575958
.8782747 .6666709 .3543956
.9999999 .6657568 .3594534
0 .8774203 .351585
.347811 .8775131 .3514491
.6648274 .877642 .3513588
.8788072 .8763748 .3512473
.9999999 .8753272 .3496028
0 .9999999 .3510665
.3473839 .9999999 .3497674
.6635386 .9999999 .3496017
.8741111 .9999999 .3447213
.9999999 .9999999 .3443835
0 0 .6662087
.3657286 0 .6671739
.6654156 0 .6676753
.8765305 0 .6674762
.9999999 0 .6680459
0 .3617879 .6676753
.3595021 .3597711 .6676733
.6664436 .3581809 .6685932
.878092 .355914 .667237
.9999999 .3524035 .6667045
0 .6670391 .6680263
.3511576 .6678501 .6675773
.6670861 .6663373 .6670851
.8763009 .6657393 .6666828
.9999999 .6645315 .6664411
0 .8779589 .6640578
.3401877 .8776617 .6634541
.6641322 .8764297 .6627141
.87694 .8762571 .6625821
.9999999 .8749302 .6616561
0 .9999999 .6622521
.33911 .9999999 .661099
.6621297 .9999999 .6606478
.8726916 .9999999 .6628931
.9999999 .9999999 .6603618
0 0 .8769766
.3582032 0 .8773845
.6653646 0 .8776552
.8766425 0 .8775772
.9999999 0 .8772246
0 .3576584 .8771119
.3497123 .3558116 .8775748
.6624075 .3532168 .8780615
.8774061 .3478324 .8783606
.9999999 .3455588 .8781388
0 .663519 .8780118
.3407052 .6631977 .8778609
.6631076 .6617335 .8778471
.8774463 .6613514 .878009
.9999999 .6619545 .876953
0 .8765543 .8773313
.3445707 .8762889 .8770773
.6624824 .8761553 .8769185
.8751715 .8758519 .8775054
.9999999 .8753951 .8771141
0 .9999999 .8760308
.3405611 .9999999 .8762273
.6647369 .9999999 .8749427
.8753086 .9999999 .8759674
.9999999 .9999999 .8752938
0 0 .9999999
.3575493 0 .9999999
.6622636 0 .9999999
.8748993 0 .9999999
.9999999 0 .9999999
0 .3566927 .9999999
.3488792 .355664 .9999999
.6617383 .3531153 .9999999
.8745626 .3508165 .9999999
.9999999 .3483399 .9999999
0 .6606488 .9999999
.3404543 .6608982 .9999999
.6593257 .659204 .9999999
.8739599 .6607904 .9999999
.9999999 .6598024 .9999999
0 .872774 .9999999
.3449779 .8727462 .9999999
.6618111 .8724375 .9999999
.8727928 .8730848 .9999999
.9999999 .8743668 .9999999
0 .9999999 .9999999
.3453332 .9999999 .9999999
.6617694 .9999999 .9999999
.8793634 .9999999 .9999999
.9999999 .99831 .9999999
