luts/Timeless_4.cube
# 3D LUT of size 33x33x33 converted by Filestar.
#   Input:
#     color space: sRGB
#     white point: default (D65)
#     transfer function: default (sRGB)
#   Output:
#     color space: sRGB
#     white point: default (D65)
#     transfer function: default (sRGB)
#   Exposure: -0.01
#   Contrast: +17
#   Whites: +19
#   Blacks: -11
#   Vibrance: +34
LUT_3D_SIZE 9
.01322894 .01887361 .03300441
.1123774 0 .02141059
.2283543 0 .02148964
.3603945 0 0
.492436 0 0
.6210732 0 0
.7500997 0 0
.8796065 0 0
.9999999 0 0
0 .1269166 .00469753
.1171217 .1274384 .00177764
.2360224 .126865 .00480985
.3649243 .1223157 0
.4942191 .1116639 0
.6219719 .1060538 0
.7508508 .08527911 0
.8803494 .04695753 0
.9999999 0 0
0 .2670125 0
.1129328 .2671155 0
.2456637 .2661959 0
.3679256 .2665249 0
.4961746 .2625706 0
.6232509 .2582144 0
.7520189 .2507339 0
.8813687 .2388451 0
.9999999 .227156 0
0 .4085024 0
.05058184 .4084962 0
.2302602 .4086731 0
.3682764 .4088566 0
.4975789 .4076508 0
.6256553 .4038611 0
.7533099 .4001635 0
.881062 .3936794 0
.9999999 .3859679 0
0 .5494979 0
0 .5496443 0
.2069819 .5498396 0
.3628869 .5490836 0
.4951355 .5494072 0
.6282335 .5477607 0
.7566162 .5431175 0
.8825994 .539239 0
.9999999 .5348556 0
0 .6890833 0
0 .689128 0
.1776227 .6893661 0
.3425098 .6896357 0
.488508 .6892661 0
.6242756 .6868438 0
.7556623 .684683 0
.8829483 .6815903 0
.9999999 .6785371 0
0 .8273341 0
0 .8273758 0
.1094266 .8274902 0
.3163866 .8277271 0
.4679165 .8280855 0
.6128384 .8271459 0
.7505057 .8249021 0
.8793553 .8227008 0
.9999999 .8188513 0
0 .9629433 0
0 .9629144 0
0 .9629101 0
.2916175 .9629247 0
.4529473 .963109 0
.5976396 .9627967 0
.7368852 .9610023 0
.8727047 .9586032 0
.9999999 .955497 0
0 .9999999 0
0 .9999999 0
0 .9999999 0
.2774725 .9999999 0
.4392444 .9999999 0
.5846687 .9999999 0
.7289405 .9999999 0
.8645262 .9999999 0
.9854619 .9999999 0
0 .02651846 .11925
.114592 .00552493 .11373
.2348551 0 .1143926
.3655629 0 .1055721
.4943001 0 .09355009
.6218764 0 .0814405
.7513877 0 .0608237
.8805885 0 .0334383
.9999999 0 0
0 .1272636 .1163972
.1106609 .1276711 .1132492
.2353933 .1234116 .1119855
.3655072 .1149307 .1055378
.4951307 .1022624 .08715498
.6226462 .09028701 .07137392
.7520092 .06740464 .05030586
.881258 .02120478 .02066331
.9999999 0 0
0 .2670846 .09072449
.09869488 .2678851 .08674835
.2454287 .2674754 .08304515
.3721405 .2653436 .07725211
.4959393 .2598062 .08096183
.6237799 .2546958 .05495878
.7529333 .2465299 .02798098
.8822681 .2349751 0
.9999999 .2227916 0
0 .4091192 .0152659
.00353927 .4091933 .01139459
.2225337 .4092236 .01216772
.3691743 .4101657 .01657226
.5006517 .4071668 .01484646
.627757 .4014032 .02079268
.7535189 .3986713 .0268483
.8819577 .3913893 0
.9999999 .3833869 0
0 .550715 0
0 .5509647 0
.1959144 .5511379 0
.3591789 .5504972 0
.4943342 .5505278 0
.6295828 .5477951 0
.758603 .5427878 0
.8835954 .5378877 0
.9999999 .5331141 0
0 .6899565 0
0 .6900197 0
.1631944 .6901661 0
.3368422 .6904851 0
.4866312 .6903141 0
.6231314 .6878282 0
.7564168 .6851149 0
.8844653 .6815102 0
.9999999 .6777127 0
0 .8279604 0
0 .8280172 0
.08419163 .8281626 0
.3091495 .8284082 0
.4649204 .8285541 0
.6120082 .8277852 0
.7507674 .8253556 0
.8801723 .8231246 0
.9999999 .8188592 0
0 .9633684 0
0 .963365 0
0 .9633561 0
.2855116 .9633642 0
.4500602 .9633049 0
.5959305 .9629335 0
.7360899 .9614895 0
.8729396 .9589223 0
.9999999 .9555556 0
0 .9999999 0
0 .9999999 0
0 .9999999 0
.2718507 .9999999 0
.4362704 .9999999 0
.5827851 .9999999 0
.7269189 .9999999 0
.8637364 .9999999 0
.985577 .9999999 0
0 .00036085 .2375319
.1089006 0 .2397948
.2358647 0 .2422005
.3684493 0 .238976
.4986054 0 .2318935
.6251058 0 .2281415
.7530584 0 .2223586
.8818822 0 .2110201
.9999999 0 .1965991
0 .115195 .2438389
.08332206 .11314 .2443676
.2397268 .1070978 .2443651
.369383 .09718496 .2374688
.4973912 .08379834 .2310799
.6241403 .07196855 .2264432
.753415 .03700339 .2180794
.8826315 0 .2077463
.9999999 0 .1949291
0 .2665141 .2422838
.06937324 .2661689 .2410717
.2318859 .2627509 .2338841
.3662042 .2601085 .2360763
.4958056 .2552668 .2300233
.6256006 .2480941 .2203051
.7545751 .2399493 .2114197
.8838484 .2266661 .2019247
.9999999 .2106628 .1897524
0 .4093322 .2134844
0 .4095504 .2103247
.2025332 .4098822 .2038008
.368461 .4104033 .1978797
.5042462 .4048206 .1958703
.6283208 .3992688 .2105038
.7558292 .3950254 .2044357
.8842437 .3861394 .1906832
.9999999 .3766413 .1780119
0 .5519561 .1746458
0 .5521903 .1713825
.1735339 .5521365 .167773
.3509066 .5517356 .1715335
.4939185 .5517437 .1751523
.6342036 .5471453 .1717128
.7623457 .5407301 .1651284
.883967 .5364099 .1805396
.9999999 .5302321 .1712897
0 .6915119 .1193683
0 .6916055 .1162765
.1259432 .6917698 .1126343
.3243116 .6915871 .1152781
.481326 .6912478 .120357
.6219892 .6897061 .1215491
.7582219 .6861885 .1296398
.8885717 .6809745 .1016718
.9999999 .6747732 .1196062
0 .8293929 0
0 .8295178 0
0 .8295942 0
.291912 .8296226 0
.4589868 .8291374 0
.6095397 .8289487 0
.7500176 .8269262 .00724243
.8811983 .8240719 .05490271
.9999999 .8184764 .02924896
0 .9641833 0
0 .9642492 0
0 .9643114 0
.2658309 .9641098 0
.4434379 .9634843 0
.5915332 .9632494 0
.733582 .9622707 0
.8720572 .9599624 0
.9999999 .9563364 0
0 .9999999 0
0 .9999999 0
0 .9999999 0
.2505288 .9999999 0
.4285876 .9999999 0
.5778313 .9999999 0
.7231785 .9999999 0
.8604627 .9999999 0
.9856794 .9999999 0
0 0 .367766
.0904789 0 .3685495
.2299505 0 .36948
.3681506 0 .3700513
.5001152 0 .3683738
.6286576 0 .3609052
.7588702 0 .3560677
.8857073 0 .347965
.9999999 0 .3377978
0 .1006223 .370692
.03726316 .0931683 .371247
.2238792 .07677212 .3717315
.3706625 .05484721 .3727654
.5021771 .04299606 .3671161
.6303684 .00797573 .3587433
.7585771 0 .3547082
.8852839 0 .3469635
.9999999 0 .3372302
0 .2533112 .3727085
0 .2511196 .3728742
.208879 .2444778 .3725977
.3680811 .2405757 .3724753
.4998608 .2451355 .3611854
.6280766 .2388688 .35585
.7565915 .2291345 .3527155
.8844846 .2172632 .3457313
.9999999 .195088 .3352579
0 .410133 .368311
0 .4103071 .3670996
.1781524 .4099559 .3635145
.3529066 .4060526 .3552535
.4956647 .4001196 .3581897
.6248689 .3977816 .3566456
.7560173 .3906484 .350524
.8851976 .380102 .3412572
.9999999 .368636 .3316318
0 .5538142 .3398193
0 .5534902 .3379472
.1048105 .5526338 .3328163
.3282274 .5522357 .3288836
.4908156 .5520718 .3271044
.6358662 .5462465 .3239855
.7598044 .5395161 .3375404
.8835781 .5350656 .3387496
.9999999 .52627 .3282374
0 .6923832 .3089729
0 .692378 .3075052
0 .6925581 .3033167
.303793 .6926618 .3008115
.4730869 .6924074 .3000818
.6205542 .6911081 .301325
.7617711 .6865154 .2956011
.8917862 .6791444 .2892616
.9999999 .6720163 .3044249
0 .8302993 .270373
0 .8303328 .2689739
0 .8304645 .2653818
.2490412 .8308752 .2593649
.4418046 .830515 .260012
.6040815 .8294466 .2636795
.7490622 .8275225 .2648755
.8839856 .8244821 .2680376
.9999999 .8164024 .2543363
0 .9646855 .2286125
0 .9646465 .2283373
0 .9647242 .225624
.21771 .9648035 .2205577
.4217385 .9643832 .2191377
.5817091 .9636727 .2231052
.7287682 .963163 .2229419
.8699636 .9611983 .2244883
.9999999 .9569792 .2209984
0 .9999999 .2135961
0 .9999999 .2127882
0 .9999999 .2107013
.2077814 .9999999 .2069068
.4091528 .9999999 .2073716
.567287 .9999999 .2114748
.7163261 .9999999 .2066122
.8558478 .9999999 .1996183
.9861255 .9999999 .2132304
0 0 .4949181
.06564564 0 .4953825
.2208367 0 .49707
.3623932 0 .4992735
.4995158 0 .5005614
.6315864 0 .5006441
.7599947 0 .494272
.8875911 0 .4853193
.9999999 0 .4762622
0 .09031313 .4970971
0 .08094563 .4976074
.2128817 .0525739 .4990904
.36002 .01922231 .5012692
.5010377 0 .5030127
.6336262 0 .500335
.7620298 0 .4927116
.8884702 0 .4838982
.9999999 0 .4756748
0 .2388155 .5006419
0 .2353593 .5008672
.1833214 .2281366 .5013192
.3510604 .2195776 .5033228
.5008417 .2151887 .5040344
.6365598 .2175607 .49692
.7624308 .211435 .4893176
.8874745 .1995341 .482327
.9999999 .1769193 .473567
0 .3944919 .502977
0 .3936407 .5028499
.1279866 .3916075 .5021972
.3297486 .3849634 .5003253
.4967952 .3809547 .4999515
.6306347 .3865328 .4893221
.7574313 .3829065 .4853078
.8835153 .3771444 .4791826
.9999999 .3646716 .4717908
0 .5539994 .4963305
0 .5541425 .4954769
.07135508 .5537047 .4930537
.3071785 .55239 .4887973
.4786043 .5471204 .4807495
.6262943 .5417593 .4821985
.7528769 .5380973 .4851646
.8818602 .5315936 .4794887
.9999999 .5210694 .4714774
0 .6949201 .4713272
0 .6947994 .4699906
0 .6941179 .4662043
.2638253 .6927826 .4592583
.4525431 .6920847 .4552773
.618251 .6914958 .4534718
.7638727 .6856081 .4476973
.8896252 .6773806 .4566149
.9999999 .6727602 .4680725
0 .8309053 .4372506
0 .8309432 .4363009
0 .8308269 .4337376
.2052444 .8306379 .4298488
.4188327 .830282 .4282379
.5928136 .8297098 .4280509
.7471941 .8284556 .4246692
.8850979 .8245255 .4234355
.9999999 .8129048 .4107685
0 .965159 .4026865
0 .9651539 .4025792
0 .9651729 .4029858
.1656952 .9648405 .4035647
.3970098 .9643515 .40184
.5699241 .9636436 .401601
.7231247 .9639624 .4008124
.8691429 .9618407 .3985417
.9999999 .956174 .3913348
0 .9999999 .3902235
0 .9999999 .3912235
0 .9999999 .3937963
.1555621 .9999999 .3936451
.3847046 .9999999 .3926386
.5529631 .9999999 .3923327
.708964 .9999999 .3903719
.8535894 .9999999 .3887437
.9849289 .9999999 .3903563
0 0 .6226206
.04455299 0 .6231835
.2177476 0 .6247593
.3548569 0 .6264694
.4933346 0 .6280944
.6297745 0 .6292882
.7611074 0 .6287
.8897219 0 .6231869
.9999999 0 .6134106
0 .04354601 .6244279
0 .02859275 .6248125
.2012409 0 .6258368
.3524591 0 .6274942
.4918147 0 .6294423
.6311124 0 .6310499
.7637714 0 .629216
.8908286 0 .6219358
.9999999 0 .6119649
0 .2181566 .6270337
0 .2156572 .6273635
.1716525 .2070153 .6285987
.34189 .1953881 .630226
.4857795 .1873523 .6321263
.6329355 .1848505 .6333641
.767921 .180104 .6285627
.892327 .1668805 .6188821
.9999999 .140536 .6092925
0 .3795369 .6307944
0 .3779898 .6309504
.08216739 .37262 .6311215
.3130685 .3627107 .6309595
.4763265 .3581139 .6326581
.6323484 .3576106 .6324252
.7686254 .3615341 .6238664
.8904746 .3596622 .6143101
.9999999 .3512204 .6066846
0 .5396522 .6318196
0 .5392876 .6316634
0 .5382194 .6312289
.2740961 .5353361 .6303847
.4597487 .5282509 .6274786
.6264598 .5251701 .6267589
.7576002 .5297194 .6181578
.8826179 .5271197 .6133426
.9999999 .5179946 .6066253
0 .6948038 .6242068
0 .6947761 .6237041
0 .694209 .6221723
.253574 .694138 .6192432
.439881 .6920283 .61423
.6058834 .6858147 .6066424
.7552139 .6802055 .6058865
.8791301 .6767033 .6123376
.9999999 .6722007 .6077006
0 .8333651 .5958341
0 .8331788 .5949027
0 .8326555 .5925759
.162888 .8312836 .5890037
.4020926 .8292432 .584996
.5794217 .8281054 .5832464
.7429269 .8272002 .5838678
.8878451 .8232407 .5778012
.9999999 .8126593 .5805206
0 .9655141 .5686085
0 .9653441 .5674076
0 .9650901 .5634047
.02929748 .9650397 .5593377
.3774708 .9639751 .5599321
.5573968 .9630113 .5603467
.7163815 .9629017 .5600693
.8653511 .9616873 .5572776
.9999999 .9559466 .5521796
0 .9999999 .5534602
0 .9999999 .552549
0 .9999999 .5510967
.08183951 .9999999 .5513925
.3751087 .9999999 .554077
.5469331 .9999999 .5539815
.702948 .9999999 .553359
.8499494 .9999999 .5501179
.9838806 .9999999 .5492507
0 0 .7514538
0 0 .7519414
.2058505 0 .7527782
.3481245 0 .7536162
.4817419 0 .7548535
.6205212 0 .7560768
.7562218 0 .756918
.8865656 0 .7539444
.9999999 0 .7505816
0 0 .7522031
0 0 .7526581
.191976 0 .7534363
.3433948 0 .7546969
.4794378 0 .7558494
.6202651 0 .7572261
.7573858 0 .7576593
.8889143 0 .7543852
.9999999 0 .750029
0 .2029019 .7546831
0 .2001504 .7549984
.1460398 .1930656 .7557298
.3277375 .1813499 .7565278
.4725986 .1664069 .7575186
.6168749 .1482417 .7587625
.7598327 .1373516 .7591996
.8935441 .1139822 .7555714
.9999999 .08311879 .7479866
0 .3603684 .7565284
0 .3583011 .756737
.01803748 .3529666 .7571239
.2895367 .3453801 .7580236
.4566999 .3397834 .758967
.6115752 .3350559 .7602443
.7620544 .3282832 .7599545
.8964847 .3247876 .755726
.9999999 .3220776 .7441491
0 .5199693 .7582932
0 .5189568 .7583709
0 .5164121 .7582557
.2543052 .5110168 .757912
.4365138 .5045557 .7579555
.6029922 .5024688 .7596176
.7580605 .5012722 .7590923
.8942658 .5036007 .7508981
.9999999 .5043637 .7410458
0 .6809344 .7585454
0 .6804593 .7583752
0 .6794605 .7580952
.2061431 .6781927 .7576368
.4191178 .6749154 .7565985
.5910257 .6698136 .7534128
.7500606 .6687433 .7531474
.8805467 .6716641 .7455487
.9999999 .6692907 .7410911
0 .8333135 .7491893
0 .8332149 .7491401
0 .8329803 .7484612
.1592599 .8322132 .7471896
.3995301 .8307557 .7450041
.5715471 .827994 .7398896
.7349746 .8240893 .7364948
.8819234 .8190446 .7342089
.9999999 .8162107 .7417729
0 .9675335 .7233726
0 .9673213 .7227305
0 .9668183 .7210634
.00480865 .9658865 .7193835
.36383 .9642425 .7172688
.5472635 .9619461 .7141
.7128137 .9610513 .71364
.8632662 .9595283 .7139829
.9999999 .953811 .7075622
0 .9999999 .7086279
0 .9999999 .7081887
0 .9999999 .707058
.02721159 .9999999 .705422
.3684995 .9999999 .7036271
.5446876 .9999999 .703756
.705245 .9999999 .7042566
.8483968 .9999999 .7065071
.9815596 .9999999 .7064842
0 0 .8772734
0 0 .8775646
.183188 0 .87813
.3368805 0 .8788726
.476579 0 .8792724
.6104421 0 .8806216
.7467845 0 .8817372
.8812475 0 .8819648
.9999999 0 .8799503
0 0 .8774251
0 0 .8777158
.1708026 0 .8784059
.3312308 0 .8792092
.4726041 0 .8799204
.6090907 0 .8813576
.7465282 0 .8825632
.8818535 0 .8825032
.9999999 0 .8802659
0 .1832028 .8789546
0 .1796363 .8791973
.1281613 .1703965 .8798069
.3100706 .1558361 .8806893
.4584521 .1391391 .8811972
.6037791 .1112304 .8822698
.7445584 .07902954 .8836983
.882926 .07766191 .8838373
.9999999 0 .8812554
0 .3411468 .8811395
0 .3391051 .8813345
0 .3356308 .8815364
.2766568 .3297232 .8817638
.4423136 .3246345 .8819201
.5953084 .3156303 .8829126
.7415462 .3071276 .8846192
.8841174 .300203 .885347
.9999999 .2917708 .8825074
0 .4987574 .881334
0 .4973191 .8814112
0 .4948252 .881514
.2092411 .4904097 .8817459
.4166159 .4856386 .8822254
.5809299 .4824483 .8831178
.735728 .4792236 .8849164
.8825211 .476578 .8853599
.9999999 .4741305 .8803772
0 .6588963 .8828014
0 .6582288 .8829091
0 .6575066 .8828434
.1574642 .6552783 .8826424
.3934022 .6510173 .8824139
.5645423 .6477057 .8819849
.7279384 .6474785 .8827199
.8823255 .6469106 .882876
.9999999 .6488897 .8756784
0 .8175486 .882673
0 .8174345 .8826706
0 .8170788 .8826787
.1070432 .8163499 .882718
.3768454 .8160133 .8828044
.562799 .8132738 .8811893
.7214978 .8108874 .8785051
.8747868 .810189 .8765513
.9998767 .8127398 .8713703
0 .9671459 .8723576
0 .9670148 .8723349
0 .9667006 .8720379
0 .9661307 .8711835
.3677107 .965161 .8698709
.5493344 .9635332 .8672267
.7117769 .95925 .8642907
.8607106 .9562535 .8642209
.9981238 .9508104 .8614949
0 .9999999 .8575292
0 .9999999 .8574446
0 .9999999 .8574559
.0524929 .9999999 .8573543
.3762819 .9999999 .8560697
.5551507 .9999999 .8546285
.7131859 .9999999 .8529099
.8554975 .9999999 .8566484
.9846488 .9999999 .8587398
0 0 .9993342
0 0 .9994009
.1747791 0 .9994956
.3293152 0 .9999999
.4678489 0 .9999999
.6016769 0 .9999999
.7332478 0 .9999999
.8712552 0 .9999999
.9999999 0 .9999999
0 0 .99926
0 0 .9992953
.1547569 0 .9994683
.3222107 0 .9999999
.4643845 0 .9999999
.5999776 0 .9999999
.7321545 0 .9999999
.8707938 0 .9999999
.9999999 0 .9999999
0 .1630958 .9993396
0 .1600609 .9994354
.1030283 .1525065 .9998634
.2998028 .1373385 .9999999
.4508629 .1174534 .9999999
.5934507 .07540908 .9999999
.7294994 .02220526 .9999999
.8685008 0 .9999999
.9999999 0 .9999999
0 .3254221 .9999999
0 .3236665 .9999999
0 .3191433 .9999999
.2549745 .3118629 .9999999
.4284412 .3044992 .9999999
.5824283 .2974055 .9999999
.723757 .2893638 .9999999
.8646392 .2761032 .9999999
.9999999 .2637783 .9999999
0 .4796103 .9999999
0 .477887 .9999999
0 .4740576 .9999999
.1658821 .4701399 .9999999
.3922556 .4664627 .9999999
.5641528 .4655822 .9999999
.718259 .4622878 .9999999
.8609885 .4596579 .9999999
.9999999 .4554128 .9999999
0 .6381214 .9999999
0 .6373999 .9999999
0 .635617 .9999999
.1111847 .6323045 .9999999
.3724696 .6273728 .9999999
.5433627 .625123 .9999999
.7049596 .6277204 .9999999
.8572724 .6275168 .9999999
.9999999 .626536 .9999999
0 .7957413 .9999999
0 .7955092 .9999999
0 .7949379 .9999999
.04756924 .7938628 .9999999
.3680831 .7910607 .9998117
.5485272 .7893403 .9985446
.7034497 .7896881 .9974133
.8507015 .7922084 .9979441
.9979694 .7925284 .9991114
0 .9490185 .9995154
0 .9488668 .9994139
0 .9484803 .9991556
.02985262 .9480936 .9987935
.3676403 .9477273 .9982042
.5530515 .9471955 .9970099
.7115933 .9461377 .9953308
.858937 .9475806 .9930008
.9906033 .9509113 .9919414
0 .9999999 .9918683
0 .9999999 .9918273
0 .9999999 .9917621
0 .9999999 .9916384
.374265 .9999999 .9911879
.5602916 .9999999 .9902152
.7216046 .9999999 .9880965
.8710995 .9999999 .9878629
.9919857 .9999999 .9905725
