luts/Timeless 37.cube
# 3D LUT of size 33x33x33 converted by Filestar.
#   Input:
#     color space: sRGB
#     white point: default (D65)
#     transfer function: default (sRGB)
#   Output:
#     color space: sRGB
#     white point: default (D65)
#     transfer function: default (sRGB)
#   Exposure: -0.01
#   Contrast: -29
#   Whites: -29
#   Blacks: -16
#   Vibrance: +50
LUT_3D_SIZE 5
.00388102 .03519235 0
.2147482 0 .01279413
.4613789 0 0
.7024237 0 0
.9426105 0 0
0 .2543623 0
.2266479 .2570049 0
.4679671 .2471838 0
.7030339 .2425141 0
.9429986 .2198821 0
0 .5365278 0
.1626309 .5352913 0
.4586527 .5306506 0
.7030892 .5231729 0
.941258 .5113878 0
0 .8010798 0
0 .8010156 0
.4070455 .799771 0
.6876687 .7958076 0
.9361023 .7905117 0
0 .9874319 0
0 .9873918 0
.3411025 .9874979 0
.6637883 .9872025 0
.9363689 .9862913 0
0 .01139023 .2180545
.2249053 0 .2105222
.472005 0 .211147
.7095984 0 .188429
.9467326 0 .1411141
0 .2609604 .2173259
.2076964 .2556179 .2045795
.472315 .2416151 .1992511
.709087 .2222734 .1725987
.9474676 .1830386 .1170397
0 .5391743 .1041456
.07667283 .5382415 .08051256
.4530435 .534685 .08921779
.7109866 .5216534 .06644399
.9440191 .5055442 .04356261
0 .8033004 0
0 .8033264 0
.3889712 .8020408 0
.6855513 .7976236 0
.9403618 .7902965 0
0 .9892177 0
0 .9891738 0
.3023697 .9894064 0
.6547991 .989504 0
.9375349 .9875736 0
0 0 .4656524
.2114941 0 .4672431
.4719957 0 .4701547
.7141917 0 .4575274
.9537683 0 .4292624
0 .2179588 .4731573
.1053151 .2038115 .4730855
.4715397 .1825022 .472173
.7137131 .1778719 .450229
.9540001 .08710887 .4202952
0 .5398208 .4535927
0 .5379756 .4471406
.4214572 .5290108 .4281064
.7031398 .5109175 .4325019
.9501981 .4850718 .3998371
0 .8078278 .3367268
0 .8073857 .327662
.3114378 .8061488 .3063363
.6739018 .8029544 .3048156
.9540401 .7862573 .2900797
0 .993812 .1829608
0 .9943498 .17216
.1431465 .9956521 .139135
.6264162 .9940621 .1432145
.933567 .992162 .1832526
0 0 .7028772
.1922418 0 .7037522
.4476607 0 .7054924
.7063318 0 .7051229
.9519941 0 .6943129
0 .1671277 .7054982
0 .1467814 .7062247
.4256128 .06855604 .7079588
.7067943 .01264788 .7086062
.9589109 0 .6905294
0 .4881769 .706821
0 .4820619 .7069715
.3407474 .4660938 .7065754
.701836 .4539346 .7041804
.9585341 .4495612 .6753995
0 .809541 .6779038
0 .8091742 .6752828
.1852506 .8072029 .6652341
.6434001 .7978534 .6447799
.94817 .779309 .6452314
0 .9983172 .606343
0 .9982715 .6016229
0 .9978947 .5862569
.5724674 .9966322 .5717034
.9309583 .9960844 .5804577
0 0 .9389378
.1463478 0 .9392771
.4225859 0 .9404224
.6808961 0 .941588
.9404413 0 .9398122
0 .02838041 .9412825
0 0 .9418814
.3812501 0 .943777
.6699567 0 .9439256
.9420994 0 .9427829
0 .4275093 .9434987
0 .4175649 .9440421
.2417425 .3879174 .945674
.6345987 .3586725 .9475854
.9462168 .3464405 .9480879
0 .7656997 .9436668
0 .76361 .944109
0 .7558715 .9442788
.5897667 .7457628 .9424522
.9422656 .7408171 .9453362
0 .9968421 .9371055
0 .9966332 .9369489
0 .9981064 .9359862
.5611758 .9999116 .9335026
.929991 .9989247 .9350252
