luts/Timeless_5.cube
# 3D LUT of size 33x33x33 converted by Filestar.
#   Input:
#     color space: sRGB
#     white point: default (D65)
#     transfer function: default (sRGB)
#   Output:
#     color space: sRGB
#     white point: default (D65)
#     transfer function: default (sRGB)
#   Exposure: -0.01
#   Contrast: -20
#   Whites: -20
#   Blacks: -11
#   Vibrance: +34
LUT_3D_SIZE 5
.0258329 .01629493 .01645713
.2258927 0 .00679277
.4781196 0 0
.7187158 0 0
.9619653 0 0
0 .259549 0
.2394242 .2570299 0
.4785267 .251196 0
.7183104 .2401178 0
.9617258 .218506 0
0 .5234131 0
.1982899 .523338 0
.472152 .5210541 0
.7185459 .5144378 0
.9588992 .5057663 0
0 .7853788 0
.08584916 .7852496 0
.4415375 .7845228 0
.7083443 .7813297 0
.9562055 .776802 0
0 .9923003 0
0 .9921799 0
.4002466 .992014 0
.6942656 .9912043 0
.9588886 .9910881 0
0 0 .2293054
.2353827 0 .2336098
.48304 0 .2232423
.7201773 0 .210321
.9637986 0 .1832159
0 .2585549 .2330321
.2254218 .2544229 .2248959
.4766185 .2460859 .2219291
.7199867 .2297986 .2022062
.9638725 .2038331 .1722327
0 .5250996 .1672713
.1648849 .5254849 .1587766
.471387 .5237066 .1674541
.7229715 .5119771 .1563024
.9613014 .5013049 .1441907
0 .7871965 0
0 .7870746 0
.4320332 .7858663 0
.706856 .7833364 0
.9602436 .7770251 0
0 .9939471 0
0 .9940512 0
.3840096 .9938874 0
.6865448 .9933067 0
.9596786 .9921358 0
0 0 .4767596
.2205637 0 .4778676
.4793827 0 .4783182
.7240096 0 .4688146
.9682427 0 .4507689
0 .2291856 .4799451
.184817 .2181332 .4798917
.4805372 .2084179 .4793599
.7241368 .2059327 .4631066
.9672609 .1599415 .447004
0 .5253252 .4696155
.09584392 .524624 .4661222
.4558437 .5176374 .45399
.7143863 .506688 .4569539
.9651808 .4884999 .4359142
0 .789249 .405119
0 .7891351 .4007688
.3868831 .7881744 .3919413
.7040836 .7860165 .3876998
.9709476 .7718231 .3711481
0 .9965096 .3251123
0 .9965878 .3217176
.3095796 .9966658 .3122112
.6689113 .9957423 .3165785
.9597083 .9942556 .3218217
0 0 .717709
.2020717 0 .7182696
.4602349 0 .718651
.7194224 0 .7189159
.9677677 0 .7113738
0 .1907305 .7192504
.1426968 .1791359 .7198768
.4512463 .1522815 .7206808
.7217771 .1322735 .7205538
.9710401 .06003416 .70915
0 .4900431 .7197877
0 .4864768 .719838
.4087659 .4732677 .7185057
.7187262 .4694346 .7183756
.9719375 .4643863 .6994576
0 .7894837 .7074097
0 .7894424 .706488
.3555262 .7878873 .7015575
.6904883 .7800503 .6912875
.9597414 .7708009 .6926838
0 .9981856 .6607999
0 .9982204 .6583962
.2203505 .9975812 .6499401
.6471313 .9974731 .6470125
.960161 .9975401 .6487799
0 0 .9591612
.1493401 0 .959538
.4375026 0 .9606996
.7004966 0 .9606988
.9602255 0 .9599788
0 .1243889 .9595831
.05960198 .1020952 .9601426
.4223213 .0130637 .9609098
.6949493 0 .961983
.9615166 0 .9616547
0 .447566 .9614251
0 .4409071 .9619914
.350914 .4240851 .96259
.6770509 .4084455 .9643282
.9648841 .4025115 .9652912
0 .7548185 .9628255
0 .7537603 .9628478
.2516272 .7497122 .9626085
.647073 .7422637 .962532
.9638827 .7409607 .9632029
0 .9982135 .9600477
0 .9982488 .9602396
.212592 .998543 .9611984
.6462066 .9985659 .9618377
.9631459 .9974279 .9620681
