luts/Timeless_31.cube
# 3D LUT of size 33x33x33 converted by Filestar.
#   Input:
#     color space: sRGB
#     white point: default (D65)
#     transfer function: default (sRGB)
#   Output:
#     color space: sRGB
#     white point: default (D65)
#     transfer function: default (sRGB)
#   Exposure: +0.25
#   Contrast: -61
#   Whites: -57
#   Blacks: +30
#   Vibrance: -10
#   Saturation: -11
LUT_3D_SIZE 9
.04183792 .04042311 .00616885
.1691556 .00890573 .01632191
.3032412 .02586052 .01460997
.4301843 .05918597 .03387143
.5496933 .1003856 .09066258
.6624678 .1345588 .122626
.7695584 .1633302 .1600187
.8645384 .1889731 .1831366
.9526291 .2181037 .2139945
.08028949 .1514786 .02083232
.177412 .1525756 .03833954
.2985935 .1619071 .04680283
.4259374 .1721247 .06675427
.5455276 .1873903 .1100166
.6586412 .2080519 .138685
.7665384 .2244813 .1708553
.8610615 .2444428 .191302
.9507163 .2616215 .2219283
.1052782 .2860627 .07612509
.1862162 .2866157 .08048183
.2992255 .2898875 .08451351
.4243546 .2934288 .09765414
.5414444 .2968667 .1290956
.6529725 .3138587 .1585252
.7603137 .3237624 .1836109
.8553101 .3353466 .2078406
.9468938 .3460079 .2361844
.1543282 .4179778 .1260121
.2146419 .4179243 .1280377
.3093054 .4194117 .134561
.4179832 .4197459 .1470566
.5368001 .4190418 .1531754
.6508857 .4224143 .1761491
.7536721 .4309945 .1990416
.8512623 .4388004 .2229817
.939506 .4501227 .2498688
.1828 .5365676 .1887349
.2327908 .5361111 .1894332
.322308 .5346321 .1900712
.4271975 .53348 .1906131
.5383384 .5342645 .1900713
.6453201 .536259 .1984485
.7472395 .5397159 .2154829
.8450565 .5467091 .2389827
.9316022 .5551003 .2647827
.2339883 .6444631 .2297241
.2709841 .643998 .2289621
.3446315 .6431652 .2259528
.4324862 .6435816 .2266117
.5348272 .6421182 .227426
.6436411 .64155 .2297296
.7468929 .6428695 .2404644
.8394634 .6498568 .2635945
.9270847 .6570995 .2885122
.271508 .747148 .2704742
.3041108 .7467802 .2712067
.3694148 .7462522 .2716572
.4520058 .7455873 .274043
.5500019 .7445841 .2758557
.6479875 .7443379 .2801264
.7443758 .7456138 .2803971
.8394604 .7492692 .2912739
.9244089 .7547073 .322129
.3308822 .8439182 .3199558
.3561204 .8435469 .3212142
.4119517 .8428831 .3237975
.4878763 .842288 .3287429
.5733228 .841915 .3309087
.6653917 .8417229 .3348723
.7569021 .8417811 .3415174
.8434684 .8448296 .3480283
.9300691 .8504617 .365431
.3871686 .9396414 .3878228
.408058 .9393511 .3887923
.4544942 .9389893 .390333
.5238818 .9388789 .392049
.6057768 .9385882 .3964801
.6914745 .9378759 .4034835
.7813014 .9390091 .4116984
.8687813 .9429665 .4258632
.9559187 .9520952 .4592496
.0486878 .03031755 .1520748
.1643822 .02667931 .15081
.2857228 .05737676 .1559488
.420521 .08101662 .1655925
.5402755 .1171849 .1830093
.65635 .1434321 .201317
.7643729 .1738062 .2219321
.8606309 .197406 .2372799
.9499648 .2242693 .261456
.07387573 .1563742 .1519157
.1683109 .1605232 .1563115
.287064 .1700693 .1663051
.4195156 .1790247 .1719306
.5378438 .1930555 .192394
.6530091 .2117884 .2081514
.7609327 .230634 .2295767
.8569202 .2497865 .2431495
.9484972 .2655254 .2672263
.1159337 .2854671 .1687014
.1909327 .286108 .172029
.2995788 .2876513 .178006
.4193663 .2923375 .1842728
.5346758 .2990406 .2037871
.6470928 .3144889 .2241602
.7547635 .3258939 .241892
.852383 .3364019 .2559944
.9444772 .3481619 .2797848
.1580188 .4160676 .2008178
.2167423 .4157358 .2018994
.3109559 .4159231 .2027482
.4140895 .417091 .211338
.5308894 .4170962 .2191391
.6459518 .4215115 .2338841
.7504922 .430429 .2485994
.848116 .4401174 .2701367
.9369237 .4526485 .2922468
.1882761 .5347023 .2377694
.235415 .5344445 .2377897
.3233464 .5334494 .2391908
.4266552 .5315251 .2414782
.5354249 .5322308 .2428781
.64211 .5352181 .2485795
.7445573 .5391257 .2629469
.8429698 .5467355 .2786708
.9298708 .5556515 .3027668
.2378963 .6427889 .2718093
.2739805 .6422781 .2718352
.3455735 .6413791 .2702823
.4363283 .641114 .2682504
.5339425 .6404919 .2701785
.6408918 .6404587 .2722502
.7445885 .6422246 .2796395
.8371711 .6498188 .2984425
.926028 .657586 .3202602
.2749864 .7459033 .3062627
.3063802 .7454981 .3065394
.3694015 .7451398 .3064563
.4530548 .7445169 .3080765
.5500643 .7435224 .3081446
.6471617 .7432156 .3118083
.743787 .7447342 .3113796
.8376777 .7488915 .3227512
.9226964 .7554601 .3513641
.3314506 .8434329 .347623
.3576757 .8430238 .3488514
.4133157 .8423763 .3516988
.4880884 .8417552 .3547712
.5737056 .8415815 .3556749
.6654191 .8414398 .3597565
.7568437 .8410712 .3667728
.843635 .8442334 .3720355
.9293069 .8507158 .3887444
.3865695 .9397793 .410003
.4075817 .9394698 .4107575
.4543785 .939106 .4120742
.5242263 .9389037 .4129734
.6059964 .9387795 .4167519
.6914537 .9380705 .4228639
.7810162 .9393148 .4323756
.8688888 .9430388 .4456795
.9554089 .9524971 .4789181
.06955934 .02651048 .2854576
.1699321 .03559944 .2845283
.2920881 .05024529 .2810668
.4152718 .08455499 .2830949
.535148 .1277911 .2935553
.6468244 .1581496 .3112192
.7540336 .1901751 .3214682
.8543864 .2115254 .3312525
.9452046 .2374353 .3477455
.06390945 .1591748 .2829183
.1652574 .1645601 .2829273
.291087 .1717883 .2834607
.4139164 .1847118 .2893302
.5308743 .2016548 .2978598
.6442857 .2197413 .3158296
.7514029 .2411716 .3244957
.8517128 .2589422 .3342747
.9437728 .2766038 .3506641
.0823173 .2903241 .2877192
.1762873 .2903033 .2903493
.2969 .2931596 .2952726
.4138093 .2982891 .3005605
.5256062 .3057986 .307342
.6397566 .3182108 .3207067
.7479488 .3294112 .3301082
.847923 .341824 .3423262
.9401585 .3552335 .358666
.1683409 .4118913 .3009081
.224093 .4120387 .3026217
.3138793 .4128706 .305698
.4151005 .4140263 .309924
.5245982 .4164212 .317021
.6390712 .4220104 .3263041
.745865 .430166 .3379544
.8434302 .4430482 .3537768
.9338423 .4562578 .3692566
.211027 .5296006 .3224224
.251571 .5293745 .3233258
.3300605 .5290321 .3247218
.4254272 .5285277 .3291665
.5304407 .5277843 .3299643
.6366707 .5315716 .3344667
.7405144 .5372007 .3460908
.8396134 .5457761 .3612424
.9274548 .5555401 .3757522
.2432476 .639815 .3496269
.2782161 .6392413 .3504941
.3483664 .6379419 .3514827
.4382914 .6368005 .3509793
.5341957 .6365108 .3498203
.6369057 .63831 .3508339
.7388737 .6412236 .3560134
.8338853 .6493555 .3676917
.9247019 .6579539 .38503
.2773875 .7439443 .3736304
.3081443 .7435911 .3740703
.3709571 .7430425 .3747988
.4544846 .7421169 .3757742
.550199 .7411746 .3745599
.6465191 .740673 .3752403
.7418609 .7424632 .3767153
.8352401 .7475605 .3870432
.9220286 .7552709 .409258
.3322328 .8427572 .4040504
.3589166 .8422486 .4053472
.4147722 .8416233 .4075293
.4859774 .8412438 .4093308
.5726375 .8412779 .4085076
.6643289 .8410517 .4119532
.7566041 .8398858 .4200217
.8441624 .8430598 .4242369
.9261321 .8516368 .4438387
.3871089 .9403449 .4529932
.4077455 .940043 .4538838
.4549214 .9394026 .4559736
.5243764 .9390387 .458054
.6067014 .9387046 .4610571
.6908499 .9390708 .4656639
.7806284 .9402974 .4736834
.8688334 .9440735 .4876485
.9534194 .9536061 .5177789
.08267679 .05802825 .4117
.1694758 .07550306 .4117918
.2935173 .08154427 .4101515
.4179286 .09431728 .408973
.5347615 .1160346 .4098788
.6437651 .1606368 .4179555
.7468925 .1969328 .4271018
.8488057 .2240775 .434492
.941184 .2507452 .4449148
.1058894 .1683219 .4095763
.1839428 .1708789 .4087088
.2957345 .1775108 .4082547
.4143373 .185263 .4074927
.5321062 .1955083 .4090045
.6418105 .2222812 .4197305
.7451972 .2480354 .4288401
.8468933 .268796 .4367463
.9397961 .2893683 .4471354
.1411983 .2896198 .4067077
.2075785 .2893171 .4072632
.3106008 .2917328 .4061914
.4180962 .2981102 .406267
.5251876 .3094075 .4118691
.6357669 .3248498 .4245253
.7424167 .3363939 .4328355
.8439211 .3487531 .4415513
.9364833 .3626143 .4525654
.1635613 .4107565 .4083205
.2181697 .4115664 .408958
.3156224 .4137695 .412065
.4257739 .4174501 .4171238
.5243096 .4216423 .419169
.6320647 .4259014 .4286501
.7411028 .4329958 .4369782
.8385092 .4461014 .4481748
.93198 .4566161 .4581138
.2164505 .5258073 .4214249
.2600795 .525941 .4218196
.3401223 .5268226 .4230201
.428551 .5289344 .4249799
.5270092 .5278713 .4262873
.6298718 .5327911 .4308807
.7362908 .5374367 .4430093
.837666 .5452181 .4538782
.9274728 .5560429 .4640532
.2559787 .6368539 .4359357
.2916173 .6364247 .4363733
.355702 .6357199 .4371673
.4398696 .634703 .4392389
.5348352 .6339473 .4436335
.6327407 .6355927 .4462478
.7341612 .6398435 .4497456
.8323467 .6476036 .4563183
.924787 .6576719 .4686832
.282987 .741633 .454563
.3103955 .7415025 .4546288
.3703146 .7407255 .4554875
.4538094 .7390909 .4600978
.5494798 .7379023 .4635888
.6456979 .7380034 .4630081
.7404491 .7397638 .4627616
.8329458 .7455677 .4700723
.9223977 .7534648 .4825448
.326248 .8430588 .4815733
.3534092 .8425974 .4820794
.4114335 .8415623 .4841232
.4851868 .8405204 .4846199
.5717817 .8398292 .4841596
.6616659 .8392655 .4856429
.7562537 .8386328 .4881357
.8446162 .8406066 .4921466
.9269887 .8502604 .5081556
.3805971 .9407184 .5148166
.4015792 .9406643 .5150473
.4491087 .9403162 .5161453
.5211667 .9394001 .5179998
.604125 .9389533 .5175692
.6918296 .9399069 .5214858
.7811064 .9420155 .5282997
.8693941 .9458107 .5418077
.9535649 .9546822 .5693398
.1037782 .1042624 .5327913
.182235 .11183 .5324762
.2964754 .1159821 .532215
.4156764 .1284696 .5312986
.5304715 .147157 .5297011
.6404974 .1674414 .5285677
.7441919 .1938838 .5314021
.8413005 .2231901 .5400656
.9340971 .25144 .5487791
.1260622 .1917018 .5319209
.1943572 .1941202 .5310363
.2995309 .199065 .5299577
.4160633 .2044579 .5289608
.528836 .211291 .5273902
.6380633 .2242448 .5268344
.7411795 .2438563 .5316817
.8397009 .2682154 .5405599
.9333241 .2903019 .5497266
.1662805 .3044836 .5282632
.2210127 .3060004 .5274026
.3104875 .3093278 .5258179
.4168107 .3132499 .5240548
.5256895 .316296 .5230711
.6320989 .3196445 .525723
.7362078 .3342714 .5342171
.8366395 .3508959 .5422612
.9322953 .3664412 .550571
.1937601 .4164872 .5262508
.2393475 .4169369 .5258765
.3279755 .4188917 .5248671
.4259507 .420351 .5240556
.5266095 .4208159 .5235903
.6328874 .4241299 .5274562
.736783 .4342703 .53653
.8363872 .4496067 .542016
.9299876 .4610896 .5511
.2220427 .522287 .5235456
.2634482 .5226264 .5237015
.3416775 .5239007 .5246401
.4332513 .5271633 .5279892
.5337865 .5341179 .532366
.6310248 .5351766 .533751
.7354284 .539535 .5395615
.8345313 .5479197 .5435476
.92822 .5571455 .5537456
.2546991 .6317095 .5306283
.2885538 .6319316 .5312096
.3591958 .6320661 .5326698
.4446908 .6338472 .5358576
.5368705 .6358415 .53833
.6297042 .6357243 .5397466
.7328362 .6395621 .5404602
.8336968 .6476068 .5477353
.9256573 .6573074 .5593632
.2843782 .7384461 .5436552
.3131459 .7385034 .5435252
.3746675 .7379977 .5442907
.4562671 .7389271 .5455817
.5505465 .7381415 .5457711
.6447116 .7374721 .5473397
.7385358 .7386966 .5508414
.8336344 .74446 .5561045
.9235798 .7533498 .5668688
.3172763 .842097 .5643323
.3442736 .8423487 .5652459
.4003198 .8428759 .5664908
.4790305 .8424498 .565856
.5676084 .8404339 .5648717
.6599919 .838828 .5672374
.7534721 .8387758 .5697466
.8430954 .8406982 .5747579
.9305627 .8489213 .5826693
.3744533 .9409246 .5952297
.3958603 .9409596 .5955403
.4451352 .9409387 .5958681
.5173973 .941142 .5968797
.5993792 .9415174 .5987469
.6896769 .9418334 .6013336
.7799073 .9442368 .6048038
.8711802 .9487838 .6124162
.9583762 .9573045 .6326291
.1433585 .1329965 .6489214
.2050983 .1358521 .6483405
.3049497 .1476214 .6469706
.4182178 .1610678 .643886
.528065 .1709303 .6413066
.636021 .179807 .6370451
.7403848 .1967454 .6364633
.8384901 .2185748 .6396179
.9287986 .2426139 .6471803
.1573022 .207164 .6471464
.2153093 .2086837 .6465138
.3110204 .2146374 .6444606
.4200471 .2246862 .6412036
.527631 .2323281 .6385157
.6337432 .2343878 .63506
.7390626 .2427444 .6356379
.8358034 .2636576 .6399188
.9276372 .2821095 .6472232
.1813607 .3154198 .6423061
.229302 .3166721 .6413219
.3184023 .3192152 .6390255
.4234715 .3232361 .635359
.5270704 .3254004 .6336095
.631431 .3265895 .6318424
.7345992 .3330795 .6330678
.8325761 .3458114 .6406218
.9255744 .3585832 .6479385
.2101233 .4241298 .6365125
.2538863 .4249815 .6361842
.3343503 .4258066 .6347751
.4290007 .4270111 .6325763
.5301483 .4287207 .6323438
.6305853 .4316913 .6318364
.7291434 .4362079 .6337538
.8306546 .4430795 .6426111
.9244618 .4555843 .6494684
.2368682 .5299416 .6322227
.2716977 .5301588 .6323223
.3411713 .5313336 .6325969
.4330093 .5334009 .6340508
.5367839 .5348325 .6345786
.6333854 .5336061 .6348684
.7291137 .5361071 .636581
.8321356 .542339 .6428092
.9283537 .5537882 .6495879
.2642206 .6292967 .6292059
.2972377 .6293316 .6292939
.3630382 .629406 .629697
.4454482 .6305756 .631579
.5378304 .6338165 .6362124
.6370857 .6392795 .6391295
.7325518 .6411462 .6401383
.8337043 .6474928 .6441061
.9280908 .6531708 .6486458
.2741815 .7337006 .6376514
.3038892 .7338942 .6376147
.3663983 .7334712 .6386214
.4542181 .7335847 .6405814
.5491886 .7357765 .6416556
.6431407 .7391217 .6418927
.7369015 .7387987 .6437643
.8342255 .7446529 .6450964
.9254347 .7528151 .6525264
.2980321 .8366755 .6519141
.3257554 .8368863 .6519184
.385966 .8378447 .6513739
.468687 .8393053 .6510057
.5649054 .8416157 .6518453
.6590261 .8409619 .6510479
.7484509 .8397208 .653248
.8427916 .8406018 .6587732
.9326237 .8491298 .6687329
.3651913 .9397364 .6748279
.3875876 .9402481 .6754048
.4366002 .9418541 .6768606
.5070342 .9449978 .6791303
.5905016 .9467455 .6818528
.681787 .9469942 .6831558
.7770243 .9478183 .6864384
.8730013 .9518892 .6938841
.9622962 .9630973 .7153656
.1517517 .1585461 .7561682
.2108223 .1614869 .7553787
.3099451 .1704443 .7532629
.4223812 .186877 .750268
.5331161 .1933973 .7471969
.6402971 .2023541 .7446976
.7423273 .2112086 .7419495
.8384604 .223105 .7414262
.9246013 .2400606 .7421615
.1659012 .2229232 .7542822
.2206431 .2252871 .753534
.316103 .2314906 .7515106
.4235656 .2434093 .748241
.5330312 .2468265 .7456326
.6402355 .2534812 .7431819
.739741 .259475 .739957
.8362306 .2676053 .740099
.9239509 .2776964 .7411435
.1946738 .3245648 .7502258
.2418813 .325316 .7496306
.3280899 .3276697 .7482133
.4293479 .3312113 .7453564
.532767 .3344061 .7428668
.6391827 .3380511 .7404367
.7371641 .3411194 .7368836
.8325435 .3472159 .7372476
.9236478 .350378 .7397833
.2275845 .4312562 .7463155
.265709 .4316577 .7461319
.3406695 .4329696 .7452386
.4392774 .4342923 .7427823
.5385363 .4361694 .7400826
.6347441 .4394872 .7372295
.7347977 .4397839 .7346041
.8317378 .439735 .7354946
.9220109 .4477387 .7413223
.2486219 .5379506 .7422655
.2826033 .5380365 .7420281
.3503288 .5381136 .7412502
.4454784 .538958 .7401759
.5447255 .5390192 .7386033
.6403995 .5382397 .7368252
.7315073 .5392872 .7343839
.8294631 .5390137 .7365958
.9232192 .5459394 .7443607
.2594884 .6372237 .7365714
.2896345 .6370785 .7367344
.3587804 .6367747 .7367435
.4495413 .6368339 .7363348
.5455461 .6386439 .7364221
.6431829 .6388212 .7361352
.7357033 .6360272 .7365228
.8299531 .6378111 .7384896
.9265221 .6439971 .7462803
.2756656 .7347261 .7330785
.3046336 .7344546 .7330087
.3656909 .7338069 .7330291
.454011 .7328019 .7325035
.5486197 .7338716 .7337381
.64456 .7364607 .7360373
.7406125 .7405251 .7404949
.8336768 .7415559 .7443775
.933046 .7506237 .7488423
.2926193 .832536 .7423322
.3167918 .8328405 .7425331
.3741408 .8334743 .74295
.4573828 .8344737 .7433819
.5502741 .8369033 .7450751
.6531289 .8397319 .7462503
.7489664 .8413973 .7470939
.840972 .843311 .7501624
.938795 .8523455 .7548368
.340142 .9362854 .7609191
.3630803 .9368826 .761152
.4138572 .9383959 .7616315
.4870627 .9411007 .7630637
.5738268 .9466395 .7651214
.671698 .9523212 .7677044
.773517 .9532914 .7708302
.8737118 .9568893 .779952
.969729 .970017 .7983508
.1695513 .1841584 .8590176
.2233493 .1868995 .8583494
.3167886 .1932165 .8567965
.4307235 .1997178 .8546026
.5404575 .2124116 .8516297
.6466683 .2203298 .8473079
.7500156 .2258683 .8421829
.8404005 .2351192 .8397037
.9268371 .2473354 .8396119
.1841403 .2396739 .8574213
.2330368 .2414582 .8568224
.3216693 .2440377 .8556844
.4332507 .2484705 .8536695
.5407431 .2593288 .8504393
.6465278 .2674821 .8461412
.7500454 .2694641 .8411987
.8381683 .2780117 .8389266
.9257095 .2854472 .839188
.2075959 .3320343 .8553185
.2497342 .3327286 .8548716
.3311561 .3346872 .8537953
.4344299 .338585 .8515072
.5416783 .3455569 .8478187
.6472047 .3491775 .8432692
.7481876 .3480095 .8395959
.8363475 .3513425 .8369299
.9247109 .3567513 .8385971
.2406665 .4425499 .8521146
.2778643 .4426751 .8517426
.3486211 .4425584 .8503568
.4423235 .4420644 .848108
.5477248 .4425113 .8440956
.6502104 .444412 .8402973
.7466105 .4428108 .8376598
.8371809 .4433714 .8362561
.9238925 .4472504 .8381507
.2574003 .545837 .8463288
.2889439 .5454065 .8461258
.3597531 .5449518 .8457976
.4519548 .5465851 .8446723
.5507635 .5457218 .8425363
.6484408 .546248 .8403705
.7445652 .5454213 .8378487
.8356562 .5430524 .8355843
.9229782 .5461652 .8358048
.2696085 .6499307 .8415295
.3023393 .649889 .8415239
.3672185 .6492185 .8415566
.4539198 .6477584 .8414487
.5497856 .6460366 .8412228
.646692 .6438608 .8406549
.744952 .6411373 .838147
.8346868 .6411902 .8348707
.9253239 .6446484 .8367662
.2757649 .7467034 .8371127
.305946 .7465538 .8371934
.3705739 .7458243 .8372079
.4538242 .7441713 .8371929
.5482798 .7424005 .8375608
.6474843 .74089 .8390347
.7476243 .7393254 .8388158
.8397968 .7414933 .8374757
.9322706 .7432715 .8424596
.2860061 .8388648 .836664
.3124639 .8389543 .836495
.3702288 .8391405 .8362457
.4548424 .8389412 .8360083
.548603 .8390758 .8358505
.647392 .8394039 .8369495
.7493798 .8422769 .8397388
.845849 .8490682 .8446607
.9465573 .855916 .853078
.336292 .9362609 .852339
.3581503 .9366605 .8525749
.408032 .9380193 .8533036
.4811465 .9408617 .8543127
.5716479 .9448561 .8567908
.6645235 .9512902 .8614718
.7703428 .9594855 .8692112
.8764374 .9680877 .8767663
.981394 .9799266 .8941838
.2146723 .204825 .9561669
.2562508 .2065257 .9558681
.3372747 .2112542 .9549926
.4402424 .2216387 .9529653
.5482636 .2288554 .9495646
.6558141 .234546 .9459242
.7562575 .2490257 .9410682
.8501039 .2559345 .9382182
.9363179 .2619753 .9371913
.2267931 .2536507 .9551968
.2657957 .2549367 .9549075
.3417644 .2576923 .954194
.4414237 .2650093 .9523811
.5480673 .2697717 .9486448
.6559582 .2760327 .9452
.7560654 .289431 .9405808
.8509002 .2915738 .9381264
.9363374 .2990232 .9368221
.2370293 .3404019 .9532186
.274279 .3412065 .9528847
.3482213 .3426528 .952269
.4420801 .3438765 .9505443
.5490992 .349849 .9466313
.6559762 .3565534 .9434959
.7569582 .3668403 .9403407
.8519255 .3636857 .9377547
.9367684 .3695251 .9361897
.2391326 .4475694 .951111
.2769599 .4473428 .9509131
.3561616 .4464229 .9503104
.4510862 .4457028 .948281
.5536802 .4490816 .9451684
.6578342 .4497504 .9431055
.7578341 .4519597 .9405609
.8531035 .4478098 .9382623
.9364324 .4533451 .9363496
.2493342 .5532098 .9491753
.2830997 .552956 .9492655
.3521923 .5523633 .9493448
.4454869 .5510873 .9483506
.5505542 .5482694 .9469211
.6560682 .5467083 .9451289
.7575405 .546157 .9424105
.8499414 .54716 .9387443
.9367561 .550829 .9366974
.2526713 .661053 .9452645
.2853459 .6607688 .9452739
.3543656 .6589312 .9454352
.4410084 .6567926 .9462978
.5407645 .6560859 .9471391
.6512654 .6540189 .9461765
.7574594 .6494271 .9437246
.852398 .6500927 .9392799
.9399941 .6514468 .9381461
.2617363 .7601379 .9429106
.2929573 .7600197 .9430375
.3595443 .7601456 .943426
.4538596 .7594295 .944086
.5527764 .757001 .9448417
.6476726 .7534285 .9478623
.7538747 .7509224 .9471495
.8544543 .7504271 .9455451
.9481102 .7531786 .9450207
.2931988 .8568115 .9418511
.321996 .8567925 .9418111
.3780274 .8568684 .9421542
.4571142 .8576953 .9434037
.5529296 .8591327 .9455921
.6546474 .8605258 .948967
.7548528 .8593872 .9542274
.858917 .8584774 .9565802
.9619097 .8630239 .9598336
.3641675 .9560766 .9554296
.3851359 .9563873 .9557901
.4329183 .9570488 .9567924
.5104771 .9582235 .9590893
.5958439 .9605066 .9624282
.6887748 .9646158 .9667078
.7852031 .9740233 .9731905
.8939121 .9819083 .9831924
.9959334 .9984626 .9999999
