luts/Timeless_6.cube
# 3D LUT of size 33x33x33 converted by Filestar.
#   Input:
#     color space: sRGB
#     white point: default (D65)
#     transfer function: default (sRGB)
#   Output:
#     color space: sRGB
#     white point: default (D65)
#     transfer function: default (sRGB)
#   Exposure: +0.53999996
#   Contrast: +23
#   Whites: +8
#   Blacks: -20
#   Vibrance: +5
LUT_3D_SIZE 33
0 .00158175 .00933342
0 .00580953 .00344379
.00010886 .00736852 0
.08124002 0 .00413801
.1319987 0 .00377358
.1755567 0 .00418568
.2174751 0 .00057072
.2584633 0 0
.2991159 0 0
.3381363 0 0
.3768163 0 0
.4145929 0 0
.4510992 0 0
.4866176 0 0
.5219962 0 0
.5565918 0 0
.5908476 0 0
.6239802 0 0
.656195 0 0
.6876293 0 0
.7181631 0 0
.7478165 0 0
.7764564 0 0
.8038561 0 0
.8302338 0 0
.8557355 0 0
.8802176 0 0
.9036644 0 0
.926108 0 0
.9476443 0 0
.9684331 0 0
.988599 0 0
.9999999 0 0
0 .02651496 .01049841
0 .03614819 .00319823
0 .04049633 .00124916
.07644301 .02974443 .00561591
.1283425 .02284802 .00418144
.1741678 .01667086 .0035579
.2180474 .01718896 0
.2597688 .01852176 0
.2996248 .02353405 0
.3386935 .02868691 0
.3774167 .03101628 0
.4149593 .03109254 0
.4514009 .03090406 0
.4870369 .02990707 0
.5224617 .02662348 0
.5570415 .02393418 0
.5912451 .01512611 0
.6243718 .00605283 0
.6565481 0 0
.6877586 0 0
.7182966 0 0
.7479395 0 0
.7765417 0 0
.8039144 0 0
.8302853 0 0
.8557516 0 0
.8802383 0 0
.903692 0 0
.9261571 0 0
.9476983 0 0
.9684886 0 0
.9886623 0 0
.9999999 0 0
0 .07263788 0
0 .07491172 0
0 .07501999 0
.07663395 .06966329 .00037363
.130519 .06621807 .00073227
.176434 .06517073 0
.2198978 .06602345 0
.2607215 .06952342 0
.3002193 .07376987 0
.3398519 .07478631 0
.3781029 .07591406 0
.4153717 .07608508 0
.4517409 .0760463 0
.4875924 .07423363 0
.5229855 .07223976 0
.5575478 .07079016 0
.5916926 .0649715 0
.624813 .05831698 0
.6566222 .05225428 0
.6879014 .04773245 0
.71843 .04419083 0
.748035 .04225072 0
.7766379 .03997897 0
.8039748 .03807836 0
.8303431 .03592368 0
.8557677 .03343637 0
.8802615 .02996741 0
.9037328 .02400365 0
.9261938 .01446948 0
.9477589 .00999172 0
.9685536 .00977706 0
.9887335 .00805296 0
.9999999 .00609535 0
0 .1166398 0
0 .1160442 0
0 .1161121 0
.0765587 .1135675 0
.1335073 .1105053 0
.1790791 .1111048 0
.2212168 .112759 0
.2618809 .114549 0
.3016225 .1161779 0
.3408532 .1158965 0
.3789062 .1164576 0
.4159491 .1168496 0
.4523154 .1166192 0
.488371 .1145188 0
.5237321 .1132746 0
.5582615 .1125626 0
.5922619 .1092574 0
.6249925 .1064901 0
.6567177 .1027411 0
.6881105 .1015615 0
.7185456 .1004757 0
.748171 .09945825 0
.776775 .09825579 0
.8040701 .09722418 0
.830426 .09619675 0
.8558254 .09507508 0
.8803406 .09318071 0
.9038315 .08938652 0
.926235 .08422934 0
.947853 .08275645 0
.9686467 .08260592 0
.9888362 .08151925 0
.9999999 .08031223 0
0 .1563611 0
0 .1559287 0
.00967633 .1559235 0
.0794333 .1554134 0
.1379749 .153878 0
.1817016 .1542408 0
.2232921 .1545157 0
.2631855 .1550932 0
.3031777 .155362 0
.3421216 .1554111 0
.3799745 .1554847 0
.4167741 .1559176 0
.4534773 .1547935 0
.4894512 .1533412 0
.5245918 .1527995 0
.5587325 .1533103 0
.5924299 .1517556 0
.6251372 .1499742 0
.6569352 .1483657 0
.6882709 .1475556 0
.7187071 .1471551 0
.7483795 .1465678 0
.7769491 .1456739 0
.8041984 .1449485 0
.8305694 .1442069 0
.856011 .1432577 0
.880423 .1425269 0
.9038768 .1397611 0
.9263114 .1363514 0
.9479807 .13622 0
.9687707 .1361246 0
.9889751 .1353581 0
.9999999 .1347188 0
0 .1947202 0
0 .1950283 0
.02208966 .1953194 0
.08442011 .1954689 0
.1416452 .193825 0
.1841761 .1936491 0
.2252099 .1936608 0
.2648737 .1939093 0
.304484 .1940652 0
.3437558 .193745 0
.3813414 .1937139 0
.4185019 .1931195 0
.4546086 .1929287 0
.4900634 .1928013 0
.5248948 .1929443 0
.5589358 .1935465 0
.5925608 .1931241 0
.6252275 .1920484 0
.6571442 .1910575 0
.6885014 .1904374 0
.7189364 .1901183 0
.7486382 .1898623 0
.7770947 .1891478 0
.8044226 .1886678 0
.830789 .1880727 0
.85622 .1872607 0
.8805876 .1864705 0
.903936 .1848902 0
.9264709 .1830094 0
.9481422 .1828962 0
.968937 .182805 0
.9891321 .1822612 0
.9999999 .181869 0
0 .2318644 0
0 .2317202 0
.0465533 .2316933 0
.09817903 .2318147 0
.1489698 .2307084 0
.1896445 .2306037 0
.2296512 .2303771 0
.2683037 .2308051 0
.3064126 .2317116 0
.3447913 .2318745 0
.3822627 .2321354 0
.4191543 .2319537 0
.4550512 .2321467 0
.4904109 .2325471 0
.5251083 .2330398 0
.5591209 .2335527 0
.5925747 .2334462 0
.6252915 .2324784 0
.6572955 .2318194 0
.6888036 .2314522 0
.7193428 .2310865 0
.7489772 .2308007 0
.7773256 .2306471 0
.8046843 .2304339 0
.8310812 .2295448 0
.8564689 .2290478 0
.8807721 .2281541 0
.9041116 .227072 0
.9266766 .2264853 0
.9483384 .2264219 0
.9691367 .2263382 0
.9893003 .2259922 0
.9999999 .225502 0
0 .2690879 0
0 .2688341 0
.05407377 .26858 0
.1085528 .2682555 0
.1533015 .268106 0
.1928337 .26834 0
.2309301 .2687638 0
.2685519 .2698912 0
.3062341 .2709317 0
.3451326 .2707098 0
.3827631 .2708975 0
.4193745 .2713385 0
.4554509 .2712569 0
.490842 .2716744 0
.5253966 .2721549 0
.5593455 .2725939 0
.592729 .272404 0
.6254292 .2720324 0
.6577855 .271553 0
.6893006 .2712358 0
.7198702 .2710925 0
.7493259 .2707945 0
.7777057 .2704768 0
.8050899 .2701814 0
.8314109 .2698057 0
.8566745 .269487 0
.8810135 .2683543 0
.9044518 .2684313 0
.9270661 .2676897 0
.9486186 .2679327 0
.9693509 .2679842 0
.9894672 .2678773 0
.9999999 .2675386 0
0 .3069375 0
.00068886 .3068394 0
.0600119 .3067126 0
.1109163 .3066121 0
.1574877 .306373 0
.1944274 .3069693 0
.2319764 .3072665 0
.2695675 .3081608 0
.3077243 .3086948 0
.345865 .3087415 0
.3825985 .30935 0
.4195189 .3094929 0
.4555666 .3098588 0
.4912452 .3101705 0
.5259131 .3103571 0
.559629 .310605 0
.5929725 .310728 0
.6258374 .3108215 0
.6583211 .3106298 0
.6898649 .3104662 0
.7202877 .310225 0
.7496624 .3099533 0
.7780401 .3096995 0
.8054233 .3094604 0
.8318517 .3092061 0
.8569622 .3084982 0
.8813146 .3084167 0
.9048367 .3087295 0
.9274675 .3077551 0
.9489818 .3080799 0
.9697265 .3082344 0
.9897577 .3078803 0
.9999999 .3075098 0
0 .3456106 0
.00228987 .3456455 0
.06077543 .3455737 0
.1110867 .3454212 0
.154954 .3453962 0
.1936325 .3457117 0
.232803 .3458868 0
.2709365 .3462046 0
.3095595 .3461381 0
.3478538 .3458846 0
.3852394 .3457266 0
.4210323 .3464853 0
.4561445 .3480313 0
.4914737 .3485302 0
.52612 .3486796 0
.5602463 .348936 0
.5936232 .3490514 0
.6264443 .3492151 0
.65897 .3490666 0
.6904007 .3488915 0
.7206582 .3486793 0
.7500161 .3484623 0
.778377 .3482417 0
.8057473 .3480262 0
.8320308 .3474669 0
.8573901 .347157 0
.8817005 .3477002 0
.9051366 .348223 0
.9278021 .3474027 0
.9493091 .347644 0
.9700359 .347354 0
.9900377 .3469044 0
.9999999 .3464996 0
0 .3834633 0
.01006486 .3834047 0
.06667285 .3833384 0
.1145401 .3832697 0
.1575482 .3832875 0
.1954402 .3837753 0
.2331011 .3840724 0
.2721064 .3840413 0
.3105638 .3839793 0
.3485652 .383833 0
.3858775 .3839011 0
.4225704 .3841408 0
.4579804 .3850078 0
.4921373 .3859588 0
.5266077 .3863202 0
.5606701 .3865772 0
.5941681 .3868609 0
.6273942 .3868776 0
.6596121 .3867607 0
.6909281 .3865383 0
.721074 .3863335 0
.7504107 .386142 0
.7787608 .3858753 0
.8059896 .3855342 0
.8322698 .3858604 0
.8575921 .3863471 0
.8820131 .3866254 0
.9054821 .3867738 0
.9281881 .385488 0
.9496022 .3855616 0
.9703221 .3854556 0
.9902533 .3852478 0
.9999999 .3849362 0
0 .4211412 0
.00054201 .4211578 0
.05812231 .4211763 0
.1084165 .4211951 0
.15306 .4212028 0
.1954659 .4211521 0
.233015 .4215617 0
.271587 .4216401 0
.310896 .4215658 0
.3489225 .42162 0
.3861933 .4216807 0
.4229701 .4219415 0
.4587935 .4221174 0
.4933295 .4225434 0
.5274965 .4231324 0
.5613106 .4235293 0
.5947753 .423826 0
.6279871 .4238927 0
.6602938 .4238652 0
.6913159 .4235783 0
.7214583 .4233905 0
.7507858 .4232082 0
.7789833 .423165 0
.8062357 .4235818 0
.8325042 .4240435 0
.8578003 .4243974 0
.8822376 .4245476 0
.905755 .4243512 0
.9284604 .4229493 0
.9498524 .4227997 0
.970568 .4227203 0
.9904856 .4225702 0
.9999999 .4224568 0
0 .4583277 0
0 .4583488 0
.03929209 .4583666 0
.09877514 .4583921 0
.1468686 .4584262 0
.1909584 .4584692 0
.2316068 .4586979 0
.2699903 .4590731 0
.309516 .4589952 0
.3488618 .4587346 0
.3865413 .458711 0
.4233197 .4587871 0
.4590213 .4588069 0
.4941925 .4590403 0
.5286565 .4592238 0
.5623621 .4595037 0
.5957197 .4600415 0
.628579 .4602368 0
.6604302 .4604518 0
.6914038 .4604118 0
.7217906 .4602774 0
.7509528 .4604641 0
.7791693 .4607186 0
.8064549 .4609684 0
.8327049 .4612144 0
.858011 .4613336 0
.8824075 .4612244 0
.9059293 .4608451 0
.9287021 .4596962 0
.9501228 .4595189 0
.9708354 .4591907 0
.9907514 .4590169 0
.9999999 .4589985 0
0 .494916 0
0 .4949323 0
.02052254 .4949506 0
.08887096 .4949755 0
.1404094 .4949975 0
.1862526 .4950261 0
.2293499 .4950666 0
.2688923 .4953798 0
.3077508 .4955823 0
.3467466 .4954877 0
.3861096 .4952458 0
.4229472 .4950992 0
.4590238 .4952826 0
.4943033 .4954618 0
.5288023 .4956842 0
.5633959 .4954285 0
.5965946 .4958544 0
.628916 .4964152 0
.6604434 .4965479 0
.6912722 .4968839 0
.7216967 .4971215 0
.7511017 .4973426 0
.7793852 .4975261 0
.8065976 .4975448 0
.8327932 .4973874 0
.8581723 .497067 0
.8826061 .4967714 0
.9062448 .495851 0
.9288062 .4955029 0
.9504742 .4951101 0
.971182 .4948936 0
.9909869 .4946047 0
.9999999 .4945328 0
0 .5308412 0
0 .5308544 0
.00340349 .5308692 0
.0791275 .5308905 0
.1342389 .5309188 0
.1815796 .5309566 0
.2254122 .5310047 0
.2673791 .5310664 0
.3069741 .5313428 0
.345342 .5315493 0
.383976 .531445 0
.4228373 .5311416 0
.4589143 .5312102 0
.4940937 .5313784 0
.5287028 .53158 0
.5634244 .5314521 0
.5973251 .5311159 0
.6293942 .5311952 0
.6606228 .5319087 0
.691381 .5325754 0
.7215745 .5325727 0
.7510953 .5324479 0
.7795393 .5322579 0
.8068944 .5320204 0
.8331447 .5317742 0
.8584448 .5315101 0
.8828744 .5312098 0
.9063619 .5309214 0
.9288561 .5306978 0
.9505308 .5303732 0
.9714311 .5298662 0
.9911898 .5296289 0
.9999999 .529639 0
0 .5655038 0
0 .5655183 0
0 .5655345 0
.07171286 .5655578 0
.1298175 .5655889 0
.1786353 .5656283 0
.2237254 .5656681 0
.2665222 .5657142 0
.3077159 .5657928 0
.3453108 .5661629 0
.3833734 .5660451 0
.4211476 .5659096 0
.4589594 .5657035 0
.4943349 .5658048 0
.5291268 .5659134 0
.5636083 .5658212 0
.5973498 .5656548 0
.6301283 .5654636 0
.6611264 .5660743 0
.6917827 .5666957 0
.7216978 .5671023 0
.7511227 .566732 0
.7792556 .5666304 0
.806601 .5663924 0
.8330744 .5661488 0
.8585762 .5659272 0
.8829637 .5657544 0
.90627 .5655088 0
.9287153 .5652456 0
.9504713 .5649424 0
.9714908 .564686 0
.9914804 .5643323 0
.9999999 .5642081 0
0 .5988439 0
0 .5988598 0
0 .5988778 0
.07096548 .5989038 0
.1296344 .5989424 0
.1786512 .5989913 0
.2237289 .5990533 0
.2665007 .5991275 0
.307424 .5992039 0
.3457612 .5994904 0
.3834241 .5996031 0
.4205263 .5995582 0
.4573388 .5995087 0
.4948667 .5993854 0
.530104 .5995497 0
.563992 .5997251 0
.5973675 .5997109 0
.6302021 .5994461 0
.6618029 .5993568 0
.6922457 .5997291 0
.7219416 .600158 0
.7508906 .6004145 0
.7792531 .6000427 0
.8063757 .5998361 0
.8328683 .5996479 0
.8583404 .5993955 0
.8827845 .5991172 0
.9062946 .5989372 0
.9287446 .5987781 0
.9505889 .5987014 0
.9716038 .5986412 0
.9915492 .598527 0
.9999999 .5981662 0
0 .631452 0
0 .6314689 0
0 .6314876 0
.0694292 .6315147 0
.1288908 .6315486 0
.1782694 .6315859 0
.2234571 .6316314 0
.2660627 .6316901 0
.3069819 .6317618 0
.3468716 .6318793 0
.3841509 .6323075 0
.4214415 .632303 0
.4584062 .6323176 0
.4946688 .6324356 0
.5306693 .6323326 0
.5644938 .6324909 0
.5976093 .632479 0
.6303211 .6321442 0
.6621523 .6318815 0
.6928539 .6318876 0
.7223627 .6321995 0
.7510156 .6326491 0
.7789099 .6328883 0
.8062556 .63256 0
.8326938 .6320336 0
.8578621 .6319138 0
.8823551 .6317326 0
.9059592 .6316391 0
.9286512 .6316037 0
.9507323 .6315143 0
.971708 .6314327 0
.9914656 .6313443 0
.9999999 .6313288 0
0 .6631109 0
0 .6631277 0
0 .6631449 0
.07028822 .6631694 0
.1299851 .6632019 0
.1795781 .6632434 0
.2247406 .6633065 0
.2673673 .6634131 0
.3083839 .6635471 0
.3482004 .6636988 0
.3864847 .6639181 0
.4228126 .6641986 0
.4592618 .6642373 0
.4948396 .6641774 0
.5300953 .6641157 0
.5651746 .6638767 0
.598251 .6638417 0
.6307102 .6636473 0
.6627454 .6633204 0
.6934191 .6633295 0
.7229521 .6634228 0
.7511566 .6637121 0
.7789189 .6641278 0
.8059665 .6642508 0
.8322781 .664062 0
.8579507 .6635219 0
.8821451 .6635626 0
.9057667 .6634855 0
.9285774 .6633868 0
.9506713 .6632525 0
.9716706 .6632029 0
.9916649 .6631032 0
.9999999 .6632403 0
0 .6941043 0
0 .6941251 0
0 .6941492 0
.07465132 .6941838 0
.132525 .6942294 0
.1809598 .6942995 0
.2255371 .6943949 0
.2679473 .6945079 0
.3087932 .6946555 0
.3485572 .6947258 0
.387511 .6947792 0
.4236284 .6950956 0
.4594303 .6950161 0
.4950475 .6949072 0
.5296828 .6948901 0
.5644828 .6947246 0
.5986453 .6944481 0
.6310765 .6943542 0
.6629728 .6941918 0
.6935025 .6941921 0
.7230284 .6941316 0
.7518253 .6939096 0
.7794365 .6940475 0
.8061144 .6946207 0
.8323407 .6947988 0
.8577417 .6948125 0
.8823735 .6945488 0
.9059814 .6942937 0
.9286708 .694347 0
.9507057 .694116 0
.9716412 .6938802 0
.9915162 .6938069 0
.9999999 .6939317 0
0 .7243841 0
0 .7243923 0
0 .7243888 0
.07402358 .7243972 0
.1319219 .7244116 0
.1804416 .7244554 0
.2250001 .7245098 0
.2677948 .7245008 0
.3089593 .7244864 0
.3487273 .7245107 0
.387329 .7245389 0
.425025 .7245697 0
.4597518 .7249485 0
.4951296 .7248257 0
.5298668 .7247268 0
.5636204 .7247515 0
.5978207 .7244743 0
.6312339 .7241666 0
.6630694 .7239179 0
.6937107 .7238805 0
.7233411 .723703 0
.7522767 .7235118 0
.7802455 .7235007 0
.8070296 .7236934 0
.8325354 .724591 0
.8578886 .7246451 0
.8824195 .7246593 0
.906061 .7245015 0
.9292058 .7239854 0
.9505914 .7239473 0
.9713338 .7238405 0
.9913126 .7237391 0
.9999999 .7236829 0
0 .7536551 0
0 .7536421 0
0 .7536277 0
.065864 .7536069 0
.1275641 .7535791 0
.177944 .7535443 0
.2239763 .7534602 0
.2670474 .7533876 0
.3084064 .7533455 0
.3481753 .7533557 0
.3868686 .7533845 0
.4244387 .7533935 0
.4598985 .7536188 0
.4953186 .7534919 0
.530112 .7533479 0
.5639761 .7533305 0
.5971994 .7533129 0
.6308891 .7529957 0
.663159 .7527577 0
.6938807 .7526352 0
.723915 .7524641 0
.7528504 .7524415 0
.7807682 .7524559 0
.8077452 .7524738 0
.8336787 .7526457 0
.8582479 .7534277 0
.8827813 .7533871 0
.9063417 .7533353 0
.9287833 .7533245 0
.9505051 .7529989 0
.9713027 .7527557 0
.9910899 .7527014 0
.9999999 .7525634 0
0 .781542 0
0 .7815296 0
0 .7815411 0
.06005666 .7815208 0
.1234661 .7814936 0
.1745889 .7814398 0
.2209281 .7813746 0
.2645574 .781298 0
.306367 .7812092 0
.3468226 .7811067 0
.3859355 .7810421 0
.4238403 .7810174 0
.4606521 .7810867 0
.4954308 .7812172 0
.5303694 .7810807 0
.5644056 .7810099 0
.5976737 .780992 0
.6302298 .7810298 0
.6632789 .7807999 0
.694346 .7806177 0
.7242917 .7805602 0
.7533296 .7805473 0
.7813677 .7804798 0
.8083291 .7804888 0
.8343973 .7805108 0
.8593765 .7806113 0
.8830906 .781172 0
.906189 .781286 0
.928619 .7812821 0
.9502661 .7812631 0
.971091 .7810767 0
.991038 .7806059 0
.9999999 .7802132 0
0 .8084732 0
0 .8084584 0
0 .8084421 0
.04541996 .8084165 0
.116716 .8083821 0
.1701483 .8083384 0
.2175955 .8082794 0
.2619255 .8082014 0
.3042299 .8081121 0
.3449076 .8080219 0
.3843861 .8079211 0
.4229952 .8078136 0
.4603163 .8077855 0
.4955872 .8079359 0
.5304741 .8078764 0
.5645913 .8078704 0
.5981573 .8079669 0
.6307828 .808078 0
.6623994 .8081082 0
.6947017 .8078148 0
.7247437 .8077357 0
.7537237 .8076724 0
.7817625 .8076259 0
.8088437 .8076074 0
.8349271 .8075627 0
.8598785 .8076059 0
.883645 .8077506 0
.9063708 .8080579 0
.9285145 .8082973 0
.9500943 .8081362 0
.9708666 .8078873 0
.9907961 .8076416 0
.9999999 .8072078 0
0 .8344085 0
0 .8343933 0
0 .834376 0
.03550832 .8343513 0
.1122714 .8343182 0
.1671551 .8342767 0
.2153059 .834226 0
.2599081 .8341743 0
.3024013 .8340989 0
.3433351 .8340125 0
.3831426 .8339179 0
.4219728 .8338129 0
.4597836 .833738 0
.4965178 .833735 0
.530762 .83393 0
.5652473 .8339412 0
.5987733 .834102 0
.6311519 .8341975 0
.6625648 .8343493 0
.6935405 .8344047 0
.724807 .8340688 0
.7539819 .8340107 0
.7820455 .8339401 0
.8089963 .833899 0
.8350959 .8338658 0
.8601142 .8338248 0
.8838444 .8337974 0
.9066738 .8338253 0
.9288331 .8337051 0
.9499293 .8338697 0
.9706674 .8336304 0
.9906023 .8333946 0
.9999999 .8331844 0
0 .8594137 0
0 .859399 0
0 .8593823 0
.02568928 .8593586 0
.1077488 .8593277 0
.1639546 .859295 0
.2127056 .8592554 0
.2577509 .8592128 0
.3005303 .8591679 0
.3419485 .8591555 0
.3821326 .8591435 0
.4212728 .8591006 0
.4593311 .8590342 0
.4958625 .85902 0
.5314151 .8590233 0
.5654435 .8591378 0
.5990584 .8591776 0
.6312384 .8593405 0
.662727 .8595228 0
.6933817 .8597454 0
.7237207 .8597068 0
.7538602 .8593216 0
.7820091 .8590918 0
.8090823 .8590325 0
.8351495 .8589614 0
.8599904 .8588215 0
.8837859 .8586526 0
.9068266 .858515 0
.9288622 .85848 0
.9503739 .8581623 0
.9704776 .858458 0
.9904079 .858231 0
.9999999 .8580287 0
0 .8835717 0
0 .8835735 0
0 .8835753 0
.01468563 .8835778 0
.1026376 .8835814 0
.1608912 .8835858 0
.2106535 .8835912 0
.2563613 .8835976 0
.2995809 .8835987 0
.3411107 .8835325 0
.3815136 .8834878 0
.4206056 .8833876 0
.4582449 .8833084 0
.4948876 .8832684 0
.5308346 .8832392 0
.5652112 .8833197 0
.5988505 .8833596 0
.6313989 .8835714 0
.662922 .8837126 0
.6934501 .8838635 0
.7230843 .883919 0
.7530286 .8836407 0
.7819653 .8832799 0
.8091495 .8831503 0
.8349169 .8829968 0
.8597364 .8828159 0
.8836828 .8826447 0
.9067721 .8824664 0
.9289673 .8823164 0
.9502571 .882195 0
.9709148 .8818919 0
.9903306 .8820518 0
.9999999 .8819821 0
0 .9070474 0
0 .9070854 0
0 .9070773 0
.00899237 .9070653 0
.09994934 .9070464 0
.159358 .9070151 0
.2096758 .9069771 0
.2557368 .9069322 0
.2992297 .9068802 0
