luts/Timeless 36.cube
# 3D LUT of size 33x33x33 converted by Filestar.
#   Input:
#     color space: sRGB
#     white point: default (D65)
#     transfer function: default (sRGB)
#   Output:
#     color space: sRGB
#     white point: default (D65)
#     transfer function: default (sRGB)
#   Exposure: -0.01
#   Contrast: -25
#   Whites: -25
#   Blacks: -14
#   Vibrance: +43
LUT_3D_SIZE 5
0 .02561936 .01484949
.2271095 0 .00718814
.4699944 0 0
.7104146 0 0
.9529086 0 0
0 .2565729 0
.2319748 .2541783 0
.4711642 .2533063 0
.7101132 .2440302 0
.9530678 .2148919 0
0 .5315711 0
.1793106 .5306319 0
.4654015 .5266787 0
.7108864 .5194953 0
.9499835 .5087869 0
0 .7937401 0
0 .7934657 0
.4247932 .7917061 0
.6975681 .7881732 0
.9464162 .7834017 0
0 .9899411 0
0 .9897581 0
.3745681 .9890814 0
.6787549 .9889526 0
.9485057 .9877567 0
0 .00101033 .223118
.2265685 0 .2279466
.4764761 0 .2184001
.7151694 0 .1944659
.9554458 0 .1633034
0 .260699 .2246611
.2173036 .2543806 .2160248
.471401 .247808 .2129929
.7135825 .2255992 .1869309
.9554501 .1932265 .1482569
0 .533417 .134262
.1236615 .5332211 .1194801
.4624846 .5307409 .1181315
.7185614 .5158532 .1068959
.9527021 .5032217 .100801
0 .7956771 0
0 .7955067 0
.4091687 .7941581 0
.695479 .7904388 0
.9508271 .7831706 0
0 .9917474 0
0 .9917089 0
.343648 .9915383 0
.6690497 .9915987 0
.9492254 .9890094 0
0 0 .4712422
.214985 0 .4725681
.4746935 0 .4740009
.7196575 0 .4626421
.9614838 0 .4416964
0 .2207977 .4762806
.1457445 .2093051 .4766696
.476123 .1943415 .4763442
.7203442 .1878968 .4557946
.9614823 .1179245 .4336424
0 .5330138 .4609073
0 .5322704 .4569046
.4415425 .5224568 .4398021
.7081835 .5085111 .4436402
.958098 .4876706 .4175027
0 .7990737 .3670577
0 .7984786 .3600233
.3475739 .7973591 .350145
.6893945 .7941304 .3479973
.9627295 .7786337 .3262356
0 .9950724 .2583727
0 .9951378 .2528657
.2312646 .9956898 .2348422
.6449397 .9951106 .2320312
.9475823 .993264 .2570885
0 0 .7100131
.1897131 0 .7106457
.4526145 0 .7126283
.7118009 0 .7117369
.9599305 0 .7024809
0 .1818377 .7124387
.07514287 .167028 .7131505
.439227 .1155876 .7145678
.7138489 .08723532 .7141476
.9651064 0 .6996155
0 .4894453 .7135482
0 .4836395 .7137856
.3722622 .4675742 .7123455
.7117699 .4579077 .7119281
.9663823 .4523702 .6881817
0 .7996484 .6928774
0 .7991942 .6909128
.2744126 .7978594 .6836816
.6653508 .7898871 .6668938
.9538345 .7736807 .6724173
0 .9983935 .6321219
0 .9984058 .6277062
0 .9980903 .6145263
.6067513 .9980934 .6090911
.9459769 .9974487 .6154619
0 0 .9486478
.1412575 0 .949042
.4294243 0 .9503605
.6902915 0 .9506854
.9497374 0 .949848
0 .08389357 .9504066
0 .03747179 .950835
.4007015 0 .951977
.6824064 0 .952617
.9512876 0 .9520741
0 .4338687 .9520928
0 .4255156 .9524309
.2967021 .4035363 .9536645
.655284 .3806168 .955503
.9558749 .3704439 .9567865
0 .759978 .9532586
0 .7579349 .9536331
.07074275 .7522198 .9533319
.6153148 .742231 .9526063
.9546918 .7371343 .9544867
0 .9979891 .9496965
0 .9980269 .9500063
0 .9990667 .9501228
.6058134 .9999999 .9486076
.945602 .9976055 .9487953
