luts/Timeless 17.cube
# 3D LUT of size 33x33x33 converted by Filestar.
#   Input:
#     color space: sRGB
#     white point: default (D65)
#     transfer function: default (sRGB)
#   Output:
#     color space: sRGB
#     white point: default (D65)
#     transfer function: default (sRGB)
#   Exposure: +0.53999996
#   Contrast: +23
#   Whites: +8
#   Blacks: -20
#   Vibrance: +5
LUT_3D_SIZE 33
0 .00158175 .00933342
0 .00628197 .00210192
.01661075 .00578557 0
.09816226 0 .00392921
.1490124 0 .00367313
.1938751 0 .00440664
.2382776 0 .00000179
.281977 0 0
.3243251 0 0
.3653019 0 0
.4060535 0 0
.4452023 0 0
.483171 0 0
.5208542 0 0
.5577259 0 0
.5941542 0 0
.6293336 0 0
.6634142 0 0
.696726 0 0
.7289393 0 0
.7601976 0 0
.7900405 0 0
.8186786 0 0
.8462043 0 0
.8726932 0 0
.8980069 0 0
.9221315 0 0
.9451988 0 0
.9674256 0 0
.9889175 0 0
.9999999 0 0
.9999999 0 0
.9999999 0 0
0 .02195477 .01063196
0 .03168501 .00328539
.01112496 .03259493 .00154525
.09510212 .02092517 .00604916
.1461226 .01420277 .00388159
.1931259 .00896277 .00262862
.2392126 .00997089 0
.2826355 .01229201 0
.3245721 .01814846 0
.3659831 .02257323 0
.4063911 .02302734 0
.4454581 .02267568 0
.4834432 .02246094 0
.521243 .018743 0
.5580999 .01572019 0
.594483 .00612836 0
.6296563 0 0
.6636617 0 0
.6968445 0 0
.729044 0 0
.760299 0 0
.7901086 0 0
.8187222 0 0
.8462164 0 0
.8727108 0 0
.898031 0 0
.9221648 0 0
.9452439 0 0
.9674709 0 0
.9889705 0 0
.9999999 0 0
.9999999 0 0
.9999999 0 0
0 .05930696 .00095073
0 .06367592 0
.0053789 .0639272 0
.09443792 .05567173 .00325464
.1479718 .0516083 .00154182
.1956629 .0523131 0
.2403057 .05408222 0
.2833433 .0585193 0
.3252884 .06259434 0
.366649 .06399312 0
.4067441 .06448085 0
.4457465 .06430179 0
.4839121 .06302616 0
.5216815 .06040554 0
.5585212 .05841918 0
.5948538 .05091007 0
.6300204 .0422859 0
.6637198 .03226034 0
.6969776 .0285196 0
.7291484 .02464946 0
.7604217 .02255595 0
.7901851 .01976719 0
.8187715 .01796648 0
.8462602 .01566583 0
.8727306 .01190373 0
.8980648 .00731201 0
.9222079 0 0
.9452947 0 0
.9675255 0 0
.9890298 0 0
.9999999 0 0
.9999999 0 0
.9999999 0 0
0 .1016468 0
0 .1017388 0
.00974179 .1021012 0
.09765556 .09708732 0
.1500837 .09457725 0
.197611 .09594535 0
.241431 .09829058 0
.2842315 .1011328 0
.3264953 .1018642 0
.3674826 .1024149 0
.407254 .1029084 0
.4461577 .1028978 0
.4845772 .1009581 0
.5223069 .09932341 0
.5591222 .09831376 0
.5953828 .09374738 0
.6302249 .08993783 0
.6639188 .08539411 0
.6971474 .08377147 0
.7292453 .08212822 0
.7605501 .08087798 0
.7902901 .0791024 0
.8188418 .07808515 0
.8463274 .07665359 0
.8727681 .07458582 0
.8981497 .07136843 0
.9222425 .06403168 0
.94537 .0604847 0
.9676031 .0602785 0
.9891148 .05889477 0
.9999999 .05719898 0
.9999999 .05719898 0
.9999999 .05719898 0
0 .1397383 0
0 .1390886 0
.01527292 .139646 0
.1013074 .136206 0
.152633 .1362121 0
.1991022 .1369015 0
.2430577 .138069 0
.2857246 .1386983 0
.3275725 .1390604 0
.3684444 .1390606 0
.4080179 .1394713 0
.4469693 .1390864 0
.4854517 .137228 0
.5231403 .1361161 0
.5597633 .1360497 0
.595619 .1339392 0
.6303567 .131528 0
.6641361 .1293522 0
.6972747 .1285149 0
.7293766 .12786 0
.7606735 .1269613 0
.7904 .1257404 0
.8189356 .1251528 0
.8464434 .1241033 0
.8728712 .1229086 0
.898182 .120336 0
.9222894 .1160977 0
.9454772 .1149377 0
.9677069 .1148173 0
.9892311 .1139358 0
.9999999 .1130419 0
.9999999 .1130419 0
.9999999 .1130419 0
0 .1758598 0
0 .1756101 0
.03285855 .1763724 0
.1070498 .1748599 0
.1564914 .1744507 0
.2013829 .1744115 0
.2445305 .1745822 0
.2866282 .1751062 0
.3288418 .1751204 0
.3696146 .1747772 0
.4090586 .1750366 0
.4482428 .1740032 0
.4864246 .1730788 0
.5236155 .1732491 0
.5599678 .1735836 0
.5957695 .1725832 0
.630448 .1712817 0
.6643321 .1701154 0
.6974724 .1694082 0
.7295584 .1690614 0
.7608076 .1685169 0
.7905511 .1675572 0
.8191174 .16699 0
.8466399 .1661344 0
.8730221 .1654349 0
.8982357 .1636659 0
.9223794 .1604872 0
.9456127 .1603485 0
.9678382 .1602623 0
.9893779 .1595562 0
.9999999 .1590647 0
.9999999 .1590647 0
.9999999 .1590647 0
0 .2109224 0
0 .2112274 0
.04748622 .2114411 0
.1087989 .2110656 0
.1602418 .210023 0
.2046331 .2095191 0
.2472007 .2096682 0
.2887555 .2101247 0
.3303243 .210357 0
.370988 .2102304 0
.4104432 .2099526 0
.4489626 .2098479 0
.4867576 .2098505 0
.5238695 .2103706 0
.5601292 .2109728 0
.5958471 .2106356 0
.6305379 .2095531 0
.6644572 .208675 0
.6977095 .2082689 0
.7298447 .2079505 0
.7610311 .2074617 0
.7907073 .2075484 0
.8193274 .2066706 0
.8468607 .2057432 0
.8732397 .2051789 0
.8983335 .2038109 0
.9225429 .2021326 0
.9457777 .202009 0
.9680058 .2019127 0
.9895191 .2014594 0
.9999999 .2010775 0
.9999999 .2010775 0
.9999999 .2010775 0
0 .2453199 0
0 .2449692 0
.0646518 .2446822 0
.1218606 .2439778 0
.1667522 .2439012 0
.2084605 .2440355 0
.2496959 .2444459 0
.2906203 .2451397 0
.3310927 .2457621 0
.3716711 .2458112 0
.410909 .246229 0
.4493638 .2462512 0
.4871144 .2466434 0
.5240477 .247143 0
.5603131 .2476732 0
.595887 .2475673 0
.6305534 .2467646 0
.664777 .2461166 0
.6980802 .2457309 0
.7303407 .2454675 0
.7613196 .2450998 0
.791054 .2448959 0
.8196558 .2443581 0
.847111 .2438566 0
.8733813 .2430742 0
.8985296 .2419609 0
.9228168 .2414165 0
.9459673 .241572 0
.9681876 .2415203 0
.9896935 .2409733 0
.9999999 .2407991 0
.9999999 .2407991 0
.9999999 .2407991 0
0 .2799452 0
.00426731 .2797199 0
.06958908 .2795665 0
.1283002 .2786769 0
.1692216 .279235 0
.2100953 .2795925 0
.2503096 .2803183 0
.2902899 .2815357 0
.3312401 .2818866 0
.3717228 .2818614 0
.4110321 .2822808 0
.4495667 .2823765 0
.4875003 .2826469 0
.5243984 .2831646 0
.5605727 .2834819 0
.5959966 .2833467 0
.630856 .2830351 0
.6652681 .2826806 0
.6985821 .282487 0
.7307547 .2822744 0
.7616411 .2819461 0
.7913963 .2816125 0
.8200492 .2812596 0
.8473382 .2810998 0
.8735807 .2800768 0
.8988683 .2799094 0
.9231912 .279313 0
.9463022 .2792939 0
.96844 .2796379 0
.9898356 .2795825 0
.9999999 .2791344 0
.9999999 .2791344 0
.9999999 .2791344 0
0 .3150278 0
.01083134 .3149614 0
.07436501 .3148438 0
.1258471 .314743 0
.1708598 .3149377 0
.2114219 .3151704 0
.2515634 .3156799 0
.2917406 .3165215 0
.3325541 .3166691 0
.3726204 .3167146 0
.4112484 .317515 0
.449717 .3178616 0
.4877997 .3182969 0
.5248227 .3185298 0
.5608779 .3187357 0
.5963366 .3189837 0
.6313492 .319024 0
.6657819 .3188324 0
.6990693 .3186232 0
.731071 .3183785 0
.7619495 .3181187 0
.7916982 .3178552 0
.8203192 .3176291 0
.8476676 .3169925 0
.8739027 .3166297 0
.8992344 .316974 0
.9235445 .3163779 0
.9466233 .3165697 0
.9687915 .316688 0
.9901438 .3162071 0
.9999999 .3158173 0
.9999999 .3158173 0
.9999999 .3158173 0
0 .350969 0
.01231708 .3510083 0
.07451441 .3509174 0
.1255272 .3507729 0
.170711 .3508397 0
.2110716 .3512141 0
.2522132 .3514755 0
.2932564 .351523 0
.3343262 .3512769 0
.3745259 .3509906 0
.4136972 .3510348 0
.45048 .3531834 0
.4881053 .3537811 0
.5250206 .3539545 0
.561457 .3542486 0
.5969492 .3543978 0
.6319256 .3545205 0
.6663592 .3543334 0
.6995711 .3541512 0
.7314168 .3539121 0
.762277 .3536834 0
.7920097 .3534513 0
.8205612 .3529786 0
.8479533 .3525516 0
.8742576 .3530652 0
.8994995 .3535137 0
.9238676 .3528177 0
.9469208 .3530596 0
.9690617 .3527665 0
.9903844 .3522956 0
.9999999 .3518646 0
.9999999 .3518646 0
.9999999 .3518646 0
0 .385948 0
.01953455 .3858801 0
.07948069 .385804 0
.1284783 .3857523 0
.1730163 .3858465 0
.2114743 .3865412 0
.2528969 .3866066 0
.2941602 .3865517 0
.3349777 .3863989 0
.3749787 .386424 0
.4142084 .3865992 0
.4527392 .387051 0
.4888372 .3883764 0
.5255287 .388775 0
.5618101 .389065 0
.5975161 .3893559 0
.6327787 .3893666 0
.6669415 .389195 0
.6999105 .388951 0
.7317988 .3887435 0
.762639 .3885398 0
.7923128 .3881849 0
.820762 .3882073 0
.8481745 .3887359 0
.874549 .3890795 0
.8998153 .389293 0
.9242327 .3879801 0
.947203 .38806 0
.9693325 .3879651 0
.990581 .3877679 0
.9999999 .387453 0
.9999999 .387453 0
.9999999 .387453 0
0 .4208926 0
.00946638 .4209119 0
.07154407 .4209336 0
.1227914 .420949 0
.1693573 .4209368 0
.2103047 .4213335 0
.2523375 .4213759 0
.2939552 .421396 0
.3353077 .4213537 0
.3752825 .4214161 0
.4145989 .4216153 0
.4530045 .4218657 0
.4901862 .4220382 0
.5263865 .4228742 0
.5624145 .423302 0
.5980579 .4236217 0
.6333522 .4236452 0
.6675128 .4236282 0
.7002453 .4232742 0
.7321618 .4230471 0
.7629429 .4228961 0
.7925065 .4231161 0
.8209926 .4235894 0
.8483629 .4240467 0
.8747225 .4242583 0
.9000722 .4241749 0
.9244806 .4227259 0
.9474346 .4225451 0
.9695602 .4224846 0
.9907982 .4223246 0
.9999999 .4222045 0
.9999999 .4222045 0
.9999999 .4222045 0
0 .4554003 0
0 .4554008 0
.05728513 .4554147 0
.1150593 .4554446 0
.1642784 .4554843 0
.2100968 .4555349 0
.2515042 .4559662 0
.293096 .4560716 0
.3347444 .4558963 0
.3755071 .4557517 0
.4149742 .4558436 0
.4531973 .4558927 0
.4907414 .4561122 0
.5274765 .4563581 0
.5633302 .4566951 0
.5989108 .4572306 0
.6337379 .4574702 0
.6676087 .4575481 0
.7004988 .4574324 0
.7324144 .4573416 0
.7630594 .4576072 0
.79271 .4578414 0
.8211966 .458219 0
.8485425 .4584028 0
.8748882 .4583968 0
.9001766 .4582248 0
.9246914 .4568346 0
.9476994 .4566453 0
.9698049 .4563232 0
.9910427 .4561425 0
.9999999 .4561159 0
.9999999 .4561159 0
.9999999 .4561159 0
0 .4893761 0
0 .4893932 0
.04256617 .4894123 0
.1073248 .4894396 0
.1590309 .4894683 0
.2062616 .4894979 0
.2506054 .4895995 0
.2911374 .4900277 0
.3330825 .4899465 0
.3749451 .489709 0
.4148753 .4896008 0
.4532072 .4896745 0
.4909241 .489881 0
.5277253 .4901016 0
.5643992 .4899535 0
.5996271 .4905088 0
.6340451 .4910828 0
.6676363 .4909731 0
.7003139 .4914603 0
.7324473 .4916155 0
.7633055 .4918781 0
.792845 .4920191 0
.8213076 .4920166 0
.8486981 .4917492 0
.8750734 .4914563 0
.9003572 .4912558 0
.9248011 .4901078 0
.9479843 .489722 0
.9701436 .4894845 0
.9912724 .489195 0
.9999999 .4891194 0
.9999999 .4891194 0
.9999999 .4891194 0
0 .5227979 0
0 .5228136 0
.02643464 .5228312 0
.09969199 .5228564 0
.1540191 .5228899 0
.2024876 .5229324 0
.2478322 .5229892 0
.2901313 .5232449 0
.3314181 .5234689 0
.3727986 .5234124 0
.4144472 .5230803 0
.45312 .5231426 0
.4906631 .5233095 0
.5275698 .5235425 0
.5645827 .5233714 0
.6004626 .523234 0
.6343886 .523559 0
.6675661 .5242582 0
.7004997 .5245203 0
.7322614 .5250062 0
.7633144 .5246643 0
.7931988 .5242417 0
.8216172 .5239878 0
.8489796 .5237008 0
.8753559 .5233753 0
.9006669 .5230546 0
.9248721 .5227483 0
.9480603 .5225395 0
.970372 .5220498 0
.9914541 .5217872 0
.9999999 .5217486 0
.9999999 .5217486 0
.9999999 .5217486 0
0 .5553041 0
0 .5553215 0
.01406851 .555341 0
.09281426 .5553526 0
.149288 .5553785 0
.199015 .5554569 0
.2455615 .5555559 0
.2901455 .5556521 0
.3310699 .5560308 0
.3720969 .5559973 0
.412689 .555828 0
.453144 .5555447 0
.4908572 .5556621 0
.5279434 .5557055 0
.5647316 .5555755 0
.6006083 .5552323 0
.6351188 .555283 0
.6680424 .5560924 0
.7005523 .5567341 0
.732457 .556787 0
.7631688 .5566092 0
.7929111 .5563298 0
.8215391 .5560633 0
.8491302 .5558296 0
.8754217 .5555661 0
.9006543 .5553413 0
.9247726 .5550537 0
.9480069 .5547357 0
.9703893 .5543085 0
.9917106 .5539549 0
.9999999 .5539023 0
.9999999 .5539023 0
.9999999 .5539023 0
0 .586476 0
0 .5864893 0
.01108206 .5865067 0
.09173872 .5865372 0
.149109 .5865815 0
.1991472 .5866398 0
.2458047 .586713 0
.2903688 .5868014 0
.3317178 .5871003 0
.3724492 .5872263 0
.412082 .5871675 0
.451763 .5870794 0
.4910006 .5869485 0
.5284322 .5870972 0
.5648647 .5872916 0
.6006494 .5871181 0
.6354736 .5868534 0
.6686114 .5871902 0
.7009456 .587699 0
.7323762 .5880768 0
.7631685 .5878446 0
.7926501 .5876057 0
.8213401 .5873595 0
.8489612 .5871545 0
.8754207 .58688 0
.9006429 .5866637 0
.9247423 .5864537 0
.9480956 .5862244 0
.9705831 .5860972 0
.9918473 .5860538 0
.9999999 .5856685 0
.9999999 .5856685 0
.9999999 .5856685 0
0 .6170387 0
0 .6170565 0
.00792515 .6170793 0
.0904028 .6171116 0
.1484082 .617155 0
.1988097 .6172124 0
.2455835 .617267 0
.2899325 .617338 0
.3326924 .6174223 0
.3723758 .6178151 0
.4121179 .6178197 0
.4517315 .6177934 0
.4912514 .6178326 0
.5293326 .6178522 0
.5653634 .6180367 0
.6006496 .6181455 0
.6354667 .6177404 0
.6691112 .6175346 0
.7013701 .6177255 0
.7326534 .6181713 0
.7629835 .6184966 0
.792708 .6182692 0
.8210794 .6179053 0
.8485786 .6176016 0
.8750252 .6173471 0
.9003892 .6171073 0
.924707 .6171631 0
.9482055 .6170716 0
.970617 .616959 0
.9918204 .6168261 0
.9999999 .6167349 0
.9999999 .6167349 0
.9999999 .6167349 0
0 .6468156 0
0 .6468301 0
.00599213 .6468474 0
.08954185 .6468725 0
.1480104 .6469058 0
.1984991 .6469477 0
.245342 .6470161 0
.2901606 .6471339 0
.3333885 .6472646 0
.3744698 .6475299 0
.4136662 .6477425 0
.4529983 .64776 0
.4911483 .6478455 0
.5292509 .6478061 0
.5659313 .6477049 0
.6011339 .6476788 0
.6357981 .647351 0
.6695684 .6471176 0
.7019733 .6471695 0
.7328926 .6475379 0
.7629877 .647895 0
.7922955 .6480927 0
.8208686 .6477969 0
.8484607 .6472943 0
.8746502 .647204 0
.9001065 .6471006 0
.9244985 .6470347 0
.9481824 .6469053 0
.9707116 .6468309 0
.9918422 .6468465 0
.9999999 .6468453 0
.9999999 .6468453 0
.9999999 .6468453 0
0 .6757818 0
0 .6758009 0
.01266555 .6758226 0
.0935858 .6758659 0
.1509202 .6759266 0
.2007762 .6760153 0
.2471293 .676126 0
.2914507 .6762566 0
.3342951 .676407 0
.3759967 .6765403 0
.4149089 .6769791 0
.4534997 .6769141 0
.4915162 .6768264 0
.5285344 .6768306 0
.5663258 .6764826 0
.6016576 .6764234 0
.636205 .67622 0
.6700584 .6759858 0
.7022877 .6760364 0
.7333317 .6760986 0
.7631836 .6763531 0
.7923828 .6766806 0
.8207492 .6766987 0
.8482355 .6766426 0
.8749323 .6761721 0
.900003 .676263 0
.9244894 .6761705 0
.9482197 .6760525 0
.9706441 .675823 0
.9920045 .6757087 0
.9999999 .6759146 0
.9999999 .6759146 0
.9999999 .6759146 0
0 .7043815 0
0 .7044059 0
.01292219 .7044336 0
.09394439 .7044728 0
.1511248 .7045186 0
.2010961 .7045758 0
.2473368 .7046984 0
.2915018 .7047873 0
.3343804 .7048048 0
.3762117 .7048608 0
.4162348 .7049606 0
.4537145 .7051229 0
.4916366 .70501 0
.5286328 .7049531 0
.5652235 .7048929 0
.6017998 .7046832 0
.636402 .7044893 0
.6701947 .7042244 0
.7023991 .7042661 0
.7336244 .704071 0
.7639752 .7038437 0
.7928642 .7042015 0
.8208622 .7048755 0
.8483232 .7049105 0
.8747204 .7049229 0
.9002941 .704554 0
.9248256 .7043203 0
.9482321 .7042325 0
.9705657 .7040091 0
.9917641 .7039433 0
.9999999 .7040122 0
.9999999 .7040122 0
.9999999 .7040122 0
0 .7321166 0
0 .7321138 0
.01042202 .732107 0
.09261341 .7320976 0
.1503504 .7321 0
.2004932 .7321199 0
.2468272 .7321626 0
.2916569 .7321101 0
.3345202 .7321182 0
.3759925 .7321468 0
.4161745 .7323338 0
.4539793 .7325814 0
.4917299 .7324669 0
.5288262 .7323064 0
.564816 .7323245 0
.6009021 .7321036 0
.6365776 .7317461 0
.6702666 .7315007 0
.70258 .7314298 0
.7339984 .731228 0
.7644759 .7311633 0
.793739 .731208 0
.821592 .731654 0
.8484626 .7322962 0
.8749707 .7322857 0
.9003684 .7322336 0
.9250722 .7318435 0
.9482371 .7314733 0
.9702587 .7315446 0
.9915743 .7314047 0
.9999999 .7313334 0
.9999999 .7313334 0
.9999999 .7313334 0
0 .7589905 0
0 .7589757 0
0 .7589589 0
.08660097 .758935 0
.1468957 .7589031 0
.1984377 .7588413 0
.2457387 .7587523 0
.2907375 .7586773 0
.3340559 .7586574 0
.3754617 .758673 0
.4157641 .7586816 0
.453755 .7589086 0
.4919651 .7588045 0
.5290357 .7586519 0
.5651624 .7586253 0
.6005681 .7586014 0
.63623 .7582912 0
.6703649 .7580478 0
.7029123 .7579412 0
.7345735 .7578048 0
.7649652 .7578067 0
.7942455 .7578193 0
.8224686 .7579117 0
.8493098 .7582904 0
.8753152 .7587171 0
.9006667 .7586707 0
.9247505 .7586746 0
.9479929 .7585021 0
.9702469 .7581844 0
.9914274 .7580081 0
.9999999 .7578261 0
.9999999 .7578261 0
.9999999 .7578261 0
0 .7847282 0
0 .7847139 0
0 .7846972 0
.08090534 .7846739 0
.1428067 .7846363 0
.1950074 .784574 0
.2429788 .7844992 0
.2884149 .784411 0
.3321487 .7843037 0
.3743893 .7842003 0
.4151591 .7841557 0
.4546028 .7842212 0
.4919589 .7843788 0
.5292498 .7842308 0
.5655283 .7841505 0
.6009739 .7841318 0
.6356186 .7842124 0
.6705751 .7839185 0
.7033299 .7837851 0
.7348956 .7837273 0
.765442 .7837027 0
.7948204 .7836474 0
.8230255 .7836711 0
.850158 .7837303 0
.8759183 .784045 0
.9005203 .7844571 0
.9246228 .7844569 0
.947802 .7844359 0
.9700446 .7843262 0
.9913337 .7837593 0
.9999999 .7833526 0
.9999999 .7833526 0
.9999999 .7833526 0
0 .8095919 0
0 .809575 0
0 .8095553 0
.07129816 .8095252 0
.1377424 .8094853 0
.1915188 .8094347 0
.2403372 .8093612 0
.2863495 .8092717 0
.3303306 .8091769 0
.372804 .8090736 0
.4141744 .8089607 0
.4542708 .8089004 0
.4930815 .8088942 0
.5293573 .8089936 0
.5657349 .8089991 0
.6014338 .8091041 0
.6360658 .8092229 0
.6697544 .8092065 0
.7037312 .8089104 0
.7353245 .8088422 0
.7658032 .8087763 0
.7952186 .8087518 0
.8235291 .8086995 0
.8505447 .8087143 0
.8764091 .80883 0
.900924 .8089901 0
.924524 .809432 0
.9476423 .8092752 0
.9698516 .8090099 0
.991102 .8087487 0
.9999999 .8082963 0
.9999999 .8082963 0
.9999999 .8082963 0
0 .8336253 0
0 .8336073 0
0 .8335873 0
.06490022 .8335584 0
.1343076 .8335202 0
.1891232 .8334719 0
.2384074 .833415 0
.2845814 .8333478 0
.3287953 .8332597 0
.3715267 .8331611 0
.413191 .833055 0
.4536898 .8329467 0
.4929659 .8329432 0
.5296265 .8331406 0
.5663605 .8331531 0
.6019978 .8333283 0
.6363514 .833431 0
.6696563 .8335927 0
.7028871 .8335204 0
.7354662 .8332187 0
.7660552 .833188 0
.7954769 .8331262 0
.8236586 .8330852 0
.8508577 .8330507 0
.8765736 .8330225 0
.9011239 .8330457 0
.9249554 .8328829 0
.9475005 .8331202 0
.9696665 .8328644 0
.9909227 .8326129 0
.9999999 .832384 0
.9999999 .832384 0
.9999999 .832384 0
0 .8568587 0
0 .8568416 0
0 .8568221 0
.05813069 .8567944 0
.1307859 .856759 0
.1864791 .8567207 0
.2362214 .8566744 0
.2827617 .85662 0
.3272914 .8565648 0
