luts/Timeless_5.cube
# 3D LUT of size 33x33x33 converted by Filestar.
#   Input:
#     color space: sRGB
#     white point: default (D65)
#     transfer function: default (sRGB)
#   Output:
#     color space: sRGB
#     white point: default (D65)
#     transfer function: default (sRGB)
#   Exposure: -0.01
#   Contrast: -20
#   Whites: -20
#   Blacks: -11
#   Vibrance: +34
LUT_3D_SIZE 33
.0258329 .01629493 .01645713
.04452681 .01411636 .01707042
.06215184 .01159917 .01752979
.08350884 .00713235 .01710143
.1157066 0 .01409318
.1421556 0 .01273724
.1669745 0 .01182684
.1963873 0 .00943331
.2258927 0 .00679277
.2559384 0 .00185131
.2864641 0 0
.3193192 0 0
.3521802 0 0
.3838716 0 0
.415636 0 0
.447008 0 0
.4781196 0 0
.5090354 0 0
.539543 0 0
.5695682 0 0
.5994928 0 0
.6294063 0 0
.6590406 0 0
.6886703 0 0
.7187158 0 0
.7489026 0 0
.779296 0 0
.8098334 0 0
.8402808 0 0
.8706721 0 0
.9008882 0 0
.9313526 0 0
.9619653 0 0
.01692889 .02183366 .01958855
.03595063 .0196823 .0192265
.05808739 .01748113 .01897762
.0857575 .01224762 .0177505
.1170228 .0001286 .01345781
.1426141 0 .01029039
.1674584 0 .00754544
.196734 0 .00565383
.226887 0 .00210057
.2562324 0 0
.2887013 .00051332 0
.3212935 .00171833 0
.3534905 0 0
.3851514 0 0
.4164953 0 0
.4475847 0 0
.4785187 0 0
.5092806 0 0
.5396992 0 0
.5695662 0 0
.5994729 0 0
.629389 0 0
.6589803 0 0
.6887129 0 0
.7187637 0 0
.7489315 0 0
.7792712 0 0
.8098124 0 0
.8402864 0 0
.8706927 0 0
.9009058 0 0
.9313159 0 0
.9619619 0 0
.01591466 .03922392 .02023099
.0373317 .03988286 .01903547
.06251413 .03987282 .01747794
.08949883 .03748002 .01369913
.1173706 .03338891 .00824009
.1430172 .029756 .00535658
.1682681 .03574196 .00287079
.1973662 .03643321 .00328079
.2276691 .03637921 .00284259
.2591821 .03662395 .00008551
.290863 .0403951 0
.3229272 .04120376 0
.3550359 .03654117 0
.3861079 .03022136 0
.417076 .02616121 0
.4479537 .02008725 0
.478805 .0135769 0
.5095016 .01097791 0
.539714 .00903285 0
.569572 .00441423 0
.59943 .00030408 0
.6293212 0 0
.6589176 0 0
.6886905 0 0
.718751 0 0
.7489147 0 0
.7792503 0 0
.8097821 0 0
.8402926 0 0
.8706809 0 0
.9009289 0 0
.9312487 0 0
.9619597 0 0
.00321164 .08237118 .01112985
.03017758 .08195626 .00924894
.05784382 .08132141 .00725082
.08449053 .08128498 .00219513
.1126123 .08219943 0
.1411034 .08196629 0
.1707258 .08077481 .00151225
.1990023 .08402585 .00290927
.2298739 .0836459 .00521142
.2611647 .08362561 .00345628
.2930948 .08217659 0
.3240205 .08158401 0
.3557456 .07765394 0
.3866192 .07328383 0
.417513 .06983211 0
.4483669 .06556185 0
.4791935 .06080837 0
.5095233 .0599968 0
.539733 .05887427 0
.5695441 .05583607 0
.5994108 .05341978 0
.6292983 .04861438 0
.6588095 .04051269 0
.6886585 .03271468 0
.7187401 .02556687 0
.7488835 .01633507 0
.7792195 .00711126 0
.809745 0 0
.8402919 0 0
.8706574 0 0
.900961 0 0
.9312703 0 0
.9619619 0 0
.00068535 .1219517 .0000089
.02976433 .1223392 0
.05897046 .1226911 0
.08849453 .1225289 0
.1170079 .1219585 0
.1450415 .1217577 0
.1728216 .1213123 .00074992
.2027338 .1201629 .00252647
.2308392 .1208982 .00158334
.2612737 .1204996 0
.2926177 .1193605 0
.3248748 .1160077 0
.3561121 .1143506 0
.3870929 .1107299 0
.4180463 .1075236 0
.4486226 .1052425 0
.4790879 .1032566 0
.5095075 .1024152 0
.5397574 .1020928 0
.569614 .100424 0
.5994133 .09872264 0
.6292036 .0964551 0
.6586539 .09151105 0
.6886056 .08771733 0
.7187172 .08332261 0
.748834 .07767875 0
.779163 .07187402 0
.8097333 .06496078 0
.8402771 .0563769 0
.8706136 .04644492 0
.9010059 .03543603 0
.9313193 .02665216 0
.9619691 .00710656 0
.00974507 .1575401 0
.03921736 .157582 0
.06548011 .1572086 0
.09247249 .1567606 0
.1204029 .1562327 0
.1487899 .1555841 0
.1762389 .1550996 0
.2044922 .1543368 0
.2330192 .1533427 0
.2616357 .1548086 0
.2930515 .1533077 0
.3249641 .1512523 0
.3570679 .1482435 0
.3870547 .1471103 0
.4179746 .1448732 0
.4486465 .1430886 0
.4790745 .1421163 0
.5094591 .1412908 0
.5398068 .1403372 0
.5695963 .139168 0
.5994157 .1379077 0
.6291735 .1362739 0
.6585475 .1328939 0
.6885379 .1306477 0
.7186638 .1274106 0
.7487445 .1235596 0
.7790785 .1199301 0
.8096982 .1152866 0
.8402279 .110173 0
.8705487 .1045104 0
.9009379 .09884668 0
.9314579 .09190587 0
.9619505 .08291433 0
.00246395 .1911042 0
.03130538 .19078 0
.06034262 .1903945 0
.08990443 .1898834 0
.1196936 .1891951 0
.1498543 .1883649 0
.1799129 .1875498 0
.2080702 .1871553 0
.2359953 .186974 0
.2655188 .1867207 0
.294082 .1874102 0
.3249443 .1864848 0
.3564061 .1853325 0
.3875146 .1837875 0
.4180698 .1826482 0
.4482458 .1814239 0
.4788412 .1794909 0
.5092481 .1781382 0
.5396014 .1770672 0
.5695496 .1758963 0
.5993832 .174529 0
.6291373 .1729559 0
.6585858 .1704403 0
.6885843 .1687333 0
.7186607 .1662579 0
.7487028 .1635739 0
.779055 .1607658 0
.8096519 .1574346 0
.8401298 .1536683 0
.8704687 .1494951 0
.9008715 .1454202 0
.931384 .1403274 0
.9619264 .1344024 0
0 .2251295 0
.02169309 .2250502 0
.05403581 .2249604 0
.0863331 .2247127 0
.1175266 .2241372 0
.1487491 .2233931 0
.179536 .2227533 0
.2092942 .2218052 0
.2372672 .2222658 0
.2662042 .2228741 0
.2958351 .2226967 0
.3252203 .2227468 0
.3560328 .2216597 0
.3873683 .2207018 0
.4179959 .2191087 0
.4485148 .216939 0
.4780866 .2162118 0
.5087997 .214424 0
.5392643 .2131152 0
.5693363 .2122175 0
.5991249 .2109418 0
.6288017 .2094347 0
.6584294 .207362 0
.688507 .2056511 0
.7185566 .2034732 0
.7486448 .2010207 0
.7790318 .1986059 0
.809596 .1960758 0
.8400123 .1930631 0
.8703773 .1897283 0
.900814 .1859917 0
.9312953 .182173 0
.9618655 .1778588 0
0 .259549 0
.00794473 .2594863 0
.04170398 .2594088 0
.07877002 .259285 0
.113087 .2591178 0
.1456119 .2587166 0
.1774873 .2582161 0
.2106116 .2574062 0
.2394242 .2570299 0
.2672937 .2572258 0
.2958371 .2576707 0
.3265441 .2567745 0
.3560806 .2567891 0
.3869217 .2555924 0
.4177404 .2542221 0
.4479691 .2530065 0
.4785267 .251196 0
.5085745 .2498827 0
.5386177 .2490423 0
.5689957 .2477773 0
.5988151 .2463407 0
.6283591 .2448752 0
.6582239 .2433569 0
.6882909 .241793 0
.7183104 .2401178 0
.748435 .2384224 0
.7788254 .2363282 0
.8093823 .2339908 0
.8397906 .2307927 0
.8702087 .2275219 0
.9006282 .2244636 0
.9310871 .2215651 0
.9617258 .218506 0
0 .2930297 0
0 .2930174 0
.02345688 .2929909 0
.06701946 .2929533 0
.1048165 .2929026 0
.1396404 .2928481 0
.1738844 .2927077 0
.2075378 .2922578 0
.2396049 .2915391 0
.2693899 .2908195 0
.297881 .2906785 0
.3253904 .2911185 0
.3558351 .2905172 0
.3860489 .2903511 0
.4171486 .2891437 0
.4479918 .2878859 0
.4781153 .2868402 0
.5082026 .2855654 0
.5388135 .2837798 0
.5685947 .282947 0
.5982928 .2816246 0
.6279442 .2797808 0
.6579971 .2784375 0
.6879845 .2771036 0
.7180291 .2757792 0
.7482913 .2743964 0
.7786173 .2728491 0
.8090657 .2707599 0
.8394038 .268025 0
.8698599 .2649848 0
.9003237 .2617976 0
.9308343 .2591868 0
.9614746 .2565646 0
0 .3265241 0
0 .3265211 0
0 .3265148 0
.04849362 .3265251 0
.09367085 .3264811 0
.132513 .3263847 0
.1686726 .3262502 0
.2039165 .325989 0
.2372644 .3257831 0
.2681688 .3251705 0
.2980371 .3244178 0
.3266344 .3243371 0
.3548315 .3245113 0
.3855399 .3240477 0
.4158532 .3238322 0
.4474033 .3227037 0
.4781794 .3216321 0
.5082499 .3205102 0
.5381608 .319543 0
.5686895 .3174718 0
.5981779 .3162254 0
.6272442 .3152549 0
.6574495 .3135978 0
.6876502 .3120126 0
.7177408 .3107508 0
.7481371 .3093989 0
.7784142 .3079995 0
.8086045 .3063841 0
.8389715 .304269 0
.8694324 .3016227 0
.8999015 .2988831 0
.9306565 .2960187 0
.9612342 .293436 0
0 .3599532 0
0 .3599393 0
0 .3599235 0
.02530242 .3599008 0
.08067965 .3598633 0
.1237419 .3597469 0
.1624688 .3595384 0
.1980876 .3593485 0
.2323101 .3591366 0
.2648891 .3590603 0
.2953474 .3586703 0
.3257763 .3581339 0
.3557183 .3577793 0
.3843826 .3577219 0
.4154875 .3572001 0
.4459344 .3572307 0
.4773836 .3562549 0
.5083624 .3550725 0
.5382332 .3537129 0
.5679907 .3526821 0
.5976573 .3513535 0
.6277954 .3492748 0
.6572203 .3481461 0
.6867939 .3472287 0
.7173551 .3455001 0
.747893 .3439788 0
.7781765 .3426494 0
.8081663 .3411895 0
.8385413 .3393698 0
.8689628 .3373455 0
.8995562 .3349824 0
.9302386 .332599 0
.9608825 .3305456 0
0 .3933652 0
0 .393352 0
0 .3933112 0
0 .3932444 0
.06351295 .393149 0
.1129938 .3930249 0
.1530414 .3928922 0
.1897887 .3927154 0
.224655 .3925683 0
.2583122 .3924941 0
.2919741 .3923594 0
.3232971 .3920441 0
.3539709 .391589 0
.3844783 .3911731 0
.4141372 .3910727 0
.4457621 .3900582 0
.4763562 .3898567 0
.507794 .3888602 0
.5386415 .3874773 0
.5682039 .3858117 0
.5978814 .3846116 0
.6275856 .3833586 0
.6578292 .3815657 0
.6873564 .380642 0
.7169763 .3799188 0
.7472134 .3787929 0
.7776875 .3770338 0
.8077742 .3754929 0
.8380609 .3738377 0
.8685437 .3723161 0
.8991299 .3705272 0
.9298142 .3687356 0
.9605132 .3664971 0
0 .426685 0
0 .4266421 0
0 .4265934 0
0 .4265235 0
.03513369 .4264476 0
.09568491 .4263527 0
.1407287 .4262346 0
.1803917 .4260835 0
.2161969 .4260022 0
.2515226 .4258383 0
.2864928 .4256472 0
.3199659 .4254078 0
.3516569 .4250195 0
.3826991 .4246181 0
.4134072 .4239118 0
.4438828 .4231322 0
.4748734 .4224103 0
.5059423 .4216481 0
.5371667 .4203956 0
.5678675 .4193109 0
.598346 .4179355 0
.6281035 .4166392 0
.6577725 .4155379 0
.6878923 .414194 0
.7179458 .4132344 0
.7475841 .4123295 0
.7767598 .4117779 0
.8069669 .4100718 0
.8373939 .4084636 0
.8680243 .4073455 0
.8985876 .4056154 0
.9292909 .403713 0
.9600115 .4018236 0
0 .4590927 0
0 .4591017 0
0 .4591124 0
0 .4591135 0
.00350972 .4590406 0
.07763322 .4589478 0
.1287791 .4588509 0
.1703719 .4587611 0
.2091939 .4586424 0
.2456242 .4585121 0
.2807298 .4583895 0
.3159378 .4582148 0
.3491627 .4576293 0
.3810387 .4572753 0
.4122878 .4569647 0
.4430993 .4563898 0
.4741407 .4553326 0
.5043291 .4545848 0
.5350083 .4540109 0
.5668871 .4525539 0
.5978479 .4513736 0
.6283412 .4501715 0
.6583908 .4488825 0
.6887404 .4478412 0
.7190189 .4466335 0
.7486077 .4459457 0
.7776739 .4451942 0
.8068312 .4442796 0
.8365971 .4436875 0
.8674338 .4415817 0
.8982155 .4399423 0
.928934 .438475 0
.9596781 .4367757 0
0 .4910898 0
0 .4910966 0
0 .4911062 0
0 .4911269 0
0 .4911581 0
.06139633 .4911613 0
.1191166 .4910498 0
.1641417 .4909601 0
.204332 .4908744 0
.2418026 .490776 0
.277459 .4906654 0
.313238 .4902944 0
.3484241 .4898281 0
.3801575 .4893328 0
.4115006 .4890449 0
.4426678 .4887805 0
.4734318 .4883513 0
.5037679 .487659 0
.5344457 .4871212 0
.5651492 .4866929 0
.5966799 .4854079 0
.627975 .4839296 0
.6585521 .4829466 0
.6888607 .4818907 0
.7189044 .4810874 0
.7491715 .4796332 0
.778915 .4784405 0
.8085471 .4776067 0
.8379411 .4767135 0
.8674412 .4759179 0
.8977487 .4746238 0
.9285908 .4727998 0
.9593588 .4712642 0
0 .5234131 0
0 .5234117 0
0 .52341 0
0 .5234096 0
0 .5233974 0
.04949945 .5234129 0
.1093798 .5234548 0
.1564753 .523419 0
.1982899 .523338 0
.2368869 .5232499 0
.2740735 .5230654 0
.3101141 .522775 0
.3453625 .5223229 0
.3786895 .5219354 0
.4100698 .5214549 0
.4413505 .5212651 0
.472152 .5210541 0
.5028498 .5209079 0
.5332763 .5205622 0
.5640826 .51985 0
.5954537 .5192788 0
.6266246 .5182432 0
.6580993 .5164914 0
.6886008 .5154148 0
.7185459 .5144378 0
.748502 .5135842 0
.7786357 .5122223 0
.8088381 .5111443 0
.8389241 .5100782 0
.8689095 .5092005 0
.8985862 .5083814 0
.9283365 .5074637 0
.9588992 .5057663 0
0 .5561987 0
0 .5562119 0
0 .5562268 0
0 .5562483 0
0 .5562769 0
.02979123 .5563144 0
.09953517 .5563713 0
.1477984 .5564089 0
.1907488 .5563456 0
.2314674 .5561621 0
.2697354 .5559491 0
.3062878 .5557124 0
.3416576 .5554046 0
.3757755 .5550469 0
.4083955 .5546526 0
.4396271 .5542508 0
.4705545 .5539303 0
.5013297 .5535481 0
.5322845 .5531579 0
.5631358 .552834 0
.5945893 .5519259 0
.6262159 .5513589 0
.6571293 .5503001 0
.6875827 .5488349 0
.7176236 .5478583 0
.7475802 .5467415 0
.7782394 .5458354 0
.8086926 .5449263 0
.8387613 .5441332 0
.8689022 .5431244 0
.8990245 .5420926 0
.9292924 .5409936 0
.9593859 .5398505 0
0 .5887709 0
0 .5887705 0
0 .5887674 0
0 .5887633 0
0 .5887575 0
.00064893 .5887443 0
.08585059 .5887078 0
.1402799 .5886641 0
.1848507 .5886126 0
.2252695 .5885398 0
.2642809 .5883797 0
.3014652 .5881993 0
.3372188 .5879648 0
.3711924 .5877636 0
.4049511 .5875825 0
.437306 .5869512 0
.4688872 .5864461 0
.4999741 .5860636 0
.530955 .5857117 0
.562273 .5852876 0
.5937491 .585004 0
.6252334 .5842906 0
.656278 .5834349 0
.6859439 .5829245 0
.7162539 .5814143 0
.7467719 .5803147 0
.7773526 .5793351 0
.8082302 .5783826 0
.8386109 .5775474 0
.8686351 .5768321 0
.898792 .5759351 0
.9291523 .574927 0
.95952 .5738994 0
0 .6213763 0
0 .6213639 0
0 .6213498 0
0 .6213298 0
0 .621308 0
0 .6212803 0
.06610824 .621246 0
.1284923 .6212053 0
.1761628 .6211572 0
.218046 .6211018 0
.2569414 .6210238 0
.2949613 .6208342 0
.3311831 .6206563 0
.3660226 .620455 0
.3997751 .6202748 0
.4337799 .6199478 0
.4659743 .6192657 0
.4981263 .6187744 0
.5299364 .6183179 0
.5611544 .6179074 0
.5926693 .6174178 0
.623952 .6170565 0
.6549294 .6165193 0
.6856106 .6155263 0
.7151995 .6152481 0
.7456384 .6141779 0
.7765503 .6129209 0
.8069801 .6119 0
.8377231 .6108906 0
.8684284 .6100241 0
.8986475 .6094362 0
.9288907 .6088424 0
.9592877 .6078699 0
0 .6539416 0
0 .6539299 0
0 .6539167 0
0 .6538978 0
0 .6538724 0
0 .6538447 0
.03814248 .6538165 0
.114135 .6537791 0
.165489 .6537314 0
.209206 .6536762 0
.2489495 .6536237 0
.2865177 .6535587 0
.3241002 .6533714 0
.3604088 .6531684 0
.3950232 .6529509 0
.4292723 .6527131 0
.4632934 .6522104 0
.4957405 .651561 0
.5279309 .6510334 0
.5595838 .6504823 0
.5909751 .6500551 0
.6220499 .6497086 0
.6532801 .649284 0
.6845226 .6489182 0
.715291 .6479015 0
.7449207 .6476042 0
.7751993 .6468104 0
.8057586 .6454285 0
.836484 .6445503 0
.8674509 .6436306 0
.8984233 .642893 0
.9286168 .6423348 0
.958997 .6415033 0
0 .6866567 0
0 .6866451 0
0 .6866319 0
0 .6866134 0
0 .6865908 0
0 .6865619 0
0 .6865298 0
.09171478 .6865004 0
.1505581 .6864638 0
.1976909 .6864147 0
.2395902 .6863587 0
.2785283 .6862959 0
.3156488 .6862182 0
.3536714 .6860006 0
.3899647 .6857686 0
.4249438 .6855298 0
.4592279 .6852126 0
.492496 .6845861 0
.5247269 .6840792 0
.5566252 .6836089 0
.5883127 .6831918 0
.6198105 .6828144 0
.6512204 .6824047 0
.6828226 .6820195 0
.7143002 .6815054 0
.7449074 .6801718 0
.7745911 .6799355 0
.8047755 .6797268 0
.8352651 .6787217 0
.8660938 .6776083 0
.8968796 .6767297 0
.9279605 .6760153 0
.9588316 .6753837 0
0 .7193751 0
0 .7193658 0
0 .7193553 0
0 .71934 0
0 .7193788 0
0 .719351 0
0 .7193205 0
.05961234 .7192872 0
.1324294 .719254 0
.1845692 .7192182 0
.2294545 .7191783 0
.2705573 .7191116 0
.3092507 .719045 0
.3461803 .7188928 0
.3837097 .7187181 0
.4192134 .7185165 0
.4539455 .7182905 0
.4879552 .7180345 0
.5210305 .7174506 0
.5532638 .7169818 0
.5851916 .716562 0
.6171205 .7160774 0
.6491544 .7156125 0
.681199 .7150787 0
.7128481 .7147395 0
.7439802 .7144532 0
.774451 .7134867 0
.8044517 .7128966 0
.8344538 .7127792 0
.8649402 .7118684 0
.8956604 .7109131 0
.926958 .7098587 0
.9580193 .7092084 0
0 .7525495 0
0 .752541 0
0 .7525316 0
0 .752518 0
0 .7524053 0
0 .7523884 0
0 .752368 0
.01169901 .7523432 0
.1114933 .7523159 0
.1709702 .7522867 0
.2193077 .7522446 0
.2619478 .7522501 0
.302002 .7521858 0
.3400078 .7521199 0
.3765017 .7520525 0
.4124469 .7519208 0
.4477097 .7517178 0
.4821846 .7515867 0
.5163936 .7512371 0
.5492365 .7506 0
.5814734 .7500983 0
.6139202 .7496912 0
.6462125 .7492524 0
.678591 .7487525 0
.7107651 .7482554 0
.7421926 .747882 0
.7728258 .7476435 0
.8033742 .7466388 0
.8339393 .7457249 0
.8643528 .7454874 0
.8950644 .7449454 0
.9257864 .7439851 0
.9570151 .7430621 0
0 .7853788 0
0 .7853743 0
0 .7853693 0
0 .7853622 0
0 .7853523 0
0 .7853386 0
0 .7853206 0
0 .785289 0
.08584916 .7852496 0
.155017 .7852064 0
.2076096 .7851704 0
.2531121 .7851172 0
.2947129 .785034 0
.333923 .7849319 0
.3708514 .7848456 0
.4058999 .7847917 0
.4415375 .7845228 0
.4768769 .7842967 0
.5116494 .7840812 0
.5457342 .7837002 0
.5784475 .783241 0
.6109445 .782829 0
.6435257 .7823801 0
.6759458 .7818891 0
.7083443 .7813297 0
.7401375 .7808328 0
.7715237 .7804606 0
.8025154 .7802231 0
.8333461 .7794058 0
.8642893 .7782172 0
.8947222 .7778344 0
.9252653 .7775016 0
.9562055 .776802 0
0 .8179836 0
0 .8179743 0
0 .8179638 0
0 .8179486 0
0 .8179284 0
0 .8179026 0
0 .8178707 0
0 .8178326 0
.05571484 .8177877 0
.1396247 .817736 0
.195776 .8176383 0
.2437465 .8176071 0
.2869329 .8175632 0
.3273125 .8174896 0
.3648365 .8174489 0
.4006674 .817429 0
.4360507 .8173802 0
.4719623 .817171 0
.5070183 .8169293 0
.541633 .8166105 0
.5750951 .8161584 0
.6080074 .8157197 0
.6407797 .8152943 0
.6733733 .8148257 0
.7058769 .8143452 0
.7382607 .8138825 0
.7703127 .8134338 0
.8015541 .8131869 0
.8326003 .8128902 0
.8634024 .8121668 0
.8943895 .8109556 0
.9249616 .8106295 0
.9560267 .8103609 0
0 .8505507 0
0 .8505487 0
0 .8505465 0
0 .8505433 0
0 .850539 0
0 .8505337 0
0 .850527 0
0 .8505191 0
.01499502 .8505096 0
.1230803 .8504772 0
.1847145 .8504275 0
.2349449 .8503794 0
.2794798 .8503157 0
.3206186 .8502407 0
.3588581 .8501748 0
.3952643 .8501194 0
.4306726 .8500608 0
.4659715 .8499421 0
.5017273 .8496847 0
.5369086 .8494112 0
.5719218 .8491089 0
.6053478 .8486478 0
.6382943 .8482366 0
.6713436 .8478199 0
.704191 .847382 0
.7367271 .8469367 0
.7686734 .8465332 0
.8005038 .846279 0
.831724 .846049 0
.8627378 .8458189 0
.893649 .8452914 0
.9252241 .8440693 0
.956547 .843637 0
0 .8838355 0
0 .88383 0
0 .8838239 0
0 .8838151 0
0 .8838033 0
0 .8837883 0
0 .8837633 0
0 .8837298 0
0 .8836893 0
