luts/Timeless 22.cube
# 3D LUT of size 33x33x33 converted by Filestar.
#   Input:
#     color space: sRGB
#     white point: default (D65)
#     transfer function: default (sRGB)
#   Output:
#     color space: sRGB
#     white point: default (D65)
#     transfer function: default (sRGB)
#   Exposure: +0.53999996
#   Contrast: +23
#   Whites: +8
#   Blacks: -20
#   Vibrance: +5
LUT_3D_SIZE 5
0 .00158175 .00933342
.3084068 0 0
.6050285 0 0
.846024 0 0
.9999999 0 0
0 .2884084 0
.3159558 .2902361 0
.6067197 .2919214 0
.8472244 .2897593 0
.9999999 .2880172 0
0 .569048 0
.3157409 .5695007 0
.6114083 .5692039 0
.8488772 .5695664 0
.9999999 .5678173 0
0 .8005719 0
.314467 .8001799 0
.6119747 .8000602 0
.850349 .7996064 0
.9999999 .7992556 0
0 .9768942 0
.3050649 .9768162 0
.6117578 .9768307 0
.8491763 .9754822 0
.9999999 .9747857 0
0 0 .31549
.3127973 0 .3183275
.6084827 0 .319812
.8474329 0 .3194027
.9999999 0 .3169029
0 .2898046 .3209184
.3167202 .289376 .3201737
.6082558 .2885917 .3190108
.8483731 .2849236 .3176128
.9999999 .2813303 .314344
0 .5689901 .3143564
.3092738 .5697674 .3137844
.6114843 .5697102 .3141814
.8497088 .5685171 .3132265
.9999999 .5656873 .3109873
0 .8008103 .3033949
.3019429 .800725 .302926
.6102358 .8005156 .3023766
.8522754 .7995969 .3007942
.9999999 .7986225 .3007839
0 .9772407 .2979033
.2937208 .9771822 .2974647
.6079206 .97714 .2987188
.8476396 .976252 .2946331
.9999999 .9746048 .2950147
0 0 .6120324
.3183143 0 .6129661
.6102694 0 .6132564
.849555 0 .6142503
.9999999 0 .6137137
0 .2853716 .6135532
.3130017 .28322 .6138243
.6106377 .2813785 .6140986
.8500528 .2781042 .613521
.9999999 .2721293 .6124611
0 .5680211 .6141179
.3020492 .567826 .6138796
.6142657 .5663638 .6137176
.8485041 .5670358 .6131128
.9999999 .5647004 .6116111
0 .801315 .610151
.2917115 .8010738 .6097563
.6100389 .8001435 .6084157
.8507754 .7999932 .6081123
.9999999 .7986599 .6105872
0 .9768662 .6067344
.2829284 .9764747 .6060415
.6062306 .9762152 .6057577
.8466235 .9759496 .607502
.9999999 .974693 .6032119
0 0 .8498597
.3091958 0 .8502138
.6099115 0 .850296
.8494613 0 .8503593
.9999999 0 .8501634
0 .2799745 .8500501
.3019341 .2784548 .8502123
.607757 .2772991 .8505633
.8501098 .2688587 .8510407
.9999999 .2624385 .8506778
0 .5647943 .8506694
.2901708 .5633773 .8510047
.6072423 .5618327 .8510947
.8502185 .5604866 .8512371
.9999999 .5600688 .8499268
0 .7991558 .8505765
.2904961 .7989759 .8505758
.6067206 .7984672 .850323
.849378 .7977525 .8498189
.9999999 .7982247 .8490779
0 .9769157 .8490229
.2834842 .9763363 .8493212
.6082552 .9758449 .8485306
.846939 .9746531 .849369
.9999999 .9737423 .8477125
0 0 .9999999
.3085802 0 .9999999
.6080546 0 .9999999
.8473246 0 .9999999
.9999999 0 .9999999
0 .2784415 .9999999
.3008999 .2785861 .9999999
.6076298 .274921 .9999999
.8466111 .2694669 .9999999
.9999999 .2653686 .9999999
0 .5606228 .9999999
.2839243 .5579199 .9999999
.6051762 .560266 .9999999
.8464487 .5616111 .9999999
.9999999 .5596737 .9999999
0 .7955263 .9999999
.2860429 .7955355 .9999999
.6054311 .7951309 .9999999
.844748 .7962359 .9999999
.9999999 .7946506 .9999999
0 .9734704 .9999999
.2923872 .9732065 .9999999
.6075153 .9725037 .9999999
.8488188 .972145 .9999999
.9999999 .9748482 .9999999
