luts/Timeless_51.cube
# 3D LUT of size 33x33x33 converted by Filestar.
#   Input:
#     color space: sRGB
#     white point: default (D65)
#     transfer function: default (sRGB)
#   Output:
#     color space: sRGB
#     white point: default (D65)
#     transfer function: default (sRGB)
#   Exposure: +0.9
#   Contrast: +23
#   Whites: +6
#   Blacks: -20
#   Vibrance: +5
LUT_3D_SIZE 33
0 .00152409 .00613534
0 .00397265 0
.05809323 0 .00336148
.1211999 0 .00489074
.1718096 0 .00537712
.218976 0 .00262122
.2653188 0 .00017618
.3109614 0 0
.3543736 0 0
.3974014 0 0
.4387392 0 0
.4783028 0 0
.517047 0 0
.5544918 0 0
.5906652 0 0
.6254247 0 0
.6586127 0 0
.6905692 0 0
.7207863 0 0
.7493206 0 0
.776131 0 0
.8017342 0 0
.8260899 0 0
.8490818 0 0
.8707724 0 0
.891172 0 0
.9104117 0 0
.9285292 0 0
.945579 0 0
.9616038 0 0
.9767649 0 0
.9910874 0 0
.9999999 0 0
0 .04042445 .00441237
0 .05247514 0
.04182002 .04888735 0
.1184238 .03697002 .00531979
.17123 .03523222 .00272261
.2203539 .03654433 0
.2668028 .03966864 0
.311336 .04625665 0
.3554514 .04879021 0
.3980109 .04960899 0
.4391852 .04929261 0
.4788682 .0484482 0
.5177178 .0451211 0
.555125 .04146154 0
.5912317 .03526339 0
.6259509 .02585937 0
.6589825 .01635902 0
.6907554 .01016799 0
.7209231 .00580017 0
.7493905 .00189667 0
.7762491 .00058886 0
.8018387 .00077259 0
.8261779 0 0
.8491641 0 0
.8708521 0 0
.8912576 0 0
.9105182 0 0
.928605 0 0
.9456453 0 0
.961666 0 0
.9768673 0 0
.9911893 0 0
.9999999 0 0
0 .09745481 0
0 .09741258 0
.04469605 .0971776 0
.121605 .09239053 0
.1737708 .09133299 0
.2223301 .09399014 0
.2676086 .09740124 0
.3127305 .09933385 0
.356337 .09933028 0
.3986509 .09990776 0
.4396878 .09994472 0
.4796755 .09816615 0
.5184702 .09643578 0
.5558254 .09450751 0
.5918667 .09177934 0
.6263112 .08758482 0
.6590719 .08282138 0
.690985 .08086238 0
.721015 .07889626 0
.749451 .0768471 0
.7763816 .07590682 0
.801951 .07601299 0
.8262771 .0754742 0
.8492568 .07493661 0
.8709471 .0744466 0
.8913973 .07331241 0
.9106166 .07015667 0
.9286692 .06597716 0
.945716 .06130974 0
.9617757 .05828692 0
.9769827 .05866919 0
.9913051 .05748422 0
.9999999 .05631594 0
0 .1451523 0
0 .1445922 0
.04947869 .1452435 0
.1259587 .1423997 0
.1768654 .142952 0
.2243598 .1440133 0
.2693815 .1449338 0
.3138511 .145636 0
.3575586 .1453328 0
.3997154 .1457345 0
.4407364 .1454086 0
.4808057 .1436682 0
.519536 .1426101 0
.5564808 .1425177 0
.5921353 .1416523 0
.6264865 .1393092 0
.6593493 .1374362 0
.6911886 .1367115 0
.7210281 .1355106 0
.7495589 .1345268 0
.7765572 .1339107 0
.8021115 .1339207 0
.8264216 .1336771 0
.8494361 .1331865 0
.8711569 .1327377 0
.8916018 .1322283 0
.9107549 .1301352 0
.9288259 .1273645 0
.945838 .1249713 0
.9619425 .1246338 0
.9771485 .1241989 0
.9914709 .1235215 0
.9999999 .1229295 0
0 .190405 0
0 .1906521 0
.05796866 .191508 0
.1318308 .189213 0
.180083 .1892285 0
.2263488 .1894507 0
.2708523 .1899949 0
.3154704 .1901523 0
.3591144 .1900638 0
.4013983 .1896579 0
.4422719 .1892309 0
.4816765 .18897 0
.519955 .1891571 0
.5567179 .1893331 0
.5922923 .1892387 0
.6266021 .1882908 0
.6596236 .1873495 0
.691282 .1865964 0
.7211677 .1858116 0
.7497156 .1853896 0
.7767879 .18476 0
.8024022 .1847093 0
.8267195 .1845527 0
.849711 .1842076 0
.8714091 .1839334 0
.891794 .1833476 0
.9109464 .1818843 0
.9290458 .1795096 0
.9460991 .1785247 0
.962216 .1783978 0
.9773785 .1781142 0
.9916566 .1778079 0
.9999999 .1774135 0
0 .2339368 0
.00945717 .2336218 0
.08023293 .2334736 0
.1388914 .2323187 0
.1862397 .2318433 0
.2310388 .2318304 0
.2744335 .2325621 0
.3170826 .2338987 0
.3605202 .2338769 0
.402391 .2341221 0
.4428548 .2342826 0
.4821448 .2346361 0
.5202377 .2352328 0
.5568725 .235434 0
.5925013 .2354536 0
.6267345 .2349755 0
.6598848 .2344089 0
.6913931 .2335765 0
.7214667 .2331268 0
.75005 .2326999 0
.7770258 .2327385 0
.8027262 .2328412 0
.8270762 .2322779 0
.8500344 .2320985 0
.8716954 .2320889 0
.8920581 .2311013 0
.9111943 .2300577 0
.9293382 .2280568 0
.946447 .2279102 0
.9625526 .2276704 0
.9776791 .2275337 0
.9919226 .2273999 0
.9999999 .2270924 0
0 .276282 0
.01582719 .2758979 0
.08659825 .2756406 0
.1428084 .2750997 0
.1889288 .2751975 0
.2327085 .2754416 0
.2755016 .276732 0
.3182513 .2779166 0
.3609281 .2783235 0
.4025513 .2788867 0
.4431112 .2790895 0
.4825894 .2793239 0
.5204756 .2795294 0
.5571066 .279979 0
.5927507 .2801204 0
.6269793 .2801286 0
.6602441 .2794715 0
.6917953 .2790738 0
.7218666 .2788256 0
.7503642 .2784958 0
.7774002 .2781727 0
.8032701 .2779025 0
.8275101 .2780326 0
.8503714 .2783649 0
.8719506 .2776601 0
.8923416 .2768701 0
.9115022 .2761289 0
.9297624 .2749125 0
.9468295 .2747862 0
.9629057 .2745177 0
.9780229 .2745073 0
.9922456 .2744732 0
.9999999 .274375 0
0 .3192469 0
.02184357 .3191462 0
.09028331 .3189579 0
.1457738 .3185992 0
.1906081 .3189408 0
.2341546 .3192474 0
.2773675 .3201136 0
.3208024 .3204658 0
.3631514 .3207076 0
.4029502 .3222521 0
.443315 .3225972 0
.482792 .3228446 0
.521079 .3230542 0
.5575257 .3232819 0
.5930179 .3236213 0
.6274264 .3238775 0
.6606196 .3237498 0
.6921833 .3234924 0
.7221838 .3232376 0
.7506739 .3229824 0
.7777625 .3227371 0
.8036269 .3225245 0
.8280105 .3224396 0
.8507696 .3221964 0
.8723033 .3218346 0
.8926405 .3211791 0
.911866 .32153 0
.9301507 .3202074 0
.947197 .3201667 0
.9632613 .3200885 0
.9783729 .319942 0
.9925938 .3197796 0
.9999999 .3196839 0
0 .3627506 0
.02375784 .3627074 0
.09047023 .3626494 0
.1435919 .3626168 0
.190762 .3628571 0
.2344023 .3631554 0
.2786229 .3632199 0
.3226408 .3631252 0
.3653139 .3629087 0
.4064834 .3628923 0
.4451096 .3645324 0
.4832885 .365829 0
.5212796 .3660219 0
.5582247 .3663935 0
.5937589 .3668148 0
.6282874 .3668499 0
.6610845 .3668537 0
.6925797 .3666321 0
.722559 .3664128 0
.7510307 .3661934 0
.778171 .3659903 0
.8040203 .3657866 0
.8283339 .3653223 0
.8511676 .3651783 0
.8725591 .3648336 0
.8929609 .3651636 0
.912261 .365164 0
.9305187 .3641879 0
.9475248 .3642349 0
.9635376 .3641898 0
.9786351 .3640356 0
.9928423 .3638851 0
.9999999 .3637512 0
0 .4050874 0
.02449883 .4050214 0
.09163886 .4049403 0
.1439572 .404965 0
.1920039 .405045 0
.234108 .4056812 0
.2790375 .4056092 0
.3232197 .4054979 0
.3659208 .4054072 0
.4072684 .4056047 0
.4473699 .4061151 0
.4845799 .4073437 0
.5220928 .4079047 0
.5588341 .4083416 0
.5944799 .4086838 0
.6288912 .4087791 0
.6616473 .4087425 0
.6930044 .4085313 0
.7229775 .4082354 0
.7514095 .4080833 0
.7785732 .4080352 0
.8042101 .4078224 0
.8284178 .4075016 0
.8512862 .4074639 0
.8729376 .4075974 0
.8933512 .4076392 0
.9126817 .4070846 0
.9308888 .4063267 0
.9478684 .4064063 0
.9638618 .4064441 0
.9789134 .4064625 0
.9930544 .40648 0
.9999999 .4064948 0
0 .4468302 0
.00297568 .4468405 0
.07804526 .4468279 0
.1360841 .446777 0
.1873699 .4467096 0
.2326008 .4470392 0
.2781433 .4471753 0
.3227635 .44707 0
.3662755 .4469753 0
.4080312 .4470917 0
.4480562 .4472868 0
.4865857 .4475633 0
.5233626 .4484397 0
.5597711 .4487892 0
.5951841 .4492136 0
.6291406 .4494342 0
.6619684 .4495037 0
.6933659 .4494619 0
.7232513 .4492443 0
.7515324 .4490918 0
.7785954 .4486009 0
.8042513 .4485582 0
.8285596 .4487172 0
.8515059 .4487144 0
.8731727 .4487244 0
.8936239 .4486809 0
.9130512 .4478382 0
.9312053 .4472978 0
.9481754 .4473544 0
.964152 .4474225 0
.9791626 .4474526 0
.9932991 .447468 0
.9999999 .4475474 0
0 .4871046 0
0 .4871257 0
.06414096 .4871496 0
.1281979 .4871836 0
.1820203 .4872167 0
.2317126 .48725 0
.2769984 .4875892 0
.3213714 .4876568 0
.3655788 .4874601 0
.4083037 .4872599 0
.4484724 .4872126 0
.4875485 .4874002 0
.5250191 .4876247 0
.5611172 .487879 0
.595851 .4883642 0
.6296296 .488737 0
.6622003 .4888065 0
.6931771 .4891425 0
.7229828 .4889264 0
.7515625 .4888883 0
.7786705 .4889354 0
.8043622 .4888082 0
.8286747 .4886122 0
.851708 .4883745 0
.8734508 .4881971 0
.8938942 .4881316 0
.9133669 .4872096 0
.9315751 .4870114 0
.9485144 .4867495 0
.9644429 .4868213 0
.9794423 .4869627 0
.9935097 .4870152 0
.9999999 .4869933 0
0 .5258468 0
0 .5258517 0
.05630171 .5258568 0
.1243604 .5258642 0
.1794715 .5258828 0
.2295304 .5259188 0
.2763104 .5260482 0
.3203582 .5263545 0
.3642488 .5263759 0
.4080726 .5260671 0
.449097 .5259639 0
.4880577 .5260565 0
.5255517 .5262159 0
.56178 .5263184 0
.5968767 .5262503 0
.6302075 .5266383 0
.6624121 .5269482 0
.6932536 .5271048 0
.7226336 .5277801 0
.7514468 .5273257 0
.7788765 .526941 0
.8047388 .5267241 0
.8290106 .5264843 0
.8520091 .5262422 0
.8737907 .5259667 0
.8942953 .5257479 0
.9135803 .5255901 0
.931734 .5254993 0
.9487012 .5253506 0
.9646414 .5250906 0
.9796062 .5251542 0
.9936417 .5252387 0
.9999999 .525183 0
0 .562835 0
0 .5628003 0
.05119031 .5628312 0
.1216159 .5628753 0
.1775315 .562934 0
.228602 .5630037 0
.276819 .5630792 0
.3216159 .563374 0
.3648552 .5635021 0
.4070501 .5633759 0
.4491856 .5631321 0
.4883385 .563179 0
.5257843 .5632916 0
.5620587 .5634068 0
.5973901 .5631216 0
.6307439 .562957 0
.6627519 .5634447 0
.6935694 .5638522 0
.7229161 .564352 0
.7514484 .5642994 0
.7785923 .5641923 0
.8044338 .5639631 0
.8289563 .5637345 0
.8521403 .5635257 0
.8739034 .5633175 0
.8943304 .5631354 0
.9135417 .5629591 0
.9316424 .5628041 0
.9486988 .5626541 0
.9646656 .5625207 0
.9797582 .5621972 0
.9936854 .5621116 0
.9999999 .5619699 0
0 .5984396 0
0 .598462 0
.04923671 .5984873 0
.1210312 .598527 0
.1774808 .5985807 0
.2286914 .5986508 0
.2769267 .5987371 0
.3227374 .5988259 0
.3649637 .5991882 0
.406708 .5992343 0
.4473272 .5991772 0
.487678 .5990167 0
.5256991 .5989181 0
.5621489 .5988259 0
.5975889 .5986443 0
.6312445 .5987 0
.6632941 .5988469 0
.6939014 .5991911 0
.7233652 .5995106 0
.7515727 .5999163 0
.7786331 .5997744 0
.8042252 .599542 0
.8287677 .5993382 0
.8519012 .5990762 0
.8737413 .59882 0
.8943319 .5985987 0
.9136903 .5984372 0
.9317529 .5983016 0
.9487897 .5981639 0
.9647827 .5981166 0
.9794982 .5980693 0
.9934914 .5979395 0
.9999999 .5977753 0
0 .6326919 0
0 .6327155 0
.0476772 .6327419 0
.1204965 .6327788 0
.1772906 .6328197 0
.2285786 .6328709 0
.2765164 .6329411 0
.3224028 .6330334 0
.365214 .6333587 0
.4064546 .6333812 0
.4468548 .6331798 0
.4864905 .6331213 0
.5260482 .632844 0
.5627661 .6328226 0
.5980602 .6327956 0
.6317309 .632865 0
.6638269 .6329507 0
.6944055 .6330653 0
.7237747 .6331748 0
.7519696 .6333897 0
.7786997 .633758 0
.8043495 .6336378 0
.8289192 .6330736 0
.8517076 .6329749 0
.8735398 .6328015 0
.8941545 .6325654 0
.9135817 .6323438 0
.9318717 .6321598 0
.9490409 .632031 0
.9649182 .6319523 0
.9796233 .6320391 0
.9936294 .6322455 0
.9999999 .6324217 0
0 .6653829 0
0 .6653932 0
.0469758 .6654048 0
.1201871 .6654229 0
.17716 .6654117 0
.2283012 .6653972 0
.2763707 .6653901 0
.3221433 .6654435 0
.3661657 .6655093 0
.407046 .6657831 0
.4474057 .6657515 0
.4869862 .6656517 0
.5253882 .6656021 0
.5634927 .6653182 0
.5987396 .6652783 0
.6324065 .665304 0
.6645066 .6654314 0
.6951733 .665534 0
.7243485 .665428 0
.7522162 .6655202 0
.7789465 .6658298 0
.8042819 .6661296 0
.8286404 .665946 0
.8518745 .6654494 0
.8736692 .665054 0
.8940254 .6649607 0
.913468 .6647266 0
.9318162 .6646101 0
.9488644 .6645575 0
.9647704 .6645697 0
.9798669 .6647231 0
.994016 .6649318 0
.9999999 .6650705 0
0 .696353 0
0 .6963579 0
.04891418 .6963633 0
.1218474 .696371 0
.1785072 .696384 0
.2289436 .6964242 0
.2765518 .6964726 0
.3221104 .6965196 0
.3661944 .6965418 0
.4090108 .6966029 0
.4480869 .6968724 0
.4875093 .6967557 0
.5255524 .6966915 0
.562934 .6965624 0
.5994056 .6962435 0
.6330524 .6963072 0
.66485 .6965209 0
.6957175 .6964515 0
.7249598 .6962976 0
.7529441 .6961058 0
.7795376 .6960818 0
.8046956 .6965137 0
.8287345 .6967151 0
.8517697 .6965572 0
.8735797 .6963143 0
.8943478 .6959438 0
.9136584 .6958565 0
.931685 .695946 0
.9486898 .6959421 0
.96469 .6959378 0
.9798537 .6958439 0
.9939598 .6959061 0
.9999999 .696059 0
0 .7260256 0
0 .7260348 0
.05042156 .7260411 0
.1214181 .7260551 0
.1775002 .7260736 0
.2277418 .726155 0
.2758759 .7261255 0
.3218244 .7261184 0
.3662636 .7261461 0
.4091577 .7261777 0
.4487479 .7266114 0
.4878517 .726522 0
.5259665 .726395 0
.5623769 .7264099 0
.5985923 .7261413 0
.6331701 .7258474 0
.6649607 .7259756 0
.6958506 .7258709 0
.7255517 .7255892 0
.7536715 .7253854 0
.7802933 .7252647 0
.8054659 .7253171 0
.8290842 .7259107 0
.8518808 .7261795 0
.8737091 .7262068 0
.8943027 .7261602 0
.9136658 .7259595 0
.9318098 .7256733 0
.9486224 .7256097 0
.9643019 .7257419 0
.9795403 .7256404 0
.9938468 .7255605 0
.9999999 .7255228 0
0 .7545602 0
0 .754557 0
.03520478 .7545533 0
.1146402 .754548 0
.1730867 .754541 0
.225336 .7544873 0
.2743853 .7544388 0
.3212823 .7543878 0
.3658554 .754437 0
.4086636 .7544387 0
.448499 .7546662 0
.4880168 .7546197 0
.5259825 .7544572 0
.5625446 .7544202 0
.5977309 .7544065 0
.6325033 .7541168 0
.6650628 .7541031 0
.6961224 .7538853 0
.7259948 .7535491 0
.7543142 .7533374 0
.7808537 .7533433 0
.806067 .7534643 0
.8300352 .7536322 0
.8524117 .7542267 0
.8740327 .7543615 0
.8944102 .7543775 0
.9134272 .7543747 0
.9312364 .7544317 0
.9481797 .7542437 0
.9642243 .7540573 0
.9794719 .7536608 0
.9936203 .7535653 0
.9999999 .7533956 0
0 .781266 0
0 .7812629 0
.02477261 .7812844 0
.1097143 .781279 0
.1699839 .7812542 0
.2231792 .7812182 0
.2726698 .7811753 0
.3196742 .7811252 0
.3647621 .7810653 0
.408031 .7810121 0
.4491755 .7810735 0
.4878117 .7812648 0
.5260159 .7811275 0
.5627804 .7810366 0
.5978168 .7810383 0
.6314479 .7810514 0
.6649258 .7808089 0
.6963446 .7805353 0
.726212 .7803118 0
.7546452 .7802841 0
.7816056 .7802171 0
.8068697 .780329 0
.8307444 .7804747 0
.853348 .7805923 0
.8744036 .7808847 0
.8941484 .7811545 0
.91308 .7812135 0
.9309188 .7812517 0
.9478109 .7811961 0
.9639357 .7810172 0
.9792351 .7805503 0
.993551 .7802597 0
.9999999 .7799767 0
0 .8065757 0
0 .8065689 0
.01130664 .8065608 0
.1041966 .8065463 0
.166804 .8065273 0
.2209296 .806495 0
.2709556 .8064486 0
.3182761 .8063978 0
.3634691 .8063506 0
.4069381 .8062979 0
.4485856 .8062859 0
.4885991 .8062997 0
.5258729 .8064169 0
.5625979 .8063058 0
.5977459 .8063085 0
.6314381 .8063217 0
.6639794 .8063291 0
.6967099 .8060223 0
.726613 .8059642 0
.755001 .8059567 0
.7819348 .8059496 0
.8074483 .8059362 0
.8314309 .805888 0
.8537712 .8059242 0
.8747278 .8060039 0
.894538 .8060498 0
.9128613 .8065135 0
.9306748 .8064827 0
.9475662 .8063828 0
.9637457 .8061882 0
.978981 .8060011 0
.9933308 .8058041 0
.9999999 .8054511 0
0 .8304828 0
0 .8304743 0
.0052861 .8304647 0
.101298 .8304511 0
.1650247 .830433 0
.2196066 .8304102 0
.2697717 .8303849 0
.3171982 .8303453 0
.3625554 .8302998 0
.4061419 .8302491 0
.4479257 .8301568 0
.4879066 .8300977 0
.5254807 .8301606 0
.5621833 .8301024 0
.597549 .8300732 0
.6315493 .8302046 0
.6641086 .8303254 0
.6959144 .8303364 0
.7267165 .8301455 0
.7551348 .8301412 0
.7820917 .8300006 0
.8076266 .8298565 0
.8315766 .8297198 0
.8539333 .829603 0
.8749276 .8296703 0
.8946508 .829787 0
.9132811 .8298358 0
.9308602 .8299718 0
.9474139 .8302101 0
.9635579 .8300225 0
.9787975 .8298423 0
.9931462 .8296693 0
.9999999 .8295186 0
0 .8531374 0
0 .8531157 0
0 .8530915 0
.09863449 .8530609 0
.1633034 .8530467 0
.2181512 .8530353 0
.26853 .8530213 0
.3160655 .8529616 0
.361477 .8528662 0
.4050744 .8527665 0
.4470286 .8526573 0
.487116 .8526019 0
.5254595 .8526394 0
.5619308 .8527571 0
.5977492 .8527823 0
.6317033 .852917 0
.6643659 .8530615 0
.695539 .8532032 0
.7262555 .8529983 0
.7551889 .8527448 0
.7819886 .8526081 0
.8075058 .8524889 0
.8313722 .8523571 0
.8539247 .8522292 0
.8750466 .8521632 0
.8948174 .8521763 0
.9134506 .852232 0
.9310638 .852238 0
.9479545 .8521392 0
.9635584 .8524172 0
.9786169 .8523921 0
.9929693 .8522251 0
.9999999 .8520795 0
0 .8746228 0
0 .8745944 0
0 .8745651 0
.09275318 .8745233 0
.1597745 .874468 0
.2157178 .8743986 0
.2666997 .8743203 0
.314451 .8742656 0
.3600649 .8741859 0
.4038465 .8740894 0
.446143 .8740264 0
.4863968 .8740757 0
.5251342 .874158 0
.5619166 .8742896 0
.5977054 .8742814 0
.6319799 .8743945 0
.6645949 .8745234 0
.6955812 .8745988 0
.7253447 .8746096 0
.7548978 .874148 0
.7820103 .8740346 0
.8073149 .8739303 0
.8311579 .8738042 0
.8537338 .8736428 0
.8749846 .8734952 0
.8949043 .8734023 0
.9135981 .8733949 0
.9311956 .8734425 0
.947993 .8733962 0
.9640774 .8731573 0
.9788393 .8733438 0
.9927965 .8735382 0
.9999999 .8733999 0
0 .8948032 0
0 .8947778 0
0 .8947492 0
.08495324 .8947087 0
.1552562 .894655 0
.2124721 .8945876 0
.2643742 .8945442 0
.3129657 .894447 0
.3592913 .8943917 0
.4034263 .8943711 0
.4456356 .8943774 0
.4862287 .8944082 0
.5250068 .8944922 0
.5623179 .8945642 0
.5976827 .8946306 0
.6319536 .8946303 0
.6645435 .8946938 0
.6956258 .8946869 0
.7253226 .8947083 0
.7540747 .8946075 0
.7819095 .894296 0
.8070977 .8941719 0
.8309652 .8939971 0
.8535053 .8938364 0
.8747616 .8936936 0
.894833 .8935544 0
.913648 .893457 0
.9313719 .8934247 0
.9481168 .8934518 0
.9639768 .8933758 0
.9791272 .8931526 0
.9932351 .8931097 0
.9999999 .8933456 0
0 .9138777 0
0 .9138547 0
0 .9138261 0
.07855823 .9137858 0
.1521455 .9137529 0
.2107372 .9137245 0
.2632926 .9136899 0
.3123531 .9136501 0
.3585796 .9136156 0
.4029419 .9135909 0
.4454148 .9135788 0
.4861603 .9135783 0
.5247681 .9136346 0
.5616121 .9137349 0
.5974297 .9137247 0
.6318405 .913676 0
.6645058 .9136407 0
.6958198 .9136877 0
.725621 .9137349 0
.7538497 .9137161 0
.7811397 .9134311 0
.8069164 .9131891 0
.8307832 .9130303 0
.8532816 .9128872 0
.874545 .9127485 0
.8946233 .9126117 0
.913569 .9124782 0
.9314373 .9123637 0
.948222 .9123123 0
.9639784 .9123118 0
.978913 .9122127 0
.9931846 .9120139 0
.9999999 .9118689 0
0 .9317526 0
0 .9317489 0
0 .9317663 0
.07690551 .9317912 0
.1513696 .9318179 0
.2101813 .9318043 0
.2629023 .9317701 0
.3115597 .9317464 0
.3580251 .931726 0
