luts/Timeless 41.cube
# 3D LUT of size 33x33x33 converted by Filestar.
#   Input:
#     color space: sRGB
#     white point: default (D65)
#     transfer function: default (sRGB)
#   Output:
#     color space: sRGB
#     white point: default (D65)
#     transfer function: default (sRGB)
#   Exposure: +0.71
#   Contrast: +30
#   Whites: +10
#   Blacks: -26
#   Vibrance: +7
LUT_3D_SIZE 33
.03294239 .00200158 .01874008
.04176541 .00183183 .00981942
.06710745 0 .00603475
.1215248 0 .00179087
.1753677 0 0
.2262547 0 0
.2737993 0 0
.3193576 0 0
.3634503 0 0
.4074576 0 0
.4493191 0 0
.4895176 0 0
.5287941 0 0
.5672266 0 0
.6047561 0 0
.6405327 0 0
.673799 0 0
.7075343 0 0
.7403504 0 0
.7716028 0 0
.8013121 0 0
.8298107 0 0
.856472 0 0
.8817632 0 0
.9057274 0 0
.928225 0 0
.9497617 0 0
.9700492 0 0
.9890177 0 0
.9999999 0 0
.9999999 0 0
.9999999 0 0
.9999999 0 0
.038608 .00382361 .01458926
.04810093 .00504521 .01134843
.07848798 .00161583 .00740517
.1285401 0 .00058428
.1776652 0 0
.2281728 0 0
.274877 0 0
.3201631 0 0
.3639501 0 0
.4079646 0 0
.449892 0 0
.490204 0 0
.5291848 0 0
.5675133 0 0
.604998 0 0
.640686 0 0
.6739131 0 0
.7076551 0 0
.740439 0 0
.7717147 0 0
.8014412 0 0
.8298694 0 0
.8565302 0 0
.8818067 0 0
.905746 0 0
.9282789 0 0
.9498006 0 0
.9700747 0 0
.9890569 0 0
.9999999 0 0
.9999999 0 0
.9999999 0 0
.9999999 0 0
.01988701 .03983006 .0086716
.02940611 .04634212 .00055194
.07713764 .0454151 0
.1295595 .04421464 0
.1807996 .04030054 0
.2296058 .03829772 0
.2754621 .03812991 0
.3206284 .03545776 0
.3646125 .03790295 0
.4085202 .03652135 0
.4505192 .03562443 0
.4909168 .03228156 0
.5295797 .03116608 0
.5677924 .02693137 0
.6051666 .02131643 0
.6408042 .02164528 0
.6740416 .03020609 0
.7077546 .02636204 0
.7405347 .02176703 0
.7718691 .01528784 0
.801585 .00765277 0
.8299356 0 0
.8565948 0 0
.8819275 0 0
.9057667 0 0
.9283159 0 0
.9498439 0 0
.9701032 0 0
.9890847 0 0
.9999999 0 0
.9999999 0 0
.9999999 0 0
.9999999 0 0
0 .09031434 0
.02384886 .09163142 0
.07710708 .09327687 0
.1295721 .0922514 0
.1814184 .09192631 0
.229733 .09242512 0
.2755913 .0926969 0
.3208053 .08985297 0
.3653832 .08776285 0
.4093019 .08714185 0
.4510834 .08745218 0
.4914296 .08676163 0
.5301559 .08490338 0
.5681403 .08481624 0
.6053578 .08344632 0
.640946 .08378766 0
.6744251 .08784542 0
.7079085 .08771438 0
.7407392 .08475656 0
.7720329 .08154085 0
.8017904 .07636944 0
.8300284 .07176817 0
.8566563 .06695779 0
.8819748 .06224668 0
.9057654 .05465461 0
.9283691 .05070966 0
.9499061 .04815889 0
.9701436 .04629371 0
.9891245 .04431725 0
.9999999 .0423445 0
.9999999 .04171685 0
.9999999 .04171685 0
.9999999 .04171685 0
0 .1347742 0
.01120554 .1357351 0
.07371583 .1368898 0
.1294982 .1376192 0
.1818433 .1377607 0
.2297149 .1379148 0
.2763017 .1373201 0
.3214926 .1346715 0
.3659055 .1334869 0
.4094177 .1330709 0
.4514062 .1330981 0
.4916435 .1324711 0
.5302583 .131179 0
.5683687 .1306724 0
.6056927 .1308803 0
.6410968 .1325684 0
.6749479 .1336848 0
.7081972 .1352796 0
.7410114 .1333163 0
.772279 .1313079 0
.8020512 .1281179 0
.8301104 .1259831 0
.8567134 .1233488 0
.8819959 .1205426 0
.9057706 .1162001 0
.9284398 .114807 0
.9499888 .113401 0
.9701962 .112432 0
.9891773 .1114554 0
.9999999 .1105082 0
.9999999 .1102641 0
.9999999 .1102641 0
.9999999 .1102641 0
0 .1764335 0
.00182743 .1779375 0
.06329025 .1794321 0
.1318092 .1787606 0
.1813612 .179179 0
.2294076 .1788225 0
.276397 .1771937 0
.3217589 .1761081 0
.3660126 .1754921 0
.4095 .1749633 0
.4517062 .1747573 0
.4918119 .1742632 0
.5304751 .1738232 0
.5686116 .1745247 0
.6059274 .1745811 0
.6414502 .1746893 0
.6752627 .1765513 0
.7085618 .1782366 0
.7413545 .1767687 0
.772567 .1755036 0
.8022243 .1744804 0
.8301771 .172927 0
.8567527 .170433 0
.8819714 .1678647 0
.9058232 .1658811 0
.9285291 .1648332 0
.9500934 .1637609 0
.9702571 .1630738 0
.9892427 .1623936 0
.9999999 .1618271 0
.9999999 .1616888 0
.9999999 .1616888 0
.9999999 .1616888 0
0 .2165476 0
.0021179 .2172401 0
.0755251 .2171728 0
.133404 .2166911 0
.1821997 .2171619 0
.22968 .2168823 0
.2763384 .2158939 0
.3216936 .215499 0
.3663451 .2152957 0
.4096912 .2153061 0
.4520393 .2149719 0
.492076 .2146139 0
.5308385 .2144354 0
.5690204 .2156264 0
.6062648 .2157752 0
.6416335 .2159671 0
.6756023 .2165323 0
.7090864 .2179762 0
.7416927 .2180412 0
.7727218 .218105 0
.8024449 .2172673 0
.8304285 .2148574 0
.8569356 .2131025 0
.881972 .211377 0
.9058871 .2105731 0
.9286378 .2096932 0
.950205 .2088603 0
.9703234 .2083096 0
.9893096 .2077982 0
.9999999 .2074087 0
.9999999 .2073097 0
.9999999 .2073097 0
.9999999 .2073097 0
0 .2542851 0
.00778766 .2545603 0
.0793874 .2544766 0
.1354751 .2542688 0
.1847044 .254028 0
.2317984 .2538548 0
.2774651 .2541932 0
.3222025 .2544155 0
.3664698 .254319 0
.4101816 .2540144 0
.4522684 .2538641 0
.4926757 .2533395 0
.5314034 .2541808 0
.5695012 .2550288 0
.6065291 .2551097 0
.6418906 .2554639 0
.676079 .2558346 0
.7101138 .2558054 0
.7421702 .2568178 0
.7733391 .2564342 0
.8027625 .2567438 0
.8307322 .2550532 0
.8571182 .2533202 0
.8821868 .2528026 0
.9059623 .2525352 0
.928757 .2518152 0
.950303 .2511704 0
.9703985 .2506205 0
.9893711 .2501825 0
.9999999 .2499291 0
.9999999 .2498491 0
.9999999 .2498491 0
.9999999 .2498491 0
0 .2912462 0
.01359438 .2912957 0
.08537167 .2910814 0
.1412479 .2908517 0
.1893508 .2908558 0
.2353449 .2909565 0
.2799351 .2913004 0
.3236975 .2919353 0
.3669096 .2920088 0
.4104261 .2919171 0
.4525411 .2917739 0
.4928376 .2924837 0
.5318194 .2930188 0
.5699663 .2932595 0
.606723 .2937558 0
.6421813 .293913 0
.6766837 .2941602 0
.7106404 .2941557 0
.7426028 .2952335 0
.7737285 .2948401 0
.8031471 .2943395 0
.8311031 .2934887 0
.8574731 .292836 0
.8824755 .2924396 0
.9061871 .2923842 0
.9288884 .2921064 0
.9503627 .291542 0
.97047 .2909692 0
.9893578 .2906669 0
.9999999 .290455 0
.9999999 .2903874 0
.9999999 .2903874 0
.9999999 .2903874 0
0 .3289438 0
.02416985 .328799 0
.09197446 .3286361 0
.1458529 .3284329 0
.1906096 .3288494 0
.2384963 .3285339 0
.2828892 .3285133 0
.326244 .3283475 0
.3688096 .3284883 0
.4103465 .3293732 0
.4523111 .3300293 0
.4928314 .3304989 0
.5323362 .3310365 0
.5703604 .331327 0
.6069934 .3316304 0
.6423675 .3317613 0
.6772714 .3317659 0
.7111766 .3316841 0
.7434291 .3321109 0
.7741652 .3323616 0
.8033773 .3319313 0
.8312075 .3315549 0
.8578405 .3309226 0
.8828471 .3305887 0
.9065615 .3302948 0
.9292158 .3305343 0
.9505644 .330059 0
.9706486 .3295521 0
.9894968 .3292795 0
.9999999 .3290333 0
.9999999 .3289554 0
.9999999 .3289554 0
.9999999 .3289554 0
0 .3654546 0
.0340124 .3653824 0
.09606586 .3653917 0
.1472177 .3654634 0
.193839 .365711 0
.2388809 .3658172 0
.284867 .3654454 0
.3281477 .3652465 0
.3700381 .3653011 0
.4118581 .3656338 0
.4521222 .3670739 0
.4930951 .3675741 0
.5327491 .367797 0
.5707594 .3683229 0
.6072162 .368692 0
.6425754 .3688354 0
.6778737 .3685298 0
.7117212 .3683839 0
.7442206 .3683379 0
.7744445 .369169 0
.8036922 .3690335 0
.8315828 .3688932 0
.8579962 .3686 0
.8831184 .3681019 0
.9068002 .3678625 0
.9296043 .3673873 0
.9508597 .366844 0
.9708889 .3664499 0
.9897165 .3665646 0
.9999999 .3665067 0
.9999999 .3664204 0
.9999999 .3664204 0
.9999999 .3664204 0
0 .401207 0
.03471709 .4014478 0
.09537212 .4015154 0
.146224 .4016116 0
.1942771 .4017439 0
.2375523 .4023493 0
.2833506 .40243 0
.327712 .4023307 0
.3699495 .4024234 0
.4115514 .4025126 0
.4527389 .4028131 0
.4932957 .4034945 0
.5330141 .4039149 0
.5711861 .4040799 0
.6073631 .4047198 0
.6429941 .4049802 0
.6784313 .4046292 0
.7122636 .4044246 0
.7448668 .4044522 0
.7754665 .404572 0
.8040869 .4053945 0
.8318975 .4052618 0
.8582261 .405149 0
.8833053 .4047564 0
.9071712 .4041238 0
.9298561 .4036514 0
.9510569 .4032342 0
.9709645 .4029925 0
.9898565 .4028672 0
.9999999 .4026317 0
.9999999 .402514 0
.9999999 .402514 0
.9999999 .402514 0
0 .4366592 0
.03333177 .4367901 0
.09506308 .4369598 0
.146259 .4372026 0
.1932826 .4375853 0
.2376178 .4381723 0
.2819616 .4384394 0
.3263749 .4384402 0
.3697217 .438364 0
.4112024 .4384427 0
.4526152 .4386105 0
.4933937 .4387646 0
.5333 .4388958 0
.5712339 .4393138 0
.6076024 .4396762 0
.6436273 .4399148 0
.6791512 .4401143 0
.7129519 .4401282 0
.7452578 .4401011 0
.7759013 .4400508 0
.8044897 .4407846 0
.8322142 .440667 0
.8584946 .4405642 0
.8834832 .440432 0
.9074832 .4399478 0
.9300355 .439679 0
.9512195 .4394165 0
.9710898 .4389812 0
.9899303 .4384595 0
.9999999 .4383011 0
.9999999 .4383297 0
.9999999 .4383297 0
.9999999 .4383297 0
0 .4721165 0
.01891368 .4721943 0
.08762483 .4722819 0
.14195 .472398 0
.1918497 .4724804 0
.2387152 .4726334 0
.2812953 .4732592 0
.3258496 .4732655 0
.3694537 .4732053 0
.4117144 .4731796 0
.453198 .4733572 0
.4934953 .4735509 0
.5332916 .473255 0
.5713638 .4734272 0
.6080895 .4739165 0
.6445879 .4741301 0
.6795923 .4747933 0
.7135737 .4748419 0
.7456295 .4749738 0
.7761908 .4750511 0
.8052864 .475055 0
.8323302 .4757327 0
.8586338 .4756119 0
.883599 .4755765 0
.9074889 .4754238 0
.9301434 .4747788 0
.9513169 .47429 0
.9712793 .4737851 0
.9902584 .4736161 0
.9999999 .4733061 0
.9999999 .4733161 0
.9999999 .4733161 0
.9999999 .4733161 0
0 .5064449 0
0 .5065149 0
.07557141 .5065616 0
.1348537 .506605 0
.186821 .5066606 0
.2355483 .5067305 0
.2807359 .5070735 0
.3255371 .5070334 0
.3688049 .5071076 0
.412297 .5069915 0
.4539338 .5070836 0
.4941565 .5072613 0
.5334508 .5071282 0
.5713861 .5070261 0
.6089341 .5076069 0
.6453295 .5083112 0
.6804237 .5086179 0
.7136837 .5091251 0
.7456855 .5091664 0
.7763912 .5091673 0
.805382 .5092692 0
.8329707 .5093639 0
.8586747 .5100358 0
.8836573 .509952 0
.9074203 .5096131 0
.9299589 .5089563 0
.9515274 .5082868 0
.9715994 .5080312 0
.99065 .5077638 0
.9999999 .50748 0
.9999999 .5073898 0
.9999999 .5073898 0
.9999999 .5073898 0
0 .5395867 0
0 .539631 0
.0642084 .5396808 0
.1281834 .5397518 0
.1820868 .5398318 0
.2318795 .5399317 0
.2792908 .5400522 0
.3230512 .5403669 0
.3683702 .5402467 0
.4115069 .5403295 0
.4544316 .5402384 0
.4945387 .5404919 0
.5334768 .5407267 0
.5719042 .540849 0
.6094915 .5409461 0
.6460502 .5415385 0
.680925 .5420309 0
.7139966 .5421367 0
.7458512 .5422621 0
.7763283 .5424497 0
.805436 .5425739 0
.8331185 .5426934 0
.85909 .542899 0
.8836726 .5431134 0
.9073898 .5426689 0
.9299429 .5423896 0
.9513649 .5419671 0
.9719042 .5412525 0
.9910495 .540834 0
.9999999 .5405114 0
.9999999 .540418 0
.9999999 .540418 0
.9999999 .540418 0
0 .5720497 0
0 .5720745 0
.05191448 .5721021 0
.1219824 .5721416 0
.1777766 .5722147 0
.2285991 .5723191 0
.2768928 .5724259 0
.3235536 .572556 0
.3670019 .5727566 0
.4109686 .5725991 0
.4535983 .572592 0
.4951096 .5727214 0
.5339834 .5731248 0
.5724946 .5735392 0
.6100581 .5736967 0
.6463966 .5737332 0
.6810439 .5740966 0
.7141607 .5744125 0
.7459841 .5743745 0
.7764566 .5745066 0
.8054506 .5747063 0
.8331453 .5746468 0
.859502 .5745705 0
.88381 .5751082 0
.9074735 .5748252 0
.9299965 .574586 0
.9514136 .5743243 0
.9720004 .5739121 0
.9913793 .5733076 0
.9999999 .5722147 0
.9999999 .5720318 0
.9999999 .5720318 0
.9999999 .5720318 0
0 .6036693 0
0 .6036869 0
.0356966 .6037062 0
.1149725 .6037244 0
.1735048 .6037471 0
.2260996 .6037692 0
.2754568 .6038071 0
.3223938 .6039118 0
.3666663 .6042224 0
.4106981 .6041911 0
.4538038 .6040351 0
.4955381 .6039546 0
.5352865 .6042894 0
.5735844 .6046984 0
.6108417 .6050765 0
.6468747 .6050254 0
.6814047 .6049227 0
.7143788 .6052907 0
.7460557 .60565 0
.7766429 .6054687 0
.8055944 .6053777 0
.8331718 .6054752 0
.8595245 .6054991 0
.8844187 .6055112 0
.9077193 .6060377 0
.930267 .6057988 0
.951644 .6054251 0
.9721208 .6046472 0
.9915443 .603991 0
.9999999 .6033853 0
.9999999 .6029623 0
.9999999 .6029623 0
.9999999 .6029623 0
0 .6341414 0
0 .6341285 0
.02144087 .6341138 0
.110021 .6341097 0
.171485 .6341366 0
.2253662 .6341702 0
.2755054 .634211 0
.3232222 .6342612 0
.3690641 .6343551 0
.4113011 .6345938 0
.4532184 .6346416 0
.4947674 .6346549 0
.5364527 .6345414 0
.5748246 .6348811 0
.6116862 .6352276 0
.6473123 .6353303 0
.681853 .6352041 0
.7145468 .6353813 0
.7460871 .6356475 0
.7764442 .6358808 0
.8057089 .6355639 0
.8333465 .6354829 0
.8593898 .6357392 0
.8842734 .6357411 0
.9080904 .635626 0
.930241 .6358433 0
.9518837 .6351963 0
.9722883 .6348058 0
.9915457 .6343439 0
.9999999 .6339046 0
.9999999 .6337431 0
.9999999 .6337431 0
.9999999 .6337431 0
0 .6637153 0
0 .6637217 0
.01913567 .663729 0
.1092264 .6637391 0
.1711164 .663757 0
.2251158 .6637855 0
.275171 .6638307 0
.322759 .6638932 0
.3687034 .6639576 0
.4113085 .6641382 0
.4531173 .6641542 0
.4950932 .6641492 0
.5360591 .6641756 0
.5761952 .6639893 0
.6125686 .6643577 0
.6481801 .6643373 0
.6824889 .6642227 0
.7150076 .6644967 0
.7462149 .6645986 0
.7762682 .6650209 0
.8054099 .6652323 0
.833056 .6652544 0
.8593077 .6649288 0
.884146 .6648061 0
.9078022 .6645153 0
.9304975 .6643219 0
.9515552 .6646396 0
.972086 .6643937 0
.9913308 .6640755 0
.9999999 .663648 0
.9999999 .6633993 0
.9999999 .6633993 0
.9999999 .6633993 0
0 .6923453 0
0 .6923491 0
.01298978 .6923533 0
.1061921 .6923593 0
.1691503 .6923673 0
.223733 .6923774 0
.2743464 .6924113 0
.3222024 .6924177 0
.3680418 .6924592 0
.4120905 .6925169 0
.4540437 .6926063 0
.4957204 .6925849 0
.5359384 .6926274 0
.5756005 .6924275 0
.6137444 .6921593 0
.6488438 .6923115 0
.6829909 .6923004 0
.7156516 .6924601 0
.7469602 .6924852 0
.7768097 .6926079 0
.8052587 .693399 0
.8329561 .6934035 0
.8590162 .6931398 0
.884254 .6926224 0
.9078538 .6924885 0
.9305307 .692503 0
.9522091 .6922277 0
.9721008 .6924872 0
.9911322 .6922354 0
.9999999 .6919931 0
.9999999 .6919452 0
.9999999 .6919452 0
.9999999 .6919452 0
0 .7199275 0
0 .7199342 0
.00681377 .719942 0
.1030894 .7199528 0
.1670851 .7199672 0
.2221778 .719973 0
.2727838 .7199835 0
.3207769 .7199972 0
.3670228 .7200007 0
.4122895 .7200049 0
.4546267 .7201011 0
.4962666 .71988 0
.5359316 .7197967 0
.5750326 .7196823 0
.6136124 .7193045 0
.6496932 .7191176 0
.6837564 .7192539 0
.71648 .7193555 0
.7477108 .7193972 0
.777445 .7195141 0
.8060926 .7196148 0
.8327948 .720205 0
.8588051 .7202176 0
.8839817 .7201194 0
.9082875 .7195278 0
.9311367 .7191525 0
.9525456 .7190961 0
.9724793 .7190596 0
.9909685 .7193595 0
.9999999 .7190891 0
.9999999 .7190367 0
.9999999 .7190367 0
.9999999 .7190367 0
0 .7464956 0
0 .746502 0
0 .7465094 0
.09912989 .7465132 0
.1647355 .7465129 0
.2199106 .7465305 0
.2704545 .7466764 0
.3191582 .7466169 0
.3664817 .7465019 0
.4123017 .7463599 0
.45501 .7463127 0
.4962226 .7460764 0
.5363307 .7457868 0
.5750769 .7455927 0
.6128706 .7455449 0
.6502413 .7453145 0
.6848736 .745208 0
.7173123 .7452809 0
.7482809 .7454194 0
.7778353 .7454714 0
.8062277 .7455469 0
.8332679 .7456824 0
.8588479 .7462199 0
.8840538 .7461045 0
.9081827 .7459235 0
.9311163 .7455238 0
.9526522 .7449925 0
.9725992 .7448491 0
.9914226 .7448593 0
.9999999 .7452499 0
.9999999 .7452207 0
.9999999 .7452207 0
.9999999 .7452207 0
0 .7720724 0
0 .7720461 0
0 .7720225 0
.09398518 .7719917 0
.161171 .7719507 0
.2175436 .7718964 0
.2694782 .771838 0
.319098 .7717337 0
.3666396 .7715975 0
.4115697 .7714686 0
.4548042 .7713154 0
.4958814 .7711741 0
.5365132 .7709683 0
.5754009 .7708764 0
.6131161 .7708007 0
.6498631 .7706905 0
.6851407 .770407 0
.7178994 .7702709 0
.7486293 .7704801 0
.7782207 .7706927 0
.8062994 .7708299 0
.8332939 .7708904 0
.8591987 .7709306 0
.8842331 .7710704 0
.9082026 .7709709 0
.930844 .7708154 0
.9521689 .770543 0
.9724092 .7700506 0
.9912676 .7698495 0
.9999999 .7698348 0
.9999999 .7698141 0
.9999999 .7698141 0
.9999999 .7698141 0
0 .7962279 0
0 .7962088 0
0 .7961872 0
.08834825 .7961566 0
.1579662 .7961102 0
.2156461 .7960331 0
.2689768 .7959356 0
.318623 .795828 0
.3655023 .795714 0
.4105695 .7955862 0
.4541786 .7955368 0
.4960697 .7954894 0
.5367673 .7953102 0
.5758854 .7951759 0
.6131409 .7951753 0
.6494685 .7950283 0
.6845459 .7949049 0
.7177092 .794865 0
.749248 .7947054 0
.778586 .7948648 0
.8064724 .7949846 0
.8334787 .7949904 0
.8594939 .7950377 0
.8845823 .794929 0
.9082525 .7950525 0
.9305271 .7949348 0
.9516199 .7948582 0
.9716107 .7948116 0
.9906762 .7944608 0
.9999999 .7940168 0
.9999999 .7938708 0
.9999999 .7938708 0
.9999999 .7938708 0
0 .8194085 0
0 .8193856 0
0 .8193563 0
.08221775 .8193085 0
.1561972 .8192442 0
.2153055 .8191666 0
.2679371 .8190784 0
.3174866 .8190297 0
.364731 .818985 0
.4100865 .8189349 0
.4538141 .8188845 0
.4964163 .8187926 0
.5370538 .8186879 0
.5763195 .8185264 0
.6133277 .8185774 0
.6487693 .8187397 0
.6832671 .8187774 0
.7174551 .8184187 0
.7490733 .8182226 0
.7789947 .8180376 0
.8068015 .8180913 0
.8336992 .8181534 0
.859884 .8182037 0
.8847802 .8182577 0
.9082799 .818013 0
.9302084 .8181665 0
.9511926 .8180996 0
.9710463 .8181249 0
.990216 .8178387 0
.9999999 .8173596 0
.9999999 .8171892 0
.9999999 .8171892 0
.9999999 .8171892 0
0 .8416122 0
0 .8415956 0
0 .8415787 0
.08155272 .8415659 0
.1551793 .8415512 0
.2141488 .8415328 0
.2672625 .8415107 0
.3169988 .8414847 0
.3643551 .8414548 0
.4097748 .8413904 0
.4535272 .8412921 0
.4961321 .8412547 0
.5370312 .8411905 0
.5763365 .8411177 0
.6133417 .8410886 0
.6484773 .8413197 0
.6824501 .8415181 0
.7164896 .8411611 0
.7488157 .8408056 0
.7786713 .8405756 0
.8070975 .840374 0
.8340956 .8404368 0
.8602481 .8404583 0
.8848277 .8404723 0
.9080378 .8404658 0
.9303474 .8401424 0
.9510857 .8401953 0
.9710514 .8399721 0
.9899096 .8399769 0
.9999999 .839803 0
.9999999 .8397554 0
.9999999 .8397554 0
.9999999 .8397554 0
0 .8630977 0
0 .8631086 0
0 .8631198 0
.08087791 .8631335 0
.1548347 .8631204 0
.2139218 .8631024 0
.2670589 .8630462 0
.3168053 .8629801 0
.3641841 .8628989 0
