luts/Timeless 41.cube
# 3D LUT of size 33x33x33 converted by Filestar.
#   Input:
#     color space: sRGB
#     white point: default (D65)
#     transfer function: default (sRGB)
#   Output:
#     color space: sRGB
#     white point: default (D65)
#     transfer function: default (sRGB)
#   Exposure: +0.71
#   Contrast: +30
#   Whites: +10
#   Blacks: -26
#   Vibrance: +7
LUT_3D_SIZE 5
.03294239 .00200158 .01874008
.3634503 0 0
.673799 0 0
.9057274 0 0
.9999999 0 0
0 .2912462 0
.3669096 .2920088 0
.6766837 .2941602 0
.9061871 .2923842 0
.9999999 .2903874 0
0 .5720497 0
.3670019 .5727566 0
.6810439 .5740966 0
.9074735 .5748252 0
.9999999 .5720318 0
0 .7962279 0
.3655023 .795714 0
.6845459 .7949049 0
.9082525 .7950525 0
.9999999 .7938708 0
0 .957146 0
.3592946 .9566467 0
.6816799 .9564763 0
.9082293 .9548447 0
.9999999 .954189 0
0 0 .3288283
.3649884 0 .3315509
.6765646 0 .3319928
.9075006 0 .3291166
.9999999 0 .3265416
0 .2903538 .3338926
.3711978 .2892071 .3324875
.6782241 .2889987 .3316815
.9083225 .2815082 .3269825
.9999999 .2793029 .3227296
0 .5729618 .3247716
.3616261 .5740514 .3242883
.6824806 .5736912 .3243186
.9099408 .5703835 .3220611
.9999999 .5689188 .3200516
0 .7967631 .3108065
.3524234 .796627 .3092841
.6823846 .7964954 .3067198
.9104047 .795306 .306601
.9999999 .7939309 .3065164
0 .9577419 .302669
.3436072 .9577193 .300668
.6775138 .9573708 .2989912
.9089113 .955398 .2997987
.9999999 .9539159 .2985362
0 0 .6299796
.3685832 0 .6306672
.6795964 0 .6311404
.9095275 0 .6323087
.9999999 0 .6315893
0 .2857226 .6312122
.363613 .2797211 .6318153
.6810938 .2792356 .6327659
.9110199 .2705044 .6315961
.9999999 .267979 .6300654
0 .5716972 .6320553
.3478631 .5706155 .6319155
.6857086 .5684869 .6305723
.9080047 .5703846 .6304746
.9999999 .5683962 .6289396
0 .7975194 .6279432
.3384701 .797101 .6271436
.6832617 .7954699 .6247604
.9115053 .793954 .6229345
.9999999 .7933838 .6276491
0 .9576942 .6226053
.33121 .9570047 .6213839
.6742635 .9564402 .6207746
.9066895 .955784 .620797
.9999999 .9545335 .6178865
0 0 .8572258
.3637687 0 .8579494
.6818594 0 .8585299
.9085103 0 .8585128
.9999999 0 .8578085
0 .2771365 .8579563
.3557756 .2732363 .8584709
.6786959 .2694655 .8591117
.9098979 .2618625 .8591539
.9999999 .254256 .8581932
0 .5671799 .8584775
.3368944 .5642688 .8585976
.6769962 .5632103 .8584212
.9105957 .5604815 .8587112
.9999999 .5611234 .8572123
0 .7937976 .8579092
.337381 .7937431 .8578888
.676266 .7927721 .8573776
.9076701 .792801 .8568093
.9999999 .7932605 .8560096
0 .9580987 .8557689
.3329393 .9572803 .8556582
.6766866 .9562684 .8555012
.9053561 .9544045 .8550465
.9999999 .953445 .853237
0 0 .9999999
.3595506 0 .9999999
.6766287 0 .9999999
.9056064 0 .9999999
.9999999 0 .9999999
0 .2730401 .9999999
.3515114 .2711308 .9999999
.6756259 .2680789 .9999999
.9054559 .2585025 .9999999
.9999999 .2553641 .9999999
0 .5610746 .9999999
.3287223 .5583631 .9999999
.6741127 .5605722 .9999999
.9057374 .5598965 .9999999
.9999999 .5590128 .9999999
0 .7890019 .9999999
.3355161 .7891928 .9999999
.6734189 .7889221 .9999999
.9019903 .7886709 .9999999
.9999999 .7879751 .9999999
0 .9530143 .9999999
.3382716 .952594 .9999999
.6741334 .9516403 .9999999
.9072602 .9508814 .9999999
.9999999 .954958 .9999999
