luts/Timeless 44.cube
# 3D LUT of size 33x33x33 converted by Filestar.
#   Input:
#     color space: sRGB
#     white point: default (D65)
#     transfer function: default (sRGB)
#   Output:
#     color space: sRGB
#     white point: default (D65)
#     transfer function: default (sRGB)
#   Exposure: +0.35
#   Contrast: -43
#   Whites: +8
#   Blacks: -20
#   Vibrance: +30
LUT_3D_SIZE 5
.04832771 .00962059 .02690313
.270365 0 .01494868
.5608149 0 0
.8108767 0 0
.9999999 0 0
0 .2839583 0
.2871822 .2861489 0
.564739 .2812919 0
.8131248 .2699432 0
.9999999 .2571202 0
0 .5704549 0
.2630591 .5709363 0
.5674919 .5692372 0
.8156246 .5637869 0
.9999999 .5566664 0
0 .8149019 0
.2181149 .814777 0
.5543981 .814657 0
.8132669 .8121091 0
.9999999 .8071958 0
0 .9999999 0
.1300345 .9999999 0
.5281088 .9999999 0
.7999387 .9999999 0
.9999999 .9999999 0
0 0 .2825081
.2835331 0 .2882671
.5697311 0 .2819026
.8153217 0 .2714348
.9999999 0 .2554829
0 .2838077 .2892136
.2770397 .2801201 .286475
.5660905 .2740929 .280528
.8163643 .2581962 .2646206
.9999999 .2397527 .2455916
0 .5724391 .2444816
.2292079 .5733861 .2374836
.5674845 .5723314 .2397925
.8213173 .5586973 .2361723
.9999999 .5516666 .23409
0 .8170524 .1778362
.162122 .8171266 .1660272
.5458319 .8160521 .1652199
.8155776 .8141726 .1773
.9999999 .8055432 .1592697
0 .9999999 .02136678
0 .9999999 0
.517211 .9999999 0
.7952596 .9999999 .00297467
.9999999 .9999999 .05724223
0 0 .5663838
.2760494 0 .5688791
.5720758 0 .5715551
.8197266 0 .567162
.9999999 0 .555233
0 .2514586 .5723937
.2495091 .2427603 .5735379
.5739509 .2339731 .575531
.8223379 .2298773 .5636713
.9999999 .201445 .5520957
0 .5706694 .5726496
.1785037 .5709277 .5726231
.5631182 .5593359 .564983
.8132108 .5567679 .5593379
.9999999 .5451824 .5505458
0 .8200315 .531331
0 .8192716 .526967
.518733 .8170348 .5225157
.8165313 .8146191 .5215612
.9999999 .8025431 .5161385
0 .9999999 .4963999
0 .9999999 .4945767
.4908608 .9999999 .4919473
.7856914 .9999999 .4881262
.9999999 .9999999 .4860083
0 0 .8124955
.2525842 0 .8135415
.5540292 0 .8150185
.8142384 0 .8159956
.9999999 0 .8128992
0 .2273365 .8147675
.2116175 .2125932 .8156099
.545526 .1860089 .8171885
.817525 .1721423 .8185136
.9999999 .1361511 .813494
0 .5373319 .8178051
0 .5330859 .8180198
.524125 .5229731 .8192793
.8183318 .5228255 .8191922
.9999999 .5240693 .8080133
0 .8158782 .8165144
0 .8154794 .8168076
.5044947 .8137737 .8152885
.8082922 .8057677 .810207
.9999999 .8042861 .8063723
0 .9999999 .79141
0 .9999999 .7891292
.4754181 .9999999 .7845757
.7813836 .9999999 .7819507
.9999999 .9999999 .7797749
0 0 .9999999
.2293335 0 .9999999
.5423644 0 .9999999
.8020768 0 .9999999
.9999999 0 .9999999
0 .1912175 .9999999
.1832685 .1732641 .9999999
.5293305 .1356209 .9999999
.7975752 .0809144 .9999999
.9999999 .05678629 .9999999
0 .5098625 .9999999
0 .502879 .9999999
.4935077 .4944516 .9999999
.7882416 .4907073 .9999999
.9999999 .4891038 .9999999
0 .785883 .9999999
0 .7850355 .9999999
.4778303 .7803524 .9999999
.7787845 .7812171 .9999999
.9999999 .7805972 .9999999
0 .9999999 .9999999
0 .9999999 .9999999
.4678183 .9999999 .9999999
.7857802 .9999999 .9999999
.9999999 .9956207 .9999999
