luts/Timeless_3.cube
# 3D LUT of size 33x33x33 converted by Filestar.
#   Input:
#     color space: sRGB
#     white point: default (D65)
#     transfer function: default (sRGB)
#   Output:
#     color space: sRGB
#     white point: default (D65)
#     transfer function: default (sRGB)
#   Exposure: +0.32999998
#   Contrast: -48
#   Whites: -26
#   Blacks: +13
#   Vibrance: +30
LUT_3D_SIZE 5
.05650328 .0111147 .0211726
.306328 0 .00281741
.5820935 0 0
.8118017 0 0
.9999999 0 0
0 .3044657 0
.308351 .3045144 0
.5760972 .2887457 0
.8062968 .2811105 0
.9972195 .2651182 0
0 .5691307 0
.2789149 .5678423 0
.5667624 .5623714 0
.7994166 .5521914 0
.9892731 .5426094 0
0 .7937472 0
.2220223 .7931201 0
.5398727 .7912926 0
.7863663 .7861593 0
.9841577 .7800203 0
0 .985707 0
.0983418 .9856309 0
.506029 .9861572 0
.7758671 .9846013 0
.9859383 .9869013 0
.00941912 0 .3075116
.3094541 0 .3078766
.5827645 0 .2909283
.8114988 0 .2784563
.9999999 0 .2579931
0 .300942 .3028361
.2998681 .2973545 .2960416
.5730664 .285168 .2904779
.8058362 .2720809 .2713992
.9990413 .2475403 .2491862
0 .5686788 .2522154
.2486321 .5675769 .2470653
.5635533 .5633523 .2478575
.8023836 .5471994 .2430935
.9914814 .5388248 .2341483
0 .7949378 .1783058
.1703141 .7946957 .1645002
.5311576 .7909944 .1699129
.7875894 .7882609 .1701378
.9896265 .7788427 .1489181
0 .9885302 0
0 .9883924 0
.4907354 .9877324 0
.7700927 .9878134 0
.9873638 .9880295 0
0 0 .5765428
.2898363 0 .575913
.5749931 0 .5738788
.8099432 0 .5601016
.9999999 0 .542519
0 .265845 .5736384
.2632773 .2564945 .5732117
.5711436 .2477325 .5706456
.8085017 .2410181 .5546135
.9996625 .2104138 .5384544
0 .5636523 .5632854
.2027888 .5622271 .5620834
.5523764 .5477858 .5533193
.7910986 .5425569 .5425523
.9924855 .5268082 .5288746
0 .7966413 .5124899
0 .7954828 .5059404
.4941558 .7919572 .4988191
.7875943 .7872379 .4934936
.9950047 .7738708 .4813531
0 .9910725 .453724
0 .9912682 .4490688
.4402496 .9919638 .4384439
.7592317 .9900194 .4397392
.9910288 .9908817 .4439206
0 0 .8023899
.2656064 0 .80209
.5497859 0 .8009086
.796996 0 .7974724
.9969758 0 .7896568
0 .2335871 .8011982
.2256246 .2201103 .8013416
.540077 .1972196 .8002777
.7968776 .1845909 .7971153
.9999999 .1394434 .7888985
0 .5231065 .7976103
.05304772 .5177978 .7973256
.5058052 .50578 .7967513
.7929205 .503125 .7943065
.9999999 .4965849 .7802921
0 .7890144 .7883202
0 .7885497 .7880142
.475425 .785787 .7852044
.7792875 .7758436 .778486
.9868209 .7709113 .7734616
0 .9930635 .7576914
0 .9930295 .7552602
.3913358 .9922683 .7494685
.7413268 .9930524 .741931
.993872 .9940196 .7453876
0 0 .9911241
.2289197 0 .9907691
.5312883 0 .9899266
.7820759 0 .9890243
.9873279 0 .9878512
0 .1757161 .9906406
.188036 .1527905 .9906878
.5133146 .1087412 .9904235
.7760986 .00280808 .9906715
.9883111 0 .9899234
0 .4859095 .9912248
0 .478516 .9914812
.4661407 .4611744 .9922656
.7625802 .4496806 .9930053
.9901035 .4475868 .9924039
0 .7570182 .9908274
0 .7551746 .990841
.4068554 .7482918 .9907202
.7418487 .7423989 .9913622
.9922217 .7423901 .9925033
0 .9915841 .9917685
0 .9921704 .9919996
.3820696 .9938448 .9927492
.7431177 .9942653 .9936442
.9999999 .9982253 .9996616
