luts/Timeless_27.cube
# 3D LUT of size 33x33x33 converted by Filestar.
#   Input:
#     color space: sRGB
#     white point: default (D65)
#     transfer function: default (sRGB)
#   Output:
#     color space: sRGB
#     white point: default (D65)
#     transfer function: default (sRGB)
#   Exposure: +0.16
#   Contrast: -59
#   Whites: +22
#   Blacks: -12
LUT_3D_SIZE 5
0 0 .00704859
.2605794 0 .00065511
.5438029 0 0
.8093116 0 0
.9999999 0 0
0 .2757591 0
.2690127 .2780116 0
.5442028 .2812408 0
.8094295 .2816868 0
.9999999 .2827695 0
0 .5642869 0
.265958 .5649016 0
.548505 .5660923 0
.8124595 .5675225 0
.9999999 .5686356 0
0 .8339877 0
.2707415 .8341432 0
.5510204 .8349082 0
.8136622 .8346897 0
.9999999 .8334848 0
.09516201 .9999999 .1060406
.3005815 .9999999 .1054025
.5600829 .9999999 .09143876
.8101019 .9999999 .06171781
.9999999 .9999999 .05243758
0 0 .2467096
.2647852 0 .2491168
.5448324 0 .2501385
.8098487 0 .2507566
.9999999 0 .2511429
0 .2751378 .2498201
.2684747 .2757918 .2493877
.545823 .2762967 .2466708
.8109862 .2752742 .2483107
.9999999 .2766077 .2541267
0 .5642759 .2462904
.263393 .5647312 .2455328
.5491679 .5653294 .2446176
.8130454 .5668855 .2421967
.9999999 .5681028 .251272
0 .8340343 .2449422
.2670159 .8341537 .2455932
.5501027 .835069 .243524
.814069 .8345755 .2382905
.9999999 .8331422 .2425627
.1054407 .9999999 .2876519
.3041736 .9999999 .2888955
.559953 .9999999 .2867647
.8100111 .9999999 .2782886
.9999999 .9999999 .2748988
0 0 .5110589
.2680407 0 .5113884
.5488875 0 .5126191
.8110453 0 .5157315
.9999999 0 .5166714
0 .280212 .5117576
.2645248 .2773939 .5116841
.5486226 .2750307 .5124285
.811982 .2724749 .5144705
.9999999 .2731333 .515004
0 .5647919 .512852
.2579116 .5649853 .5127162
.5502078 .5640134 .5122864
.8122295 .5660845 .5118878
.9999999 .5668701 .5174804
0 .8338844 .5147684
.2605144 .834224 .5131423
.549013 .8344544 .5159856
.8137305 .8337506 .5131589
.9999999 .8322071 .5165213
.113754 .9999999 .5261708
.3170398 .9999999 .5304292
.5665418 .9999999 .5330735
.8100785 .9999999 .5295113
.9999999 .9999999 .5264559
0 0 .7633867
.2701078 0 .7635021
.5533153 0 .7640194
.8132799 0 .7650567
.9999999 0 .7652014
0 .2765066 .7637261
.2646528 .2766198 .7639061
.551856 .2749572 .7644819
.8135808 .2693278 .7650497
.9999999 .2722067 .7650462
0 .5657689 .763981
.2670819 .5651467 .7637794
.5508177 .5648351 .7640309
.8123003 .5642942 .7640546
.9999999 .5669594 .7642656
0 .8334291 .76371
.2621525 .8334367 .7636537
.5499118 .8335736 .7635387
.8134791 .832697 .7635717
.9999999 .8328262 .7654243
.1719851 .9999999 .7652974
.3362569 .9999999 .7655159
.5761704 .9999999 .7675598
.817976 .9999999 .7710758
.9999999 .9999999 .7696444
0 0 .988524
.2859816 .00686175 .9885339
.5581589 .01598942 .9886916
.8130189 0 .9897613
.9999999 0 .9907488
0 .2862742 .9883202
.2812611 .2899622 .9884115
.5569856 .295882 .9883314
.8129951 .2912854 .9893818
.9999999 .2753579 .9901423
0 .5677675 .9873939
.2769747 .5663239 .9873931
.5553873 .5707611 .9875978
.8110951 .5729941 .9881133
.9999999 .5681738 .9881743
.0990658 .8317716 .987009
.3061869 .8315995 .9866024
.565353 .8315033 .9855817
.8130307 .8338482 .984382
.9999999 .8333806 .9833744
.1356084 .9999999 .9805788
.3234714 .9999999 .9803031
.5811934 .9999999 .979724
.8328352 .9999999 .9779643
.9992028 .9999999 .9807853
