luts/Timeless_29.cube
# 3D LUT of size 33x33x33 converted by Filestar.
#   Input:
#     color space: sRGB
#     white point: default (D65)
#     transfer function: default (sRGB)
#   Output:
#     color space: sRGB
#     white point: default (D65)
#     transfer function: default (sRGB)
#   Exposure: +0.53999996
#   Contrast: +23
#   Whites: +8
#   Blacks: -20
#   Vibrance: +5
LUT_3D_SIZE 9
0 .00158175 .00933342
.1267272 0 .00392474
.2915064 0 0
.4414453 0 0
.5791765 0 0
.7053576 0 0
.8171429 0 0
.9132478 0 0
.9953485 0 0
0 .1555732 0
.1323307 .153031 0
.2955821 .1546057 0
.4436703 .1544451 0
.580752 .1518406 0
.7059465 .146438 0
.8174558 .143775 0
.9134108 .1376095 0
.9957209 .1340793 0
0 .305663 0
.1534287 .304965 0
.3003028 .3073995 0
.4458773 .3084762 0
.5814847 .3093385 0
.7075511 .309018 0
.8187076 .3080281 0
.9144552 .307252 0
.9964144 .3064044 0
0 .4565709 0
.1420438 .4566466 0
.3022281 .4572359 0
.4495206 .4570447 0
.5841985 .4581317 0
.7090953 .4585564 0
.8196741 .4593738 0
.9157562 .4582263 0
.9973894 .4573296 0
0 .5967977 0
.1237883 .5968915 0
.2997985 .5971457 0
.4475443 .5974734 0
.5858087 .5977224 0
.709463 .5979667 0
.8197314 .5976817 0
.9158773 .5968206 0
.9981202 .5964037 0
0 .7221217 0
.126264 .7221735 0
.3012044 .7222679 0
.4502727 .7226173 0
.5860475 .7223802 0
.7108334 .7215888 0
.8196372 .7221249 0
.9159129 .7220331 0
.9979884 .7214819 0
0 .8321214 0
.1057666 .832035 0
.2946377 .8318224 0
.4498272 .8314303 0
.5872258 .8316997 0
.711856 .8318499 0
.8221244 .8315608 0
.9161459 .8314571 0
.9972755 .8310425 0
0 .9271242 0
.09121915 .9271025 0
.2909608 .9269481 0
.4471697 .9267802 0
.5867617 .9268469 0
.7111891 .9268652 0
.8217428 .9260319 0
.9159739 .9253811 0
.9974155 .9248453 0
0 .9999999 0
.08378696 .9999999 0
.2867765 .9999999 0
.4450853 .9999999 0
.5862929 .9999999 0
.7105748 .9999999 0
.8191671 .9999999 0
.9143904 .9999999 0
.9946907 .9999999 0
0 .00499034 .1544693
.1322835 0 .1554275
.2943149 0 .1569274
.4445395 0 .1541423
.5812497 0 .1533789
.7065598 0 .1533774
.8178948 0 .15129
.9137718 0 .1472357
.9956855 0 .1443723
0 .1493841 .1580476
.1366622 .1520537 .1565511
.2969272 .1491097 .1542492
.4454233 .1463856 .1530532
.5816629 .1453876 .1508868
.7070645 .1412356 .1513177
.818146 .1383124 .1489218
.9139357 .1334357 .1465205
.9960077 .1285998 .1424395
0 .3071857 .1537119
.1401634 .3069752 .1513668
.3005433 .3076684 .150425
.4463182 .3078032 .1527119
.5824907 .308061 .1508844
.708278 .3077581 .1478911
.8192087 .3063645 .1453724
.9147772 .3045647 .1452447
.996741 .3048067 .1378248
0 .456852 .146525
.1277327 .4570891 .1456799
.3016431 .45739 .1434597
.4486981 .4577425 .1475598
.5848436 .4581119 .1470944
.7092677 .4580513 .1454976
.8201525 .4576606 .1430985
.9160052 .457266 .1386561
.9976215 .4565427 .1338081
0 .5970789 .1358776
.1112125 .5973036 .1347059
.2952829 .597468 .1338047
.4463267 .5981165 .1351108
.5859882 .5981148 .1365392
.7103139 .5978382 .1368971
.8201519 .5973862 .1348296
.9159593 .5964383 .1314284
.998411 .5957161 .1276959
0 .7224128 .1242249
.1119621 .722491 .1217863
.2971627 .7225141 .1210245
.4485569 .7229747 .1194612
.5859371 .7225659 .1244212
.7112314 .7216263 .1253399
.8202025 .7220667 .1184648
.9167621 .7216388 .114202
.9982237 .7213368 .1168712
0 .8323463 .1131044
.09387732 .8322079 .1111939
.2910469 .8320027 .1113978
.447557 .8316523 .1127093
.5861158 .8320041 .1095232
.7118091 .8319536 .1091416
.8224219 .8314483 .1111924
.9166779 .8312719 .1123715
.9975955 .8309296 .1122919
0 .9273506 .1036564
.07759345 .9272639 .1030298
.2866319 .927207 .1047789
.4450123 .927158 .1033141
.5846167 .9271305 .0997661
.7105531 .927043 .09994074
.8218727 .9260679 .1043505
.9159879 .9253277 .1061998
.9976259 .9246051 .1085587
0 .9999999 .09931051
.06499954 .9999999 .09877657
.2831775 .9999999 .09894993
.4432905 .9999999 .09746101
.5855093 .9999999 .09580218
.7099991 .9999999 .08981036
.8184062 .9999999 .08741129
.9142922 .9999999 .08584752
.9947608 .9999999 .08920068
0 0 .3148785
.1391561 0 .316417
.2962706 0 .31749
.4444015 0 .3193942
.5830261 0 .3193759
.707469 0 .3188206
.8184895 0 .3191202
.9145558 0 .317681
.9964778 0 .3166199
0 .1505952 .3181575
.1360359 .1480801 .3186095
.2995473 .1457825 .3199402
.4461301 .1444458 .3195704
.5830219 .139897 .3183048
.7078092 .1354596 .31874
.818746 .130737 .3185656
.9147314 .1242819 .3171278
.9967887 .1170398 .3158128
0 .3073814 .3201599
.1343856 .3079282 .3199535
.2999606 .3077038 .3190572
.4466971 .3068064 .3181933
.5828316 .3068768 .3184423
.7091541 .3060455 .3181621
.8198438 .3039354 .3171303
.9154151 .3018954 .3157328
.9975581 .3004947 .3138367
0 .4579613 .3176259
.1160262 .4577713 .3168444
.2966587 .4576002 .3157122
.4489135 .458246 .3153327
.5857434 .4586465 .3154857
.7100515 .4580402 .3166307
.8208904 .4568541 .3156059
.9165148 .4552796 .3136881
.9983532 .4541562 .3117763
0 .5970153 .312505
.1066335 .5970528 .3121196
.2917264 .5975695 .3124541
.4463439 .5982141 .3119153
.5855373 .5981383 .3124012
.7111154 .5977557 .3114561
.8215423 .5969843 .3089134
.9167518 .5956586 .3102407
.9987082 .594425 .3100213
0 .7228336 .305912
.08604658 .7227991 .3064555
.2874091 .7230582 .3062292
.4458761 .7230293 .3050645
.5852337 .7228647 .3058966
.7118073 .7220392 .3046466
.8220235 .7221759 .3019221
.9184394 .7212784 .3010332
.9991986 .7212781 .3043374
0 .8323848 .3019994
.05802771 .8323839 .3017711
.2798524 .8324069 .301432
.4423575 .832082 .3014211
.5839871 .8322558 .3010789
.7111531 .8324501 .2993653
.823802 .8314875 .2998228
.9180935 .8315781 .2984632
.9994292 .8306746 .2997841
0 .9274738 .30004
.04286686 .9275303 .2998678
.276729 .927653 .2987497
.4384826 .9276178 .2972681
.5826622 .9271876 .2990959
.7100245 .9273967 .297002
.8217145 .9265641 .2973443
.9170277 .9254192 .2974867
.9984012 .9246503 .298218
0 .9999999 .2990101
.04075777 .9999999 .2986837
.2767667 .9999999 .2978324
.4392677 .9999999 .299107
.5812425 .9999999 .2960886
.7082882 .9999999 .2942393
.816821 .9999999 .2910377
.9143214 .9999999 .2924704
.9949148 .9999999 .2923329
0 0 .4698681
.1359495 0 .4700819
.299938 0 .4701791
.4484496 0 .4704942
.5833269 0 .4713882
.7090407 0 .4722274
.8196253 0 .4714519
.9151415 0 .4704493
.9973211 0 .4695967
0 .1454481 .4704051
.1300114 .1435836 .4706467
.2998866 .1409792 .4713185
.4496452 .135842 .4717643
.5856193 .1324701 .4716089
.709435 .1264644 .4715407
.8198218 .1223498 .4706973
.9155522 .1142389 .4698212
.9979028 .1022655 .4689073
0 .3054287 .4711787
.1264121 .3049462 .4713043
.2973557 .3041199 .4715829
.4491861 .3033629 .4713998
.5867329 .3036209 .471064
.7105184 .3031663 .4704493
.8203357 .3009476 .4699826
.9162119 .2974443 .4693341
.9980813 .2954836 .4686664
0 .4581262 .4710168
.111812 .4582497 .4708658
.2928129 .4574298 .4711429
.448015 .4571282 .4714079
.5869994 .4570579 .4700968
.7111395 .457564 .4704881
.8205237 .4558874 .4699324
.9163307 .4536116 .4687165
.9985252 .45205 .4680831
0 .597128 .4699313
.08088034 .5972483 .4693958
.2840175 .5976691 .4679971
.4445846 .5978906 .4673837
.5868904 .5977438 .4681545
.712883 .596367 .4669125
.8216544 .5955833 .4678306
.916799 .5946553 .4678587
.9985488 .5931718 .4679587
0 .7227583 .464963
.05978809 .7227788 .4645647
.2813755 .7228057 .4637499
.4405747 .7230642 .4631352
.585335 .722652 .4631648
.712215 .722227 .4626637
.8218518 .7222078 .4637076
.9179116 .7213109 .4635916
.9979646 .7208915 .467896
0 .8322031 .4626845
.04487661 .832086 .4623776
.2789377 .8318557 .4619886
.43879 .832019 .4617758
.582594 .8322014 .4618226
.7109255 .8323176 .4618222
.8232085 .8320951 .4616979
.9171485 .8322668 .4614192
.9990373 .8302892 .4623159
0 .9272823 .4617877
.00032748 .9272743 .461626
.2707497 .9273768 .4615743
.4359725 .9273866 .4614288
.5812778 .9270558 .4615167
.7097689 .9268088 .461739
.8205917 .9267671 .4609828
.9165942 .9258732 .4611201
.9979762 .9249725 .460471
0 .9999999 .4607272
.0229061 .9999999 .4607779
.2741705 .9999999 .460616
.4378105 .9999999 .4605199
.5808029 .9999999 .4619987
.7074942 .9999999 .4630968
.8170425 .9999999 .4588457
.9148373 .9999999 .4572614
.9944895 .9999999 .4572586
0 0 .611093
.13221 0 .6114431
.3015466 0 .6120101
.4495792 0 .6120864
.5851613 0 .6123272
.709026 0 .6125475
.8206714 0 .6130719
.9160868 0 .6131671
.997923 0 .6128237
0 .1399696 .612147
.1231327 .1369822 .6125019
.2990283 .1315901 .6125805
.4495055 .1291315 .6126075
.5851585 .1254675 .6129345
.7099114 .1221372 .613239
.8207794 .1147969 .6129754
.9163634 .1049109 .6129524
.9983714 .09615018 .6124837
0 .3035646 .6126639
.1212259 .3024243 .6127658
.296187 .3016758 .6128424
.4474847 .3005165 .6127151
.5853701 .3000095 .6131957
.7114374 .2989759 .6130306
.8213282 .2979479 .6123573
.9170875 .2956653 .6120353
.9991103 .2922357 .6116012
0 .4570753 .6129948
.09380197 .4564141 .6130776
.2866356 .454866 .6130146
.4447181 .4531612 .613305
.5875232 .4537694 .6135305
.7128648 .4536842 .6121413
.8216403 .4524248 .6110209
.91715 .4516472 .6108798
.9989809 .4512327 .6104912
0 .5960916 .6132199
.07133584 .5961546 .613119
.2835092 .596724 .6129493
.4445755 .5965264 .6127453
.5871665 .5959768 .6125881
.7117957 .5955939 .6114545
.8202314 .5953751 .6120416
.9158882 .5946099 .6113539
.9976419 .5931843 .6106153
0 .7228687 .61112
.03276366 .7228733 .6107711
.2777278 .7227891 .6104466
.4385216 .7228169 .6101118
.5830857 .7220209 .6101501
.7126248 .7215964 .6090552
.8236471 .7208743 .6073724
.9168172 .7200295 .6103687
.9975446 .7199718 .6099823
0 .8328698 .6084165
0 .8328522 .6082741
.269933 .8328275 .6078025
.4364191 .8324021 .6074177
.5819357 .8321588 .6062797
.7112707 .8316184 .6065164
.8227909 .8313696 .6063333
.916637 .8320597 .6064537
.9993095 .830195 .6062302
0 .9276921 .6070983
0 .9276376 .6068819
.2609746 .9272739 .6066359
.4324189 .9268511 .6056346
.5800965 .9266061 .6056479
.7089379 .9263389 .6057521
.8202769 .9260534 .6061288
.9160647 .9264401 .6046491
.997271 .9257975 .6047728
0 .9999999 .6049831
0 .9999999 .6048487
.2659319 .9999999 .6043438
.4360744 .9999999 .6041267
.581019 .9999999 .6042199
.7055154 .9999999 .6062962
.8157266 .9999999 .6062294
.9140072 .9999999 .6047255
.9941661 .9999999 .6031404
0 0 .7374776
.1198225 0 .7377002
.296773 0 .7379494
.4483738 0 .7380852
.5857698 0 .7381505
.7109954 0 .7386432
.8206444 0 .7383743
.915812 0 .7385356
.9982356 0 .7387437
0 .1340911 .7377551
.1133038 .1312363 .7378749
.2940452 .1254201 .7379927
.4472418 .118875 .7382296
.5854163 .121063 .7380773
.711048 .1115251 .7385802
.8208821 .1087384 .7387312
.916582 .1067507 .7386321
.9984915 .0928269 .7386128
0 .3024721 .7381588
.1020493 .301803 .7382476
.2902326 .2998011 .7383627
.4446249 .2972286 .7385493
.5852854 .2965349 .7386701
.7105618 .2947047 .7391124
.8220813 .2922096 .7396904
.9183163 .2901885 .7387621
.9994995 .2882214 .7379377
0 .4539793 .7388152
.0671689 .4534989 .7387732
.2821048 .4521898 .7388392
.4415969 .4507491 .7390309
.5846242 .4502657 .7389167
.7118906 .4491093 .7399378
.8235354 .4479666 .7397947
.9186054 .4490252 .7379939
.9998774 .449044 .7378452
0 .5940897 .7396553
.02799246 .5939603 .7395435
.2754603 .5937344 .7393075
.440602 .5933343 .7389116
.5832061 .5926614 .7392253
.7109437 .5922957 .7396466
.8228115 .5925092 .738396
.9179708 .5927975 .7375271
.9982291 .5931824 .7381318
0 .721337 .7392333
.04335627 .721511 .7392379
.2799515 .7219315 .7391623
.4382322 .7224604 .7388601
.5826005 .7219571 .7389153
.710667 .7211729 .7389305
.8203878 .7212885 .7385745
.91498 .720652 .7382903
.9962608 .7195269 .7379573
0 .8332399 .7383955
0 .8330628 .7384688
.2700142 .8326606 .7385375
.4353169 .8322681 .7381875
.5807948 .8316602 .7374449
.7100484 .8303071 .7381023
.822351 .8311176 .7368096
.9167415 .831102 .7353211
.9967274 .8301442 .7373234
0 .9272999 .7363417
0 .9272369 .7361161
.2621618 .9270762 .7355787
.4325568 .9267245 .7353049
.5794193 .9262452 .735572
.7092516 .925674 .7350228
.8180255 .925989 .7348194
.9145591 .9254975 .7351346
.997102 .9243323 .7344257
0 .9999999 .7340194
0 .9999999 .733775
.2648492 .9999999 .7334941
.4321669 .9999999 .7339374
.5802082 .9999999 .7331465
.7074272 .9999999 .7336459
.8155622 .9999999 .7336334
.912039 .9999999 .734303
.9923376 .9999999 .7339012
0 0 .8488322
.1132451 0 .8489692
.2916985 0 .8491431
.4464028 0 .8495763
.5835071 0 .8492091
.7114183 0 .8493087
.8211342 0 .8493981
.9160096 0 .8491475
.998183 0 .8491573
0 .125919 .8489838
.1028424 .1227414 .8490766
.2891625 .1167979 .8491815
.4444706 .1123951 .8495068
.5828674 .1154154 .8493103
.7111726 .1094382 .8494777
.8210666 .09884409 .8495644
.9163074 .09329573 .8492799
.9985431 .08008913 .8493915
0 .2984944 .8489878
.07765249 .2981194 .8490077
.2833611 .2974679 .8491401
.4412739 .2964628 .8494859
.5818527 .2955058 .8495598
.7091432 .2930825 .8499322
.8210685 .2891282 .8501538
.9171149 .2864511 .8499986
.9995992 .2826682 .8497866
0 .4527392 .849135
.05040152 .4521731 .8491942
.2779269 .4512055 .8494357
.4379821 .450085 .8499105
.5814923 .4478219 .8501958
.7080996 .4468141 .8505318
.8209266 .4461724 .8504964
.918288 .4441746 .8500965
.9999999 .4432355 .8497093
0 .5926966 .8498827
0 .5927516 .8499471
.2688335 .592133 .8500847
.4370374 .5909383 .8500035
.5809257 .5904606 .8500319
.7080476 .5902667 .850134
.821303 .5895309 .8504484
.9184363 .5885617 .8497467
.9989614 .5896109 .8486454
0 .7193027 .8498671
.0051806 .7193996 .8498181
.2697557 .7196317 .8496777
.4332339 .7202912 .8495718
.5800161 .7189018 .849874
.7085667 .7181251 .8500113
.8197944 .7188757 .8495195
.9162582 .7182509 .8488971
.9965556 .7190362 .8478624
0 .8313783 .8494932
0 .8313355 .8494312
.2716778 .8311543 .8492764
.4373839 .8310177 .8492041
.5801932 .8307773 .8489469
.7085647 .8308006 .8489413
.8193405 .8304976 .8488802
.9140734 .8309986 .8488432
.9953917 .8306015 .84819
0 .9272891 .8483836
0 .9271993 .8484475
.2639092 .9269187 .8486153
.4338933 .9264699 .848654
.581504 .9257082 .8487549
.7090126 .9250352 .848399
.8193805 .9249213 .8483989
.9148073 .9255195 .849147
.9944999 .9247543 .8488799
0 .9999999 .8477135
0 .9999999 .8476755
.2643013 .9999999 .8475581
.4338253 .9999999 .8468583
.5813991 .9999999 .8460487
.709515 .9999999 .8457896
.8192405 .9999999 .8469899
.9135841 .9999999 .8468201
.9933965 .9999999 .8463802
0 0 .9426117
.111046 0 .9427075
.2907225 0 .9429434
.4437508 0 .9433297
.5815778 0 .9434675
.7091231 0 .9435428
.8205668 0 .9438402
.9153365 0 .9438164
.9972386 0 .9431556
0 .1229791 .9427515
.1001301 .1202966 .9428384
.2874538 .1164417 .943029
.4424109 .1122984 .943345
.5808941 .1070035 .9434507
.7084271 .1026415 .9435308
.8199169 .09368264 .943812
.9155008 .08277377 .9439337
.9974177 .07440912 .9432685
0 .2974317 .9429708
.07784251 .2971287 .9430142
.2815776 .2964014 .9431362
.439402 .2951114 .9433569
.5807936 .2922533 .9435993
.7066123 .291129 .9436541
.8187665 .2881447 .9440475
.9158748 .285148 .9440805
.9977538 .2829659 .9438664
0 .4484376 .9432026
.00775887 .4477795 .943267
.2705218 .447777 .9435038
.4334778 .4471131 .943651
.579379 .4467113 .9435619
.7050484 .4459876 .9434659
.8189818 .4461682 .9439448
.9158909 .4447673 .9439937
.9980245 .4432185 .9438591
0 .5904639 .9430988
0 .5902992 .9430849
.2690938 .5898933 .9430511
.4348838 .589503 .942943
.5797492 .5891932 .9429837
.7073449 .5885983 .943094
.8188024 .5890717 .9434771
.9159483 .5883403 .9438429
.9977009 .587645 .9438617
0 .7174667 .9433954
0 .7175404 .9433312
.2611021 .7177546 .9431843
.4313235 .7167851 .942924
.5794618 .7162182 .9427202
.7076828 .7163903 .9428359
.8180854 .717551 .9433562
.9151349 .7164366 .9442929
.9972902 .7153376 .9442967
0 .8293016 .9435997
0 .8293448 .9435626
.2653744 .8296081 .9433706
.4311586 .8299338 .9434702
.5766131 .8297262 .9435344
.7065521 .8290191 .9435505
.8183695 .8289766 .9434707
.9139851 .829203 .9433634
.9958842 .8285891 .9432228
0 .925631 .943581
0 .9256005 .9435061
.2667109 .9255075 .9433706
.4353169 .9252674 .9433424
.5807391 .9251741 .9434696
.7057171 .9258973 .9433491
.8168374 .9257881 .9427091
.9135233 .9254893 .9420918
.9938608 .9254407 .941568
0 .9999999 .9414871
0 .9999999 .9414991
.2638979 .9999999 .9413909
.4340983 .9999999 .9410754
.5799019 .9999999 .9410878
.7080522 .9999999 .9409517
.8219017 .9999999 .9410015
.9162171 .9999999 .9417112
.9910676 .9995378 .9431367
0 0 .9999999
.1140329 0 .9999999
.2918982 0 .9999999
.4439144 0 .9999999
.5823941 0 .9999999
.7069818 0 .9999999
.8180851 0 .9999999
.9146629 0 .9999999
.9956875 0 .9999999
0 .1208519 .9999999
.1033303 .119167 .9999999
.2883053 .115923 .9999999
.4426302 .1136562 .9999999
.5822102 .1081635 .9999999
.7065364 .1001622 .9999999
.8179889 .09192923 .9999999
.9147519 .08616178 .9999999
.9960265 .08121134 .9999999
0 .2971678 .9999999
.08011916 .2972131 .9999999
.2822675 .2971748 .9999999
.4403824 .2962307 .9999999
.5819183 .2941589 .9999999
.7062487 .2915767 .9999999
.8173693 .289153 .9999999
.9145123 .2876846 .9999999
.9962154 .2852596 .9999999
0 .4472778 .9999999
0 .4471744 .9999999
.2678974 .4468803 .9999999
.4340449 .447592 .9999999
.5791621 .4474604 .9999999
.705054 .4477442 .9999999
.8169842 .4468796 .9999999
.914649 .4459634 .9999999
.9962288 .4447705 .9999999
0 .5893464 .9999999
0 .5891758 .9999999
.2673565 .5881318 .9999999
.4298444 .5864698 .9999999
.5777132 .5877973 .9999999
.7067117 .5888119 .9999999
.81679 .5900397 .9999999
.914584 .5895889 .9999999
.9955398 .5885834 .9999999
0 .71568 .9999999
.01217515 .715874 .9999999
.2674027 .7160753 .9999999
.4310151 .7162258 .9999999
.5761893 .7155092 .9999999
.7046108 .7152634 .9999999
.816152 .7167233 .9999999
.9130281 .7156363 .9999999
.9944733 .7147946 .9999999
0 .8276983 .9999999
0 .8276681 .9999999
.268108 .8274937 .9999999
.4344692 .8274691 .9999999
.5793973 .8270972 .9999999
.7066863 .8268376 .9999999
.8157482 .8277429 .9999999
.9106339 .8283708 .9999999
.9931676 .8279357 .9999999
0 .9230141 .9999999
.01514655 .9229413 .9999999
.2754912 .9227102 .9999999
.4385272 .9224151 .9999999
.581448 .9221885 .9999999
.7064333 .9221104 .9999999
.8192002 .9216499 .9999999
.9133355 .9226944 .9999999
.9925571 .9240748 .9999999
0 .9999999 .9999999
0 .9999999 .9999999
.2719527 .9999999 .9999999
.4371374 .9999999 .9999999
.5818439 .9999999 .9999999
.7058671 .9999999 .9999999
.8221909 .9999999 .9999999
.9191299 .9988624 .9999999
.9975852 .996555 .9999999
