luts/Timeless_34.cube
# 3D LUT of size 33x33x33 converted by Filestar.
#   Input:
#     color space: sRGB
#     white point: default (D65)
#     transfer function: default (sRGB)
#   Output:
#     color space: sRGB
#     white point: default (D65)
#     transfer function: default (sRGB)
#   Exposure: +0.25
#   Contrast: -40
#   Blacks: -21
#   Vibrance: +26
LUT_3D_SIZE 9
.02097418 .01488591 .03060538
.08180728 .00122139 .03711349
.2479393 0 .03126928
.3979878 0 .00442573
.5349846 0 0
.6642857 0 0
.7871464 0 0
.9009534 0 0
.9999999 0 0
0 .1285058 .01108133
.08828712 .1250357 .01234288
.2495263 .1281365 0
.4000526 .1211232 0
.5368724 .1132766 0
.6654193 .09465382 0
.7877541 .07814387 0
.9016245 .05352107 0
.9999999 .01843262 0
0 .2635503 0
.128766 .2626023 0
.26287 .2642453 0
.4046494 .2687171 0
.5386109 .2655386 0
.6663356 .2605922 0
.7885898 .255015 0
.9021692 .2477649 0
.9999999 .2396283 0
0 .4077514 0
.09306639 .4080275 0
.2622666 .4079535 0
.4080866 .4083577 0
.5427607 .4077218 0
.6704552 .40476 0
.7894757 .4029759 0
.9022124 .3998502 0
.9999999 .3944219 0
0 .5444974 0
.02243426 .5444571 0
.2505527 .5443392 0
.4028671 .5441919 0
.5431025 .5441602 0
.6733216 .5415038 0
.7929476 .5392495 0
.9040045 .5362518 0
.9999999 .5347311 0
0 .6721441 0
0 .6721601 0
.2336864 .6721969 0
.394681 .6721961 0
.5385373 .671751 0
.6700927 .6712154 0
.7918467 .6691972 0
.9046573 .66636 0
.9999999 .6640364 0
0 .792522 0
0 .7925122 0
.2074571 .7924998 0
.3841949 .7923697 0
.5330161 .792282 0
.6664724 .7916028 0
.7897781 .7908232 0
.9035802 .7884731 0
.9999999 .7863122 0
0 .9034553 0
0 .9034636 0
.1674736 .9034639 0
.3662236 .9033418 0
.5197545 .9033483 0
.6594633 .9029992 0
.7843874 .9019026 0
.899436 .9010572 0
.9999999 .8986714 0
0 .9999999 0
0 .9999999 0
.1057093 .9999999 0
.3417988 .9999999 0
.5041837 .9999999 0
.6481927 .9999999 0
.7779576 .9999999 0
.8943839 .9999999 0
.9988114 .9999999 0
0 .0192354 .1260058
.1000857 .00590019 .1293785
.2549044 0 .1336626
.4032472 0 .1250609
.5391623 0 .1145161
.6669618 0 .1081707
.7892108 0 .09100748
.9026372 0 .0664628
.9999999 0 .03104684
0 .1304871 .1261637
.09342278 .1289772 .1287676
.253084 .1293336 .1278301
.4041103 .10899 .121713
.5399072 .09642667 .1105131
.6677606 .08535474 .1010166
.7899048 .05979104 .08133151
.9030433 .02646776 .05477428
.9999999 0 .01863644
0 .2652257 .1193726
.1082767 .2651118 .1143483
.2651966 .2644717 .1053366
.4077615 .2644477 .09920227
.5403705 .2606441 .1079841
.6688007 .2569792 .09051808
.7906774 .2503561 .06523189
.9035801 .2422553 .03657781
.9999999 .235235 .00405964
0 .4087814 .07412765
.0670887 .4090653 .06704918
.259199 .4088899 .06735446
.4087855 .4087721 .0732769
.5463831 .4079523 .05520514
.6726942 .4022979 .06319296
.7907054 .4010226 .0645775
.9035489 .3965635 .02609813
.9999999 .3913741 0
0 .5450945 0
0 .5453803 0
.2404099 .5454428 0
.4013593 .5451765 0
.5435534 .5452046 .00940287
.6754001 .5414539 .003574
.7946205 .5382621 0
.9049345 .534817 0
.9999999 .5336081 0
0 .6731249 0
0 .6730803 0
.2222418 .6729942 0
.3905277 .672854 0
.5372161 .672448 0
.6703584 .6721772 0
.7935483 .6691291 0
.9066045 .6657013 0
.9999999 .6633031 0
0 .7933014 0
0 .7932326 0
.1939777 .7930579 0
.3796524 .7928118 0
.531083 .7927307 0
.6666299 .7922679 0
.7901903 .7915114 0
.9048098 .7885275 0
.9999999 .7857398 0
0 .9040799 0
0 .9039873 0
.1516214 .9038404 0
.3620358 .9036472 0
.5169027 .9037253 0
.658078 .9033635 0
.7848132 .9025003 0
.8995944 .9016188 0
.9999999 .8987262 0
0 .9999999 0
0 .9999999 0
.07683536 .9999999 0
.3367696 .9999999 0
.5010478 .9999999 0
.6461617 .9999999 0
.7769036 .9999999 0
.8944746 .9999999 0
.9985314 .9999999 0
0 0 .2632177
.1205824 0 .2647619
.2655392 0 .2693995
.4071536 0 .2691764
.543601 0 .2660999
.6711837 0 .2605005
.7914765 0 .2553886
.9045138 0 .2489465
.9999999 0 .2407906
0 .1204376 .2690264
.1031624 .1161128 .2704471
.263338 .1039432 .2711472
.4089168 .09540702 .2693204
.5426872 .08437093 .2652092
.6701655 .06911627 .259658
.7916656 .04407409 .2543885
.9047713 0 .2473768
.9999999 0 .2383814
0 .2665 .2691461
.08271412 .2665142 .2695027
.2567298 .2645401 .267695
.4039439 .2636359 .2680185
.5411547 .2580402 .2636975
.6703737 .2513384 .2581142
.7923804 .2437369 .250304
.9054698 .2336049 .2421504
.9999999 .223974 .2324138
0 .4108239 .2581044
.00253632 .4109304 .2543396
.2462764 .4103239 .2487449
.4078114 .4091998 .2472152
.5479317 .4039665 .2430689
.67068 .4020305 .2542114
.7929814 .3975018 .2450634
.9056965 .3920612 .2361645
.9999999 .3848189 .2262259
0 .5457378 .2339596
0 .5460312 .2316844
.2188845 .546986 .2286727
.3982415 .547429 .2280746
.5427063 .5465124 .2286572
.6791288 .540517 .2234452
.7968996 .5351024 .2299773
.9038541 .5352675 .2376029
.9999999 .5306573 .2269225
0 .674379 .2040814
0 .6744465 .2023023
.1916864 .6747946 .1978194
.3813004 .6743883 .2007118
.5348889 .6738965 .2040499
.6710043 .6731073 .2060022
.7967623 .6690085 .2040716
.90907 .6649479 .1962038
.9999999 .6596169 .1915783
0 .794314 .1733329
0 .7943926 .1703077
.1576108 .7944529 .1630967
.3651144 .794146 .1643507
.5249849 .7937908 .1677957
.6644335 .7931795 .1669713
.7913841 .7925347 .1786428
.9080437 .7888889 .1833701
.9999999 .7841654 .1620923
0 .9048361 .1221682
0 .9048535 .1179266
.1110753 .9048725 .1077378
.3468437 .9047198 .109072
.5091501 .9045778 .109903
.6544374 .9043047 .1161205
.7841566 .9034707 .1272908
.9008605 .9028891 .1348127
.9999999 .8990315 .1423235
0 .9999999 .03046368
0 .9999999 .0205655
.01048451 .9999999 0
.3235232 .9999999 0
.4930629 .9999999 0
.6411891 .9999999 .00617133
.7743424 .9999999 .02506245
.8930709 .9999999 .0416745
.9990571 .9999999 .07973485
0 0 .4087229
.1199971 0 .4095277
.2685848 0 .410486
.4099791 0 .4116459
.5454546 0 .410718
.673222 0 .4053699
.7947904 0 .4013457
.9067923 0 .3954372
.9999999 0 .3890485
0 .08441717 .4105208
.09354574 .07659843 .4107296
.2622772 .07703074 .41188
.4122363 .06211557 .4125108
.5474994 .04729468 .4105959
.6742453 .02814209 .4041237
.7950246 0 .4005732
.9069207 0 .3948609
.9999999 0 .3884963
0 .2542492 .4127989
.04348901 .2505608 .413267
.2522346 .2442006 .4131644
.4106551 .2448257 .412524
.5466446 .2508217 .4064283
.6734241 .2455478 .4026248
.7942727 .2379775 .3991243
.9067956 .2281745 .3937774
.9999999 .2116731 .3869974
0 .4089012 .4113038
0 .4087067 .4112588
.2405728 .4063671 .4110981
.4031927 .4018345 .4069608
.5406808 .4014746 .4041973
.670478 .3985766 .4018659
.7926562 .393595 .3983148
.9061111 .3870524 .393376
.9999999 .3793732 .3854423
0 .5477248 .3975878
0 .5479591 .3958231
.2006519 .5470369 .3915861
.3789201 .5468093 .3878558
.5451499 .5452031 .3858094
.6765999 .5394046 .3871776
.7907431 .5367061 .3963237
.9048808 .5316136 .3902983
.9999999 .5259394 .3829851
0 .6750837 .3752131
0 .6752179 .373579
.142566 .6757687 .3694295
.3622701 .6755341 .3670776
.5319281 .6755663 .3661661
.6710637 .6746708 .3652296
.8001918 .6676691 .3636996
.9107324 .6627358 .3661064
.9999999 .6592734 .3694445
0 .7952304 .3546264
0 .7952425 .3538014
.09235565 .7952996 .3514432
.3415152 .7954084 .3470874
.5178008 .7948698 .3465032
.6621958 .7943839 .3470482
.7916955 .7932789 .3495238
.9094628 .7891669 .3450903
.9999999 .7828426 .3347165
0 .906387 .3284141
0 .9063854 .3275908
0 .906359 .3258555
.3188318 .906295 .3226233
.4975848 .9059935 .3215851
.6487122 .9055673 .3254944
.7819163 .904591 .3268231
.9022064 .903065 .3268813
.9999999 .8993662 .3246339
0 .9999999 .3064868
0 .9999999 .3054018
0 .9999999 .3026586
.3000902 .9999999 .2978426
.4796879 .9999999 .2951538
.6323298 .9999999 .2969297
.770337 .9999999 .297584
.8912646 .9999999 .300498
.9999141 .9999999 .3040296
0 0 .5428375
.1059434 0 .5431641
.2584759 0 .543226
.4061872 0 .5446002
.5484934 0 .5460159
.6754904 0 .5473101
.7954663 0 .5414687
.9076445 0 .5366222
.9999999 0 .5305302
0 .06000938 .5437014
.07308189 .04567248 .5443902
.2527769 .02053316 .5452312
.4058406 0 .5467076
.5499685 0 .5482
.6779414 0 .547533
.7962324 0 .5405988
.9084492 0 .5355255
.9999999 0 .5298302
0 .237736 .5457081
0 .2348533 .5461672
.2395106 .2326225 .5471497
.3978581 .2292413 .5482227
.5484264 .2252914 .5488995
.6801852 .2251287 .545479
.7986299 .2201872 .5382352
.9095551 .2098295 .5333661
.9999999 .1941135 .5282921
0 .3954094 .54716
0 .3934405 .5474225
.2151368 .3902826 .5477985
.3859935 .3850422 .5471123
.5443422 .3840988 .5473381
.6779903 .3869329 .5413094
.7968631 .3856277 .5354284
.9085289 .3794217 .5308905
.9999999 .373044 .5263859
0 .5458511 .5465124
0 .545813 .5466471
.1846455 .5458058 .5466669
.3792492 .5424002 .5445954
.5382603 .5355454 .5396614
.6686357 .536942 .5389814
.7900851 .5341926 .5362447
.9035501 .5301811 .5331812
.9999999 .5240305 .5279794
0 .6785735 .5328916
0 .6783785 .5315101
.1072314 .677501 .5284973
.3512861 .6752338 .5253235
.5164337 .6745319 .5221801
.6718557 .6728976 .5208376
.7973597 .6661235 .5206923
.9039153 .6637268 .5301224
.9999999 .6600603 .5263566
0 .7966099 .5117711
0 .7964612 .5106476
0 .7960764 .5078374
.3170856 .7956806 .5045003
.5004745 .7948974 .5041889
.6558785 .7950508 .5031129
.7908114 .7937879 .5013619
.9116732 .7875462 .4988455
.9999999 .7819082 .4993626
0 .9070234 .4942764
0 .9071091 .4935316
0 .9071041 .4911932
.2915845 .9070172 .4887407
.484065 .9064844 .487841
.6397394 .9061239 .4863423
.7792016 .9060354 .4843085
.9022065 .9041507 .486061
.9999999 .8996398 .483525
0 .9999999 .4757364
0 .9999999 .4752888
0 .9999999 .4742411
.2700701 .9999999 .4724375
.4685247 .9999999 .4699412
.6268415 .9999999 .4690934
.7666851 .9999999 .4690333
.8910447 .9999999 .4709779
.9999129 .9999999 .4699291
0 0 .6699557
.09974641 0 .6703838
.2539586 0 .6711192
.399433 0 .6720303
.5404779 0 .6730016
.6727476 0 .6736328
.7955146 0 .6732488
.909597 0 .6707264
.9999999 0 .6658834
0 .0247799 .6706523
.03863465 .00828255 .6711936
.2457516 0 .6718159
.3940056 0 .6725947
.5388479 0 .673853
.6738628 0 .6748959
.7983721 0 .6740832
.9103335 0 .6708488
.9999999 0 .6647903
0 .2288309 .6727223
0 .225884 .6729321
.2249847 .2197339 .6736346
.3889154 .2124587 .6748232
.534658 .2064766 .6762153
.6765926 .2029859 .6771531
.8011751 .2017948 .6749728
.911707 .1939816 .6693483
.9999999 .1689269 .6625029
0 .3817852 .6751813
0 .3798969 .6754888
.1850978 .376053 .6757101
.3736521 .3688422 .6765208
.5290336 .3648135 .6780757
.6780871 .3621484 .6786301
.8035474 .3641616 .6741274
.9128149 .3660599 .6659793
.9999999 .3594652 .6604545
0 .5314769 .676451
0 .5301061 .6765368
.1353851 .528 .6760176
.349099 .5248253 .6752497
.5220971 .5198019 .674962
.6755686 .5196565 .6753527
.7984221 .5224322 .6690806
.9084457 .5206582 .6631702
.9999999 .5180432 .6591651
0 .6741328 .6747485
0 .6742262 .6748003
.07494914 .6744273 .6749068
.3446999 .6733909 .6745046
.515291 .6708642 .6721119
.6667637 .6648759 .6687026
.7888414 .664725 .6666051
.9024284 .6623695 .6643319
.9999999 .6594086 .6605234
0 .7988676 .6619512
0 .7987123 .6615787
0 .7980649 .6602551
.3135736 .7964845 .6578616
.49462 .7945328 .6556576
.6476524 .7929248 .6520209
.7900302 .7922754 .6508035
.9079898 .7867665 .6502042
.9999999 .7841636 .6574388
0 .907733 .6460917
0 .907611 .6453998
0 .90731 .6435931
.2727063 .9066516 .6408381
.4730811 .9056031 .6381236
.634244 .9047881 .6368825
.7766535 .9044974 .6362942
.9017718 .9028113 .6355801
.9999999 .8975818 .6313549
0 .9999999 .6276752
0 .9999999 .6269273
0 .9999999 .6250482
.2301197 .9999999 .6225671
.4548101 .9999999 .6202707
.6224039 .9999999 .6206939
.7626628 .9999999 .6198848
.8905947 .9999999 .6189639
.9999999 .9999999 .6176644
0 0 .7899002
.06213839 0 .7902793
.2425628 0 .7907117
.3950243 0 .7911696
.5335422 0 .7922462
.6676113 0 .7931616
.7908266 0 .7936525
.906779 0 .792119
.9999999 0 .7898209
0 0 .7902176
0 0 .7906502
.2313931 0 .7911437
.3891937 0 .7917227
.529844 0 .7926607
.6668406 0 .7939283
.7917934 0 .7943243
.9085185 0 .792579
.9999999 0 .7899176
0 .2176399 .7918795
0 .2144287 .792119
.2055564 .2068067 .7927415
.3753168 .1974162 .7936028
.5250509 .1871026 .7944632
.664919 .1743037 .7955314
.7944558 .1732017 .795629
.9112202 .1625164 .793683
.9999999 .1413786 .7900102
0 .3689561 .7940411
0 .3666709 .7941812
.160396 .3613222 .794439
.3564651 .3558323 .7953578
.5168096 .3499512 .7964002
.6619628 .3470983 .7975298
.7969906 .345055 .7969382
.9152548 .3427941 .7946228
.9999999 .3423767 .7879871
0 .5150338 .7947651
0 .5139871 .7949435
.05399241 .5118636 .7951686
.3367966 .5061318 .7950742
.5056254 .5025105 .7963316
.6560875 .5027581 .796885
.7961975 .50423 .7962306
.9152038 .5040428 .7926832
.9999999 .5060931 .7860078
0 .6584681 .7956221
0 .6576174 .7958052
0 .6564317 .7956208
.3119375 .6549587 .7952729
.4908884 .6528685 .794955
.6503075 .6502185 .7943945
.7941682 .6500604 .7941258
.9090012 .6522869 .787688
.9999999 .6503325 .7841718
0 .7933412 .7938111
0 .7933905 .7938426
0 .7934653 .7939686
.3037413 .7931463 .7942405
.4889374 .7923832 .7927325
.644286 .791163 .790221
.7865734 .7858911 .7885734
.8992025 .7855579 .7881007
.9999999 .7836209 .7858889
0 .9090958 .7840011
0 .9091089 .783725
0 .9089268 .7825723
.2735789 .907715 .7819797
.4726955 .9060529 .7810894
.6317781 .9037661 .7791967
.7717006 .9020007 .7759699
.8999783 .9010165 .7752567
.9999999 .8959088 .7724075
0 .9999999 .7704141
0 .9999999 .7699279
0 .9999999 .7686909
.2279875 .9999999 .7668082
.4521728 .9999999 .7652712
.6203879 .9999999 .7622368
.7581609 .9999999 .7618125
.888179 .9999999 .7613568
.9995819 .9999999 .7604299
0 0 .9014248
0 0 .9015575
.2312912 0 .9021533
.3840836 0 .9028938
.5259094 0 .902971
.6609988 0 .9039552
.7868003 0 .9043471
.9022737 0 .904083
.9999999 0 .9035271
0 0 .9014369
0 0 .9016652
.2194726 0 .9023852
.3777322 0 .9028043
.5214908 0 .9033272
.6586756 0 .9042983
.7868645 0 .9050903
.9030424 0 .904832
.9999999 0 .9037789
0 .1991093 .9020463
0 .1947367 .9023262
.1956179 .1847214 .9030813
.3670267 .1746106 .9040456
.5152705 .1580175 .9046954
.65444 .141681 .9054911
.785944 .1307733 .9064989
.9049735 .1319031 .9062305
.9999999 .107378 .9048355
0 .3555184 .9039159
0 .3534242 .9040616
.1345556 .3487495 .9043895
.3473054 .342286 .9048247
.5067165 .335934 .9057253
.6479949 .3299894 .9064665
.7841893 .3255132 .9075282
.9073448 .3237094 .9075175
.9999999 .3195659 .9057342
0 .5037913 .9047965
0 .5027294 .9048278
0 .500059 .9049478
.3159797 .4952689 .905342
.4939874 .4905807 .9063359
.6442307 .4881498 .9068962
.7824856 .4881461 .907717
.9065739 .4873635 .9073861
.9999999 .4831062 .9057828
0 .6432924 .906031
0 .6424654 .9060947
0 .6418 .9059821
.291444 .6400799 .9059737
.4784525 .6370445 .905594
.6358666 .6365988 .9060121
.7769821 .6365618 .906558
.9038932 .6376507 .9059993
.9999999 .6355461 .9031326
0 .7794282 .9064452
0 .7792799 .9064462
0 .778908 .9064482
.2779986 .7777243 .906427
.4716048 .7766914 .9057577
.631865 .774757 .9043595
.7719178 .774665 .9034807
.9015622 .7739471 .9035878
.9999999 .7753414 .8988969
0 .9035044 .9050823
0 .9034208 .9051481
0 .9032853 .9051732
.2602615 .9032628 .9053181
.4645039 .9031477 .9042143
.6275971 .9021466 .9024869
.7691126 .9014225 .901511
.8967164 .8977026 .8999792
.9977059 .8979518 .8988193
0 .9999999 .8968614
0 .9999999 .8966613
0 .9999999 .8962201
.2371456 .9999999 .8951412
.4553853 .9999999 .8941092
.6192216 .9999999 .8936424
.7607815 .9999999 .8914452
.88637 .9999999 .8909643
.9996529 .9988694 .8913568
0 0 .9999999
0 0 .9999999
.2163751 0 .9999999
.3735731 0 .9999999
.5208778 0 .9999999
.6547595 0 .9999999
.7815859 0 .9999999
.8989336 0 .9999999
.9999999 0 .9999999
0 0 .9999999
0 0 .9999999
.2056324 0 .9999999
.3678181 0 .9999999
.5162912 0 .9999999
.6520798 0 .9999999
.7802237 0 .9999999
.8981723 0 .9999999
.9999999 0 .9999999
0 .1789267 .9999999
0 .1741239 .9999999
.1845988 .1608065 .9999999
.3581003 .1461474 .9999999
.508883 .1299063 .9999999
.647159 .1059852 .9999999
.7772095 .08098204 .9999999
.8974336 .04398325 .9999999
.9999999 .05109242 .9999999
0 .3427644 .9999999
0 .3403221 .9999999
.1023894 .3349537 .9999999
.3349375 .3276764 .9999999
.4921938 .3194736 .9999999
.6400787 .312371 .9999999
.7728899 .3070194 .9999999
.8948788 .3024854 .9999999
.9999999 .3020163 .9999999
0 .4908934 .9999999
0 .4895464 .9999999
0 .4860584 .9999999
.2975557 .4800993 .9999999
.4775788 .4759983 .9999999
.63315 .4719455 .9999999
.7680981 .469844 .9999999
.8939376 .470315 .9999999
.9999999 .4709176 .9999999
0 .629928 .9999999
0 .6297209 .9999999
0 .6285019 .9999999
.2615638 .6259772 .9999999
.4634502 .6230528 .9999999
.6225799 .6203011 .9999999
.7627178 .6194804 .9999999
.8925288 .6208432 .9999999
.9999999 .6225476 .9999999
0 .7652058 .9999999
0 .7649616 .9999999
0 .7643886 .9999999
.2376254 .763469 .9999999
.4556266 .7601842 .9999999
.6160476 .7600262 .9999999
.7583606 .7610212 .9999999
.8884785 .761822 .9999999
.9999999 .7624398 .9999999
0 .8907903 .9999999
0 .8906262 .9999999
0 .8902072 .9999999
.2289218 .8894941 .9999999
.4491922 .8889133 .9999999
.6173608 .8873574 .9999999
.7616071 .8872566 .9999999
.8864642 .8886237 .9999999
.9999999 .888092 .9999999
0 .9999999 .9999999
0 .9999999 .9999999
0 .9999999 .9999999
.2070189 .9999999 .9999999
.4377328 .9999999 .9999999
.6105497 .9999999 .9999999
.7577568 .9999999 .9995759
.8875927 .9998314 .9995757
.9999999 .9957438 .9977664
