luts/Timeless 40.cube
# 3D LUT of size 33x33x33 converted by Filestar.
#   Input:
#     color space: sRGB
#     white point: default (D65)
#     transfer function: default (sRGB)
#   Output:
#     color space: sRGB
#     white point: default (D65)
#     transfer function: default (sRGB)
#   Exposure: -0.01
#   Contrast: +6
#   Whites: +25
#   Blacks: -14
#   Vibrance: +22
LUT_3D_SIZE 9
0 .04420969 .02558548
.09364546 .01534581 .02298947
.2193454 0 .02254739
.3536744 0 0
.4854835 0 0
.6175569 0 0
.7495005 0 0
.8809097 0 0
.9999999 0 0
0 .1165622 .01283391
.09979301 .1196665 .01089919
.2258944 .1259916 .0022939
.3567793 .1293738 0
.4868842 .1256983 0
.6179971 .1133596 0
.7500087 .1029486 0
.8812823 .08176268 0
.9999999 .05650815 0
0 .2672136 0
.1005986 .2675945 0
.2362734 .267296 0
.3629581 .2677671 0
.488329 .2706368 0
.6184051 .2692031 0
.7509199 .2661852 0
.8820785 .2598822 0
.9999999 .2545347 0
0 .4139647 0
.06180938 .4140915 0
.232328 .413118 0
.365866 .412259 0
.4940072 .4130499 0
.6220993 .4145292 0
.7534503 .4127097 0
.8821812 .4136382 0
.9999999 .4107981 0
0 .5615063 0
0 .5614305 0
.2119271 .5612252 0
.3618231 .5602238 0
.4924772 .5608798 0
.6239156 .56085 0
.7556112 .5603715 0
.8859469 .5596128 0
.9999999 .5573719 0
0 .7074755 0
0 .7075961 0
.1934239 .7080748 0
.345647 .7089251 0
.4878612 .7090361 0
.6245472 .7070423 0
.7560391 .7053941 0
.8852718 .704703 0
.9999999 .7016875 0
0 .851546 0
0 .8515961 0
.150246 .851764 0
.3301049 .8520274 0
.4788473 .8518281 0
.6203423 .8511399 0
.7522971 .8507925 0
.882414 .8482508 0
.9999999 .8447696 0
0 .9890031 0
0 .9889321 0
.1344101 .9887511 0
.3213629 .9884831 0
.4694647 .9886422 0
.6071572 .9889359 0
.7431599 .9879276 0
.8738033 .9867713 0
.9999999 .9824598 0
0 .9999999 0
0 .9999999 0
.1453951 .9999999 0
.3229292 .9999999 0
.466572 .9999999 0
.602881 .9999999 0
.7364804 .9999999 0
.858504 .9999999 0
.9758548 .9999999 0
0 .02026462 .1028349
.1056948 0 .1004304
.2252886 0 .1049737
.3594658 0 .09562857
.4892794 0 .09649067
.618521 0 .09415282
.750479 0 .07426975
.8814331 0 .05464215
.9999999 0 .04094794
.0120599 .1101545 .1045733
.1061733 .1155386 .1067568
.2290954 .1209254 .1034511
.3614254 .1209958 .09644783
.488117 .1169566 .0909088
.6189775 .1029787 .08783872
.7509424 .09179241 .06698331
.8818527 .06934757 .04620794
.9999999 .03638497 .02601583
0 .2669356 .09550399
.08895206 .2683251 .08845023
.2333353 .2680222 .07943238
.3628545 .2680051 .08740612
.4893047 .2681993 .08222761
.6199388 .2655215 .07479212
.7516577 .2628518 .05157439
.882746 .2563608 .03810528
.9999999 .2501362 .00441595
0 .4158849 .02871666
.02965131 .4153787 .03378459
.2259384 .4141146 .04540222
.3647105 .4131244 .04966751
.4944476 .4131193 .04703797
.6229624 .4136779 .04175833
.7541193 .4116305 .03444983
.8827248 .4120132 .03498879
.9999999 .4085548 0
0 .5621132 0
0 .5622406 0
.2006195 .5621709 0
.3591452 .560905 0
.4919212 .5617118 0
.6248115 .5609395 0
.7569204 .5599412 0
.8864276 .5588367 0
.9999999 .5558444 0
0 .7077753 0
0 .7078679 0
.1855631 .7082716 0
.3423512 .709241 0
.4867273 .7093918 0
.6239792 .7074872 0
.7567435 .7056496 0
.8863072 .7046243 0
.9999999 .7013493 0
0 .851749 0
0 .8517789 0
.137861 .8518946 0
.3252732 .8521116 0
.4767857 .8519111 0
.6195367 .8511834 0
.7515598 .8510357 0
.8825181 .8485679 0
.9999999 .8445752 0
0 .9890422 0
0 .9889724 0
.1242797 .9887914 0
.3173535 .9885661 0
.4668066 .9887206 0
.6067513 .9889237 0
.7424325 .9881026 0
.8731434 .9869654 0
.9999999 .9826303 0
0 .9999999 0
0 .9999999 0
.1354857 .9999999 0
.3189405 .9999999 0
.4640757 .9999999 0
.6010258 .9999999 0
.7358402 .9999999 0
.85783 .9999999 0
.9755977 .9999999 0
0 .00348638 .2290219
.1063739 0 .2306702
.2354811 0 .2332288
.3621182 0 .2319777
.4923024 0 .2312052
.6215475 0 .2290383
.7521075 0 .222645
.8825356 0 .2171136
.9999999 0 .2123841
0 .1141176 .2324157
.1107598 .1106974 .2337729
.236673 .1060961 .2334402
.364969 .1072954 .2321964
.4923427 .09714765 .2294601
.6223752 .07977494 .2262615
.7524951 .06642373 .2197995
.8832802 .03090199 .2155729
.9999999 0 .2099007
0 .2684009 .2324696
.05747893 .2684828 .2311286
.2271157 .2658556 .2274612
.362258 .2652844 .2259287
.4909728 .264307 .2252202
.6221991 .2584196 .2231151
.7534248 .2552107 .2157707
.8843622 .2481995 .2130404
.9999999 .2393434 .2072017
0 .4177809 .2098429
0 .4173906 .2081562
.2077513 .4167823 .2062031
.3602726 .415215 .2064406
.4949501 .4138228 .2063551
.6243278 .4114858 .2154649
.7554948 .4092932 .2149506
.8842911 .4076686 .210459
.9999999 .4030091 .2026042
0 .5639589 .1876962
0 .5640516 .1868469
.1840564 .5636531 .1873406
.3499171 .5628642 .1876773
.4898072 .5635065 .1868464
.6260599 .56192 .1846632
.7596402 .558822 .17983
.8872764 .5570425 .1926236
.9999999 .5536196 .1935284
0 .7091005 .1589774
0 .7093084 .1582102
.1603285 .7094107 .1531116
.3350953 .7098008 .1532974
.4823143 .7103405 .1577093
.6229542 .7087666 .1596957
.7581061 .7064706 .1494612
.888611 .7045683 .149354
.9999999 .7004483 .1571426
0 .8520826 .112973
0 .8522068 .1129849
.1070206 .8522606 .1109541
.3152274 .8524366 .1103218
.4713192 .852397 .1135438
.6171414 .8518044 .1207865
.7501737 .8515021 .1251707
.8824082 .8490399 .1210526
.9999999 .8443823 .1108041
0 .9888864 .09404684
0 .9889043 .0948846
.09637439 .9888219 .09586354
.308035 .9886491 .1022875
.4601077 .9887576 .09693027
.6022773 .9890268 .090788
.7406679 .9885744 .08457846
.8721272 .9873863 .07193688
.9999999 .982744 .0650782
0 .9999999 .114574
0 .9999999 .1150321
.1160128 .9999999 .1153333
.311533 .9999999 .1157495
.459518 .9999999 .1094187
.6011839 .9999999 .1137918
.7336818 .9999999 .1198601
.8562965 .9999999 .1203869
.9752029 .9999999 .1296953
0 0 .3610595
.09777559 0 .3627387
.2316858 0 .3656662
.3634504 0 .3660805
.4932234 0 .3645885
.6240066 0 .3617749
.7552942 0 .3595625
.8852972 0 .3555623
.9999999 0 .3478829
0 .1066923 .3656543
.07764617 .1023635 .3661752
.2268686 .09128941 .3671254
.3652078 .08222718 .3663349
.4955078 .07722419 .3640178
.6250048 .06207046 .3597395
.7559114 .01200263 .3575229
.8858128 0 .3537276
.9999999 0 .3451175
0 .2607698 .3655276
.01699875 .2586386 .3657469
.2172712 .2546068 .3652584
.3613726 .2525152 .363861
.4972269 .2526616 .3592289
.6258382 .2485664 .3561813
.7554622 .245496 .3535693
.8863916 .233683 .3494838
.9999999 .222671 .3428473
0 .4174472 .3617792
0 .4174652 .361223
.1878242 .4171462 .3586323
.3510602 .4151016 .3520373
.491102 .4122282 .3527682
.6240589 .4092052 .3542587
.7556702 .4061017 .3537388
.8867237 .3994376 .3501357
.9999999 .3954967 .3445855
0 .5651575 .3445512
0 .5650861 .3434359
.1486118 .5648226 .3399987
.3348539 .5645554 .3391939
.4848202 .5644635 .3373827
.6283181 .5614763 .3360238
.7606467 .5572512 .34055
.8881394 .5541146 .3426144
.9999999 .5522323 .3419073
0 .7104681 .3218934
0 .7104331 .3215299
.08996209 .710547 .3213809
.317501 .7105042 .320924
.4750503 .7109231 .3196943
.6223091 .7098665 .3184849
.7603591 .7072685 .3103527
.8912186 .7035086 .3108663
.9999999 .6989911 .3275009
0 .852256 .3021226
0 .8522993 .3017273
0 .8527336 .2998697
.2969569 .8531103 .2996058
.4613356 .8531669 .2976242
.6105394 .8527269 .2983861
.7494436 .8519841 .2978736
.8826544 .8494942 .2967633
.9999999 .8437132 .2956028
0 .988791 .2931773
0 .9887105 .2940896
.00271915 .9887612 .2943728
.2905457 .9886646 .2940142
.4486478 .9887391 .2902744
.5948362 .988848 .2872744
.7367447 .9889198 .2858028
.87122 .987518 .2822126
.9998903 .9825116 .2815883
0 .9999999 .3015032
0 .9999999 .3015352
.06851204 .9999999 .3014415
.2992888 .9999999 .2990946
.4550309 .9999999 .2977567
.5963596 .9999999 .2965996
.730975 .9999999 .2980508
.8544254 .9999999 .2981444
.9748649 .9999999 .3025213
0 0 .4922603
.07912772 0 .4931697
.2223303 0 .4949204
.3599355 0 .4962636
.4960295 0 .4965224
.626197 0 .4962263
.7584407 0 .4933912
.8880548 0 .4902372
.9999999 0 .4854813
0 .09298665 .4949265
.02028961 .08516564 .4955227
.2146999 .07479195 .4963667
.3581729 .05708357 .4973218
.4967918 .04256134 .4974432
.6291535 .00337431 .4969084
.7591178 0 .4922507
.8882928 0 .489242
.9999999 0 .483882
0 .2512501 .4970016
0 .2491567 .4972619
.1942557 .2454109 .4977498
.35156 .2418357 .4976241
.4988129 .2362692 .4973114
.6316968 .2362118 .4940843
.7596041 .2336905 .4898669
.8881528 .2305099 .48729
.9999999 .2167788 .4805205
0 .4117463 .497153
0 .4111186 .497187
.165292 .4095203 .497095
.3341987 .4064023 .4963551
.4917463 .4027468 .4942092
.6275106 .4045168 .4902815
.7558404 .4049349 .4883027
.8866136 .3974302 .4838328
.9999999 .3894706 .4776662
0 .5661184 .4920703
0 .5661191 .4917639
.1183738 .5661464 .4904535
.3184425 .5655 .486815
.4781913 .5634651 .4814833
.6264639 .5589311 .4798042
.7541847 .5572398 .4869042
.8857412 .5516573 .4837009
.9999999 .548727 .4798312
0 .7124673 .4746904
0 .7122951 .4737581
0 .7117505 .4711803
.2955553 .7109808 .466853
.4637122 .7106277 .4664587
.6174201 .7095944 .4663004
.7616128 .7065863 .4582727
.8910919 .7025287 .4597983
.9999999 .6984071 .4755345
0 .8538963 .4538162
0 .8538794 .4527082
0 .8535725 .4524971
.2748569 .8531469 .4527465
.4502048 .8533773 .4523566
.6037673 .8529173 .449688
.7465256 .8521936 .4492797
.883305 .8493864 .4468296
.9999999 .8425716 .4449266
0 .9896166 .4402186
0 .9894132 .4410544
0 .9888752 .4429943
.2706337 .9883779 .4445624
.4390115 .988001 .4455969
.5902766 .9880217 .44339
.7323124 .9884322 .4429502
.8695421 .9871065 .438058
.9993005 .9819759 .4364429
0 .9999999 .4460909
0 .9999999 .4470802
.0395525 .9999999 .4480325
.2922682 .9999999 .4489163
.4504812 .9999999 .4503509
.5950341 .9999999 .4503044
.7306209 .9999999 .4512864
.8547701 .9999999 .4500545
.9736119 .9999999 .4501731
0 0 .6230739
.04350214 0 .6236516
.2187858 0 .6245932
.3582001 0 .6256973
.4944333 0 .6271393
.6262515 0 .627448
.7566099 0 .6256713
.8900043 0 .6243222
.9999999 0 .6187637
0 .07047469 .6243093
0 .06577317 .6246559
.2107059 .04894863 .6253952
.3544851 .0193631 .6265838
.4934758 0 .6281316
.6279247 0 .6283305
.7587551 0 .6262901
.8908791 0 .6238242
.9999999 0 .61814
0 .2437133 .6262081
0 .2413941 .6265004
.1835388 .2366619 .6272505
.3442917 .2293474 .6286569
.4928225 .2213213 .6295916
.6313629 .2156232 .629551
.7637672 .2099663 .6269562
.8912591 .2120547 .6216465
.9999999 .2057289 .6160814
0 .3986526 .6283867
0 .3976465 .6286137
.1387132 .3957468 .6289107
.3242715 .3913856 .6292793
.4824412 .3886709 .6290913
.6298837 .3847712 .6286414
.7621105 .388033 .623534
.8894655 .3890965 .6195782
.9999999 .3879576 .6158368
0 .5603246 .6278408
0 .5598511 .6278247
.07800484 .5583146 .6279956
.3061076 .5564083 .6275952
.4676105 .5539166 .6262261
.6247188 .5518764 .6235622
.756902 .5527541 .6204841
.8841736 .5510641 .6175686
.9999999 .5461348 .6142551
0 .7130998 .6215811
0 .713051 .6212368
0 .7129366 .6204094
.2828508 .7122144 .6180485
.4557177 .7102932 .6150653
.6115618 .7078091 .612316
.7571046 .7048323 .6092258
.8820624 .7020299 .6167737
.9999999 .6993828 .6167735
0 .8550679 .6048135
0 .8549466 .6042398
0 .8546638 .6030413
.2558543 .8540767 .6012562
.4406683 .8532598 .5986754
.5961689 .8525044 .5990414
.7438664 .8512741 .5980695
.8837922 .8481852 .5953301
.9999999 .8416175 .5932864
0 .989688 .5894275
0 .9896182 .5888607
0 .9894015 .5871108
.2394288 .9886867 .5857689
.4325711 .9874217 .5891132
.5843046 .9873195 .5896916
.7294444 .987299 .5888212
.8679121 .985981 .5857623
.9999999 .9807886 .5826834
0 .9999999 .5859202
0 .9999999 .585874
0 .9999999 .5866572
.2843851 .9999999 .5896008
.4493162 .9999999 .5907021
.5939488 .9999999 .5914555
.7319484 .9999999 .5922419
.8565413 .9999999 .5924174
.9760776 .9999999 .5916222
0 0 .7532492
0 0 .7534784
.2088723 0 .7539771
.3524747 0 .7547691
.4884347 0 .7559452
.6208909 0 .7570602
.7542078 0 .7578735
.8864248 0 .7553587
.9999999 0 .7533504
0 .02150535 .7538502
0 .0131987 .754086
.2003473 0 .7546282
.3482768 0 .7554314
.486015 0 .7564532
.6206588 0 .7576682
.7554796 0 .758378
.8883935 0 .7558044
.9999999 0 .7526631
0 .2295688 .7553803
0 .2271736 .7555803
.1720219 .2216311 .7561733
.3355436 .2157595 .7571232
.478531 .2070698 .758287
.6193404 .200767 .7593132
.7584139 .19954 .7592719
.8921551 .1866722 .7570513
.9999999 .18544 .7514886
0 .387991 .7573456
0 .3865227 .757559
.09930753 .3827528 .7581024
.3116188 .3795719 .7587336
.4706001 .3758726 .7593412
.6185817 .3726165 .7598646
.7601918 .3715352 .7595733
.8952404 .3684624 .7568144
.9999999 .3741254 .750138
0 .5458927 .7586524
0 .5450513 .7586988
0 .5431582 .7587011
.2932381 .5407377 .7587068
.4592615 .5372158 .7592598
.6102467 .534847 .7592735
.757882 .5353166 .7575567
.8904098 .5375865 .752626
.9999999 .539912 .7487492
0 .704993 .7576925
0 .7049286 .7576166
0 .7047463 .7573984
.2733227 .7041022 .7568831
.4503531 .702964 .7562179
.6042522 .7007831 .7545739
.7503293 .6992259 .7535479
.8798654 .6990651 .7498772
.9999999 .6972854 .7475955
0 .8554689 .7491271
0 .855439 .7489176
0 .8554077 .7483429
.2519548 .8547788 .7477341
.4366091 .8535326 .7467095
.5926202 .851604 .7437977
.7389687 .849694 .7424882
.8816121 .8463079 .7384
.9999999 .8424084 .7437915
0 .9904398 .7332892
0 .9902429 .7330211
0 .9896912 .7323608
.2463229 .9887479 .7312756
.4305473 .9872494 .7295086
.5853809 .9852516 .7289444
.7298012 .9852045 .7293095
.867817 .9841898 .7283376
.9997501 .9794589 .7271897
0 .9999999 .7274533
0 .9999999 .7274233
.0335891 .9999999 .727194
.2921182 .9999999 .7268981
.4480777 .9999999 .7268385
.5943496 .9999999 .7269104
.734844 .9999999 .7294078
.8606668 .9999999 .7316762
.9760012 .9999999 .7306625
0 0 .8803387
0 0 .8804979
.1956193 0 .8808343
.3439061 0 .8813876
.4811673 0 .8819502
.614552 0 .8830218
.7513456 0 .8842983
.8836851 0 .8848181
.9999999 0 .8824699
0 0 .8808745
0 0 .88104
.1849365 0 .8814208
.3394203 0 .8818691
.4784027 0 .8823695
.6134112 0 .8834242
.7509118 0 .8847382
.8838621 0 .8853068
.9999999 0 .8826959
0 .2214212 .8821232
0 .2195971 .8822643
.1571726 .2160156 .8824564
.3276674 .2109301 .8827411
.4702774 .2041608 .8830798
.6110656 .1952833 .8841169
.7490178 .1849307 .8857128
.8843611 .1746326 .886168
.9999999 .1527279 .8831832
0 .3778818 .8827155
0 .3765493 .8827626
.08265934 .3741826 .8830146
.3036275 .3700813 .8834381
.4595331 .3674694 .883742
.6066492 .3638534 .8848955
.746883 .3594837 .8865317
.8855144 .3549861 .8870599
.9999999 .3507064 .8828944
0 .5321082 .8834065
0 .5312262 .8834725
0 .5293092 .8836695
.2735128 .5261434 .883932
.4474253 .524215 .8840129
.5998281 .5247813 .8840351
.743826 .5244735 .8854355
.8836563 .5242152 .8855817
.9999999 .5225971 .8814722
0 .6922895 .8837938
0 .6921096 .8837236
0 .6914322 .8835668
.2624722 .6893416 .8834919
.4424922 .6868904 .883053
.593792 .6849021 .8827477
.7405429 .6852612 .8827814
.880509 .6853554 .8831744
.9999999 .686121 .8785444
0 .8479021 .8821241
0 .8477877 .8821225
0 .8474664 .8820783
.2460644 .8469685 .8818972
.4323013 .8465971 .8817096
.5885509 .8453687 .8813818
.7353892 .8432599 .8803034
.8767702 .8417508 .8788537
.9999999 .8410667 .8761001
0 .9918438 .87224
0 .9917919 .8721035
0 .9916136 .8717288
.2167295 .9911346 .8713002
.4171007 .989783 .8708178
.5845564 .9861826 .8708371
.7358989 .9820347 .870226
.8703588 .9817038 .8694575
.9963256 .9774608 .8664668
0 .9999999 .8644073
0 .9999999 .8642384
0 .9999999 .8638081
.2718296 .9999999 .8630483
.4470676 .9999999 .8620918
.6002603 .9999999 .8624719
.744491 .9999999 .8657863
.8682533 .9999999 .8689432
.9758802 .9999999 .8667613
0 0 .9999999
0 0 .9999999
.1965913 0 .9999999
.3445848 0 .9999999
.4801777 0 .9999999
.6112003 0 .9999999
.7435063 0 .9999999
.8759297 0 .9999999
.9999999 0 .9999999
0 .01158333 .9999999
0 .00617476 .9999999
.1846574 0 .9999999
.3394013 0 .9999999
.4770377 0 .9999999
.6090673 0 .9999999
.7420284 0 .9999999
.8757308 0 .9999999
.9999999 0 .9999999
0 .222295 .9999999
0 .2211685 .9999999
.1495673 .2183965 .9999999
.3247398 .2147972 .9999999
.4685361 .2112761 .9999999
.604338 .2026938 .9999999
.7389319 .1879149 .9999999
.8744279 .1701623 .9999999
.9999999 .1490008 .9999999
0 .3705226 .9999999
0 .3701962 .9999999
.05978655 .3695993 .9999999
.2984658 .3677659 .9999999
.4541963 .3663342 .9999999
.5966235 .3639057 .9999999
.7354699 .3597674 .9999999
.8729333 .3530332 .9999999
.9999999 .3464238 .9999999
0 .523269 .9999999
0 .5223098 .9999999
0 .5199235 .9999999
.2623873 .5161096 .9999999
.4365359 .5170935 .9999999
.5889347 .5200759 .9999999
.7313278 .5216443 .9999999
.8686529 .5173223 .9999999
.9999999 .5136706 .9999999
0 .6768901 .9999999
0 .6764173 .9999999
0 .6757114 .9999999
.2722005 .6747252 .9999999
.434772 .6735015 .9999999
.5802706 .6722806 .9999999
.727452 .6756498 .9999999
.8667204 .6768 .9999999
.9999999 .6747171 .9999999
0 .8317077 .9999999
0 .8316094 .9999999
0 .8313479 .9999999
.2643856 .830754 .9999999
.4356924 .8297748 .9999999
.5855653 .8281953 .9992452
.7303875 .8284707 .996982
.8650738 .8318475 .9966509
.9978352 .8304427 .9967008
0 .9793387 .9972858
0 .979296 .9971946
0 .9791861 .9969683
.2529668 .9789417 .9965599
.4353825 .9781478 .9959509
.5912235 .9768861 .9951918
.7375259 .9746774 .9940932
.8741311 .9746765 .9914591
.9883978 .9742875 .9921581
0 .9999999 .9911993
0 .9999999 .9911589
0 .9999999 .9910445
.2914953 .9999999 .9908325
.4578549 .9999999 .9901794
.6082398 .9999999 .9892719
.754186 .9999999 .9854974
.887578 .9999999 .983427
.9868008 .9999999 .9875639
