luts/Timeless 43.cube
# 3D LUT of size 33x33x33 converted by Filestar.
#   Input:
#     color space: sRGB
#     white point: default (D65)
#     transfer function: default (sRGB)
#   Output:
#     color space: sRGB
#     white point: default (D65)
#     transfer function: default (sRGB)
#   Contrast: -30
#   Whites: +16
#   Blacks: +16
#   Vibrance: +18
#   Saturation: +21
LUT_3D_SIZE 9
.03096774 .04123139 .09344283
.13802 .01789401 .0436997
.2874596 0 0
.4221889 .00212726 0
.5558521 0 0
.6932453 0 0
.822892 0 0
.943476 0 0
.9999999 0 0
0 .153064 0
.1229086 .1525871 0
.2764796 .141642 0
.4176265 .1398005 0
.5525061 .1271231 0
.6904947 .09244656 0
.8203225 .05523495 0
.9418894 0 0
.9999999 0 0
0 .2876532 0
.1008433 .2857027 0
.2603221 .2799902 0
.4088694 .2744974 0
.5423985 .2716698 0
.6825463 .2573389 0
.8140266 .2442152 0
.9383553 .2206647 0
.9999999 .1924177 0
0 .4216847 0
.02645496 .4214643 0
.2387335 .4197899 0
.386089 .4155017 0
.530091 .409037 0
.6703685 .4015916 0
.804006 .3896076 0
.9319562 .3804305 0
.9999999 .3570754 0
0 .5573865 0
0 .5568041 0
.1807899 .5557036 0
.3636164 .5520397 0
.5095258 .5482036 0
.654149 .5404461 0
.7917053 .5303273 0
.9232486 .5218145 0
.9999999 .5002671 0
0 .6862003 0
0 .6858047 0
.1021737 .6849961 0
.3300789 .6824766 0
.4903863 .678898 0
.6306702 .6735892 0
.7749389 .6652436 0
.9123738 .6552401 0
.9999999 .6444106 0
0 .8150445 0
0 .8146975 0
0 .8138106 0
.248798 .8120273 0
.4486006 .8092862 0
.6057653 .8061798 0
.7508401 .8013623 0
.8965982 .7911718 0
.9999999 .7796321 0
0 .9409829 0
0 .9408036 0
0 .9403858 0
0 .9398157 0
.3501587 .9382682 0
.5478692 .9358339 0
.7107974 .9327384 0
.8662271 .9276004 0
.9999999 .9161768 0
0 .9999999 0
0 .9999999 0
0 .9999999 0
0 .9999999 0
.03885448 .9999999 0
.4492196 .9999999 0
.6492051 .9999999 0
.8213159 .9999999 0
.9874924 .9999999 0
.00178659 .03055078 .1656358
.1425614 0 .1595623
.2948385 0 .1327962
.4262528 0 .1119061
.5594452 0 .08316178
.6963123 0 .01678665
.8265119 0 0
.9467883 0 0
.9999999 0 0
0 .1543992 .1414331
.1272101 .1501365 .1326371
.2821119 .13732 .113348
.4217238 .1236264 .09013092
.5560265 .100021 .05388176
.6935 .04383821 0
.824062 0 0
.945195 0 0
.9999999 0 0
0 .2881734 .08999828
.09895699 .2859944 .07368679
.2647256 .2788588 .04802944
.4097085 .272439 .0323522
.5445063 .2628391 0
.6854662 .2439844 0
.8177615 .2280169 0
.9420184 .1973078 0
.9999999 .162517 0
0 .4232517 0
0 .4218882 0
.2321532 .4204311 0
.3852132 .4152385 0
.5319926 .4067687 0
.6733883 .394857 0
.8074093 .3808546 0
.9361225 .3679355 0
.9999999 .3458533 0
0 .5603627 0
0 .5597289 0
.1541779 .5576355 0
.3516133 .5542708 0
.5052236 .5490377 0
.6545951 .5394711 0
.7974638 .5252993 0
.9284767 .5157748 0
.9999999 .4938982 0
0 .6890438 0
0 .6884028 0
0 .6873811 0
.3148046 .6842741 0
.479183 .6814181 0
.6304603 .6756969 0
.7766776 .6663359 0
.915495 .6548268 0
.9999999 .643662 0
0 .8153889 0
0 .8148756 0
0 .8139054 0
.2350499 .8120373 0
.4447142 .8093168 0
.6078177 .8067034 0
.7528473 .8016623 0
.8988147 .7912673 0
.9999999 .7792779 0
0 .9416726 0
0 .941442 0
0 .9409377 0
0 .9403042 0
.3496099 .9387543 0
.5477186 .9363514 0
.7114348 .933221 0
.8676131 .9278542 0
.9999999 .9157921 0
0 .9999999 0
0 .9999999 0
0 .9999999 0
0 .9999999 0
0 .9999999 0
.4453846 .9999999 0
.6465752 .9999999 0
.8197377 .9999999 0
.9892475 .9999999 0
0 .00414593 .3062554
.135441 0 .3060613
.29503 0 .2992254
.4260474 0 .2864917
.5611227 0 .2664367
.697856 0 .2466358
.8271068 0 .2268701
.9461648 0 .1932359
.9999999 0 .1406287
0 .1341296 .2995389
.0944935 .1310536 .2968897
.2831799 .1121286 .2886593
.4209188 .1067566 .2745783
.556878 .06883654 .257771
.6938683 0 .2398317
.8248998 0 .2186953
.9450263 0 .183321
.9999999 0 .1237148
0 .2834538 .2769089
.04827216 .2813382 .2736635
.2576272 .2725332 .2653373
.4079531 .2663562 .2522303
.5444742 .2547333 .2413935
.68515 .2313939 .2238364
.8194466 .2046624 .1957802
.9425466 .1593021 .1565664
.9999999 .09678639 .05883671
0 .4215485 .2310291
0 .4208097 .2261499
.2158155 .4185712 .2179968
.3802179 .4136614 .2109565
.5295197 .4045164 .1989333
.6737304 .3896533 .1890888
.8088162 .3728352 .1577065
.9370654 .3534081 .09440095
.9999999 .3202644 0
0 .5600801 .1627545
0 .559513 .1579394
.1093558 .5577528 .1471742
.3426979 .5537961 .1315871
.5078102 .5473154 .1164219
.6572559 .5367014 .08744783
.7979797 .5215865 .04390536
.9311085 .5063378 0
.9999999 .4818113 0
0 .689781 0
0 .6894183 0
0 .6883758 0
.2978389 .6852005 0
.4722778 .6821511 0
.6302295 .6759183 0
.7789356 .6659049 0
.9190491 .6519685 0
.9999999 .6330578 0
0 .8175941 0
0 .8173048 0
0 .816177 0
.1697361 .8150287 0
.4232167 .8121558 0
.5951834 .8093656 0
.7506596 .8042381 0
.899307 .7942593 0
.9999999 .778073 0
0 .943507 0
0 .9432036 0
0 .9425211 0
0 .9417322 0
.3278522 .9403655 0
.5403405 .9377112 0
.7132434 .9345422 0
.8710421 .9286844 0
.9999999 .916061 0
0 .9999999 0
0 .9999999 0
0 .9999999 0
0 .9999999 0
0 .9999999 0
.4190913 .9999999 0
.6391536 .9999999 0
.8156464 .9999999 0
.9893134 .9999999 0
0 0 .4527561
.1341451 0 .4515195
.2817334 0 .4485327
.4227847 0 .4421553
.5627736 0 .4311099
.6992915 0 .4138384
.8268918 0 .389682
.9470043 0 .3681423
.9999999 0 .3404798
0 .1167064 .4487872
.1061473 .1072514 .4464206
.2721177 .08697454 .4424922
.41906 .06571946 .4367464
.5588717 .0101627 .4244146
.6956064 0 .4060981
.8246228 0 .3851801
.9454263 0 .3639445
.9999999 0 .335205
0 .2708983 .4346517
0 .2667733 .4329258
.236668 .2602346 .4290891
.400282 .2550595 .423634
.5481972 .242649 .4095744
.6866632 .2227395 .3926864
.8181334 .1920764 .3753015
.9411294 .154694 .3549107
.9999999 .04263729 .3248985
0 .4189474 .4111436
0 .4179263 .4091028
.1962324 .4138538 .4041356
.3735231 .4080182 .3941047
.5280449 .3977783 .3844926
.6700833 .3877732 .3740959
.8056431 .3724018 .3595665
.9346122 .3483999 .3375956
.9999999 .3065371 .2954569
0 .5594214 .3662646
0 .5585817 .3636101
.05534002 .5556324 .3581611
.3304262 .5510545 .3517185
.5032161 .5449706 .3447558
.658042 .53391 .3322631
.7957889 .5204293 .3271365
.932193 .4999834 .2934941
.9999999 .4706138 .2447056
0 .6901163 .3115802
0 .6896139 .3092233
0 .6881355 .3035442
.2673681 .6852515 .2955797
.4645833 .6807812 .28046
.6308286 .6745849 .2611125
.7823197 .6626613 .2319687
.9227777 .6467904 .192272
.9999999 .6224054 .1021975
0 .81696 .1858126
0 .8166823 .1796479
0 .8160244 .162541
.112017 .8140946 .1256506
.404636 .8122672 .09057645
.5895859 .8094876 .07455758
.7536988 .8022747 0
.9020821 .792282 0
.9999999 .7711915 0
0 .9454417 0
0 .9452648 0
0 .9449284 0
0 .9443294 0
.2611251 .9431276 0
.5123408 .9414122 0
.7006723 .9386207 0
.8720879 .9320269 0
.9999999 .9175751 0
0 .9999999 0
0 .9999999 0
0 .9999999 0
0 .9999999 0
0 .9999999 0
.3858878 .9999999 0
.6249164 .9999999 0
.8127441 .9999999 0
.9924801 .9999999 0
0 0 .5897332
.1125137 0 .5891035
.2651857 0 .5875516
.4149502 0 .5846019
.5595772 0 .5793894
.698899 0 .5683914
.8254362 0 .5517156
.9483013 0 .5284526
.9999999 0 .5052478
0 .1013921 .5870271
.07677693 .09436504 .5864561
.2503739 .07637727 .58498
.4095779 .01529622 .5818037
.5574887 0 .5763537
.6976809 0 .5657164
.8233684 0 .5468615
.9458309 0 .5241471
.9999999 0 .502659
0 .2582106 .5796983
0 .2555948 .5789151
.2124755 .2524866 .5767303
.3887478 .2403115 .5731583
.5457554 .2190307 .5670867
.6900219 .1942406 .5564834
.8169991 .1774942 .5365314
.9407789 .1357889 .5155118
.9999999 .04956301 .4954197
0 .4071175 .5650159
0 .4048334 .5640921
.1640029 .400397 .5621154
.3607365 .3950529 .5571905
.5314952 .3841342 .5492204
.6724618 .3775015 .5363079
.8046975 .3626457 .5214251
.9318398 .3434364 .5031362
.9999999 .3063438 .4800104
0 .5557112 .538689
0 .5544772 .5376905
.04703957 .5519497 .5354549
.3216394 .5480375 .5318147
.495111 .5392736 .5230651
.6491806 .5293944 .5136105
.7900414 .5178168 .5024394
.9240718 .4987563 .4863085
.9999999 .468147 .4562593
0 .6888668 .4981453
0 .6884332 .4963588
0 .6867966 .4924254
.24404 .6838331 .485614
.4490207 .6788061 .4791358
.6276975 .6702723 .4689122
.7819414 .6589112 .4538084
.9174712 .6449568 .4449149
.9999999 .6184983 .4103462
0 .8166115 .4383633
0 .8162109 .4359107
0 .8152311 .4299867
0 .813567 .4204052
.3746806 .8121137 .407805
.5829854 .8079383 .3934171
.7562181 .8001919 .3710566
.9085518 .7877051 .3253651
.9999999 .7648353 .2590353
0 .9461655 .2896158
0 .9459209 .2868238
0 .9447648 .2807008
0 .9428087 .2692352
.1856044 .9421166 .2443824
.4913416 .9407669 .2059152
.6962872 .9375676 .145644
.8716748 .932054 0
.9999999 .9177561 0
0 .9999999 0
0 .9999999 0
0 .9999999 0
0 .9999999 0
0 .9999999 0
.2845407 .9999999 0
.5989681 .9999999 0
.8081627 .9999999 0
.9913308 .9999999 0
0 0 .7183334
.08512514 0 .7178515
.2548193 0 .7165455
.4005167 0 .7141625
.5461638 0 .7114658
.686377 0 .7062039
.8188652 0 .6959438
.9465069 0 .6804645
.9999999 0 .6598703
0 .08416202 .7163954
.02510654 .07334153 .7159704
.2402486 .0501761 .714785
.3924878 0 .7126031
.5427034 0 .7092054
.6856162 0 .7046381
.8189054 0 .6940824
.9452767 0 .6779372
.9999999 0 .6577554
0 .2495969 .7113576
0 .2472949 .7108294
.2058275 .2354476 .7098031
.377532 .2215481 .7072323
.5339005 .1979752 .7045578
.6821281 .1671517 .7005498
.8173333 .1319111 .6891216
.9409357 .1014814 .6717542
.9999999 0 .6524308
0 .3970161 .7010939
0 .3956246 .7005588
.1125485 .391849 .6989318
.3493036 .3849534 .6958058
.5185456 .3700815 .6928076
.6692737 .3562271 .6882041
.8079427 .3425677 .6789662
.9334047 .3302824 .6621698
.9999999 .3002115 .6427839
0 .5394828 .6893007
0 .5383711 .688996
0 .5363053 .6879154
.3082103 .5306238 .6856116
.4880766 .5227013 .6811848
.652018 .5135351 .6747499
.7962343 .5051708 .6623896
.9231246 .49466 .6482961
.9999999 .4739361 .6281161
0 .6835865 .6677062
0 .6830252 .6670534
0 .6822088 .6653681
.2320314 .6801478 .6627115
.4399443 .6760909 .6582621
.6173395 .6664974 .6484442
.7721729 .6557999 .6392779
.9095291 .6449308 .6272046
.9999999 .6233938 .6090215
0 .8159611 .6283493
0 .8156041 .6273513
0 .8145069 .6247846
0 .8127638 .619194
.3604646 .8097906 .6102798
.569337 .8052213 .6023004
.7511069 .7973202 .5930558
.904194 .7844465 .5736361
.9999999 .7647527 .5603865
0 .9458608 .5514074
0 .9454048 .5496089
0 .9443121 .5452313
0 .9426926 .5403819
.1805277 .9410345 .5326968
.4827765 .9388209 .5226097
.6873239 .9349931 .502368
.8714896 .9282181 .466114
.9999999 .9127261 .3996618
0 .9999999 .3980202
0 .9999999 .3931652
0 .9999999 .3812924
0 .9999999 .3633217
0 .9999999 .34263
.2322513 .9999999 .3004162
.5619142 .9999999 .2378926
.7881557 .9999999 .1604018
.9918616 .9999999 0
0 0 .8363383
.08188539 0 .8359541
.2464173 0 .8350664
.388842 0 .8337187
.5274248 0 .8332518
.6677582 0 .8325307
.8044434 0 .8288221
.9381257 0 .8204385
.9999999 0 .805535
0 .05751815 .8350856
.03658072 .0455199 .8347569
.233197 .01300979 .8340136
.3814801 0 .8327527
.523591 0 .8320535
.6653907 0 .8313642
.8027208 0 .8282169
.9383149 0 .8194737
.9999999 0 .8037159
0 .2355673 .8320459
0 .2327439 .8318021
.1996677 .2252018 .8311498
.36433 .2110444 .8298708
.5153542 .1896476 .8290761
.6590943 .1572231 .828473
.7992637 .1103358 .8262655
.9374731 .00780894 .8161791
.9999999 0 .7997505
0 .3818593 .8256733
0 .3800171 .8254916
.1235694 .3765767 .8248472
.3394933 .3686348 .8235675
.5035872 .3565064 .8228689
.6494395 .3412697 .8223692
.7927605 .323757 .8191093
.9330574 .3002063 .8094752
.9999999 .2608673 .7931827
0 .5201345 .8207971
0 .5184318 .8207542
0 .5170662 .8193963
.2991505 .5141581 .818122
.4752759 .508357 .8175209
.6344006 .5005144 .8151106
.7872747 .4867464 .811057
.9264507 .4732242 .8016553
.9999999 .4587135 .7859333
0 .6658741 .8093349
0 .665143 .8090186
0 .66366 .8085682
.211531 .6612386 .8079126
.435362 .6581483 .8060958
.6091487 .6520641 .8026409
.7705991 .6447096 .7984133
.9105088 .6367998 .7857524
.9999999 .6249537 .7710629
0 .8104776 .7944096
0 .8105365 .7939265
0 .8103056 .7926988
0 .8091918 .7903
.3653194 .8067207 .7868329
.5696473 .80209 .7813487
.739868 .7943572 .7734829
.8924221 .7842181 .7659099
.9999999 .7705817 .7512818
0 .9460195 .7483841
0 .9453128 .7478195
0 .9440727 .7462834
0 .9418898 .7433795
.1912559 .9393525 .7398727
.4894381 .9350701 .7337992
.6913867 .9298916 .7242874
.8656001 .924036 .7149051
.9999999 .9081806 .6867169
0 .9999999 .6705662
0 .9999999 .6690893
0 .9999999 .6658425
0 .9999999 .6602823
0 .9999999 .651649
.3011266 .9999999 .6417401
.6015003 .9999999 .6268802
.8023818 .9999999 .6070107
.9878456 .9999999 .5690435
0 0 .9499308
.07958672 0 .9498141
.2398266 0 .9494835
.3796109 0 .9488184
.5137846 0 .9487543
.6460964 0 .9482387
.7796602 0 .9475284
.9159148 0 .9454454
.9999999 0 .940488
0 .01303682 .9491622
.03639782 .00364902 .9490643
.2276147 0 .9487188
.3723899 0 .9481878
.5095594 0 .9480733
.6438473 0 .9475685
.7773967 0 .9468638
.9146553 0 .9453425
.9999999 0 .9403817
0 .2210121 .9472885
0 .2183007 .9472329
.1935744 .2127413 .9470335
.3564804 .2051951 .9465962
.5000467 .1898024 .9463876
.6381949 .1562835 .9459328
.7719679 .1027981 .9452692
.9115736 0 .9452867
.9999999 0 .9398659
0 .3676473 .9454454
0 .3663611 .9453347
.1290241 .3637832 .9449886
.3322271 .359987 .9443045
.4860045 .3534942 .9441046
.6296295 .3380138 .9434297
.7668352 .3171561 .9428115
.9089925 .2712242 .9430627
.9999999 .2003632 .9368678
0 .5067219 .9406077
0 .5065835 .9404101
0 .5064845 .9400014
.2873528 .5044484 .9394861
.4623665 .5022772 .9389623
.616775 .4973885 .9381632
.7636254 .4792603 .9385722
.904748 .455312 .9381059
.9999999 .4183581 .9309076
0 .6442125 .9365746
0 .643797 .9363365
0 .6435129 .9355412
.2256167 .6435624 .9346208
.4302189 .643834 .9332504
.5988574 .640062 .9311065
.7546424 .6336322 .9304745
.8978559 .6214965 .930618
.9999999 .6026913 .922178
0 .7871281 .9305477
0 .786681 .9303114
0 .7855893 .9297201
0 .783557 .928717
.3726691 .781067 .9273461
.5702952 .7813012 .9245257
.7322811 .7798711 .9213111
.8859518 .7739108 .9192023
.9999999 .7633937 .9078662
0 .937573 .9148403
0 .9372199 .9147083
0 .9366398 .9141686
0 .935787 .9132357
.1856621 .9335018 .911538
.5039117 .9290059 .9087635
.7020907 .9244626 .9047351
.8639312 .9186746 .8976559
.9999999 .9080997 .8910696
0 .9999999 .8737388
0 .9999999 .8734466
0 .9999999 .8728844
0 .9999999 .8717061
0 .9999999 .8695312
.3604156 .9999999 .8668758
.6335123 .9999999 .8622239
.830456 .9999999 .85886
.9860532 .9999999 .8443195
0 0 .9999999
.1311154 0 .9999999
.2626266 0 .9999999
.3870023 0 .9999999
.5008981 0 .9999999
.6277721 0 .9999999
.7577062 0 .9999999
.8895372 0 .9999999
.9999999 0 .9999999
0 .03279238 .9999999
.1132736 .02569445 .9999999
.2548373 .00733937 .9999999
.3823734 0 .9999999
.499317 0 .9999999
.6255212 0 .9999999
.7560035 0 .9999999
.8884704 0 .9999999
.9999999 0 .9999999
0 .2222986 .9999999
.00816952 .2204111 .9999999
.2240285 .2153773 .9999999
.3662128 .2080978 .9999999
.4914324 .1898053 .9999999
.6201674 .158843 .9999999
.751667 .099957 .9999999
.8854247 0 .9999999
.9999999 0 .9999999
0 .3588818 .9999999
0 .3581159 .9999999
.164999 .3564225 .9999999
.3398284 .3537323 .9999999
.4839742 .3471302 .9999999
.6153446 .3335743 .9999999
.7477556 .3112053 .9999999
.8812883 .2770811 .9999999
.9999999 .1959201 .9999999
0 .4904928 .9999999
0 .4901539 .9999999
.02007514 .4896691 .9999999
.3017087 .4887547 .9999999
.4659143 .487445 .9999999
.6097708 .4827204 .9999999
.7420564 .4726892 .9999999
.8760191 .4534456 .9999999
.9999999 .4041854 .9999999
0 .6254047 .9999999
0 .625449 .9999999
0 .625757 .9999999
.2464411 .6263807 .9999999
.4404845 .6276892 .9999999
.5957417 .6290679 .9999999
.7355322 .6291069 .9999999
.871768 .6159607 .9999999
.9999999 .585826 .9999999
0 .7601435 .9999999
0 .7602311 .9999999
0 .7605234 .9999999
.1293762 .7609583 .9999999
.4010932 .7633587 .9999999
.5784035 .7670183 .9999999
.7227254 .771143 .9999999
.8649564 .770664 .9999999
.9999999 .7552139 .9999999
0 .8907093 .9999999
0 .8907948 .9999999
0 .8910524 .9999999
0 .891503 .9999999
.2705725 .8923615 .9999999
.5195565 .8967014 .9999999
.7025693 .904755 .9999999
.8608564 .9086934 .9999999
.9909592 .9088277 .9999999
0 .9999999 .9999999
0 .9999999 .9999999
0 .9999999 .9999999
0 .9999999 .9999999
0 .9999999 .9999999
.4055813 .9999999 .9999999
.6618328 .9999999 .9999999
.8521537 .9999999 .9981362
.9849152 .9999999 .9925317
