luts/Timeless 23.cube
# 3D LUT of size 33x33x33 converted by Filestar.
#   Input:
#     color space: sRGB
#     white point: default (D65)
#     transfer function: default (sRGB)
#   Output:
#     color space: sRGB
#     white point: default (D65)
#     transfer function: default (sRGB)
#   Exposure: +0.55
#   Contrast: +30
#   Whites: +10
#   Blacks: -26
#   Vibrance: +7
LUT_3D_SIZE 33
.03294239 .00200158 .01874008
.03867904 .00219212 .0108201
.04861957 .00099369 .0065757
.09076338 0 .00481584
.1395803 0 0
.1861996 0 0
.2309746 0 0
.2731327 0 0
.3138205 0 0
.3535138 0 0
.3930037 0 0
.4313575 0 0
.4682743 0 0
.5044791 0 0
.5397512 0 0
.5750346 0 0
.6094311 0 0
.6424877 0 0
.6735144 0 0
.7053225 0 0
.7366607 0 0
.7668521 0 0
.7958576 0 0
.8239869 0 0
.8507545 0 0
.8763736 0 0
.9009858 0 0
.9242876 0 0
.9469426 0 0
.9685498 0 0
.988978 0 0
.9999999 0 0
.9999999 0 0
.03861134 .00346604 .01477565
.04514091 .0047745 .0127758
.05992533 .00260464 .00873137
.09965079 0 .00547904
.1451229 0 0
.1887231 0 0
.2327441 0 0
.2741864 0 0
.3146177 0 0
.3540117 0 0
.3934684 0 0
.4318948 0 0
.4689818 0 0
.50497 0 0
.5401114 0 0
.5752962 0 0
.6096455 0 0
.6426415 0 0
.6736243 0 0
.7054443 0 0
.7367471 0 0
.7669509 0 0
.7959834 0 0
.8240762 0 0
.8508112 0 0
.8764232 0 0
.9009978 0 0
.9243442 0 0
.9469799 0 0
.9685742 0 0
.9890162 0 0
.9999999 0 0
.9999999 0 0
.0218891 .03649301 .00905891
.02840916 .04161914 .00378479
.05428131 .04212031 .00002888
.1001385 .04188082 0
.1461399 .03959769 0
.1909929 .03627531 0
.2341348 .03443126 0
.274815 .03423367 0
.3151191 .03241473 0
.3546099 .03280781 0
.3939686 .03402074 0
.4324445 .03261214 0
.4695784 .03106768 0
.5057286 .02748244 0
.5404021 .02784176 0
.5755599 .02175154 0
.6097863 .0173619 0
.6427484 .01776045 0
.673748 .02632368 0
.7055416 .02261131 0
.7368373 .01827037 0
.7671005 .01251256 0
.7961231 .00477721 0
.8241771 0 0
.8508768 0 0
.8764617 0 0
.901018 0 0
.9243841 0 0
.9470221 0 0
.9686018 0 0
.9890429 0 0
.9999999 0 0
.9999999 0 0
0 .08678763 0
.00307474 .08864871 0
.05116785 .08972246 0
.1006322 .0898058 0
.1474413 .08861271 0
.1922454 .08833616 0
.2342297 .08881808 0
.2748893 .08891625 0
.3152142 .08662612 0
.3551719 .08417805 0
.3946931 .08375702 0
.4331174 .08341756 0
.4701257 .08364715 0
.5062273 .08241885 0
.5410213 .08133627 0
.5758743 .08083349 0
.6099612 .07943331 0
.6428703 .079765 0
.6741196 .0839887 0
.7056798 .08395397 0
.7370272 .08103604 0
.7672356 .07797507 0
.7963244 .07270547 0
.8242862 .06826026 0
.8509464 .06292488 0
.8765166 .05813228 0
.9010288 .05072109 0
.9244354 .04492065 0
.9470821 .04180139 0
.9686409 .03965046 0
.9890811 .03733116 0
.9999999 .03504976 0
.9999999 .03457459 0
0 .1308383 0
0 .1315518 0
.04346228 .1328395 0
.09887736 .1333519 0
.1468491 .133653 0
.1921201 .1338347 0
.2343107 .1340058 0
.2755777 .1335821 0
.3160356 .13122 0
.3558057 .1297534 0
.3949914 .1292495 0
.4334361 .1289971 0
.4704224 .1290138 0
.5063014 .1280045 0
.5411716 .127275 0
.576369 .1256758 0
.6102216 .12745 0
.643015 .1284956 0
.6746462 .1296245 0
.7059594 .1313532 0
.7372916 .1294337 0
.7674864 .1274515 0
.7965946 .1243142 0
.8244054 .1220421 0
.8510293 .1190628 0
.8766412 .1164014 0
.9010121 .1119525 0
.9245041 .1101465 0
.9471623 .1085172 0
.9686911 .1074665 0
.9891322 .1063683 0
.9999999 .1052877 0
.9999999 .1051145 0
0 .1720618 0
0 .1731908 0
.03453701 .174604 0
.1002536 .1743132 0
.1482002 .1748808 0
.1916378 .1750297 0
.2340878 .1746228 0
.2757641 .1731602 0
.3162354 .171991 0
.3559946 .1713139 0
.3950499 .1709243 0
.433551 .1705727 0
.4706997 .1703238 0
.5064615 .1696913 0
.5413873 .1696925 0
.5762599 .1703939 0
.6105208 .1701916 0
.6433744 .1703655 0
.6749458 .1722313 0
.7063134 .1740108 0
.737626 .1725769 0
.7677786 .1712647 0
.7967993 .1700504 0
.8244509 .1689065 0
.8510367 .1663831 0
.8766328 .1639396 0
.9010471 .1612405 0
.9245911 .1601565 0
.9472633 .1589435 0
.9687502 .1582045 0
.9891962 .1574369 0
.9999999 .1568046 0
.9999999 .1567014 0
0 .2120829 0
0 .2128488 0
.04390498 .212869 0
.1036335 .2123595 0
.1491075 .2125967 0
.1921403 .2129092 0
.2340757 .2125635 0
.2756508 .2114335 0
.3161117 .2110433 0
.3563212 .2108459 0
.3952518 .2107774 0
.4338065 .2104625 0
.4710596 .2102778 0
.5067068 .2097932 0
.5418262 .2102705 0
.5766465 .2111875 0
.6108416 .2111202 0
.6435477 .2113363 0
.6753005 .2118627 0
.7068125 .2135926 0
.737967 .2134863 0
.7679662 .2133076 0
.796919 .2128992 0
.8246912 .2105407 0
.8512397 .2085948 0
.8766142 .2068237 0
.9011093 .2057397 0
.9246967 .2048364 0
.9473649 .2039159 0
.9688159 .2032982 0
.9892623 .202733 0
.9999999 .2022973 0
.9999999 .2022241 0
0 .2495846 0
0 .2498828 0
.04950799 .2498193 0
.1079424 .2493491 0
.1515274 .2495204 0
.1942775 .2493242 0
.23598 .2491896 0
.2765572 .2494992 0
.3166268 .2495596 0
.356334 .2495511 0
.3955975 .2492333 0
.4341399 .2492417 0
.4714284 .2487778 0
.5072867 .2486008 0
.5423576 .2496559 0
.5770949 .2502819 0
.6111074 .250223 0
.6437966 .2505919 0
.6757172 .2509691 0
.7078597 .2509073 0
.7384441 .2519531 0
.7685198 .2517081 0
.7973554 .2519895 0
.8250024 .2504748 0
.8514549 .2487812 0
.8768212 .2477433 0
.901183 .2475047 0
.9248164 .2467439 0
.9474726 .2460583 0
.9688889 .2454509 0
.9893256 .2449764 0
.9999999 .2446815 0
.9999999 .2446222 0
0 .2861932 0
0 .2863495 0
.05550777 .286208 0
.1101485 .2859467 0
.1547965 .28607 0
.198527 .2858942 0
.2392029 .2859929 0
.2789561 .2863131 0
.3180499 .2868893 0
.3568662 .2870372 0
.3959026 .2868848 0
.4344441 .2865893 0
.4716297 .2870232 0
.5075926 .2874696 0
.5428264 .2879858 0
.5775552 .2882265 0
.6113999 .2885302 0
.6440814 .2888228 0
.6763092 .2890681 0
.7083758 .2890637 0
.7388623 .2901991 0
.7689207 .2898141 0
.7977535 .2893361 0
.8253428 .2886001 0
.8517786 .2876767 0
.8771092 .2872125 0
.9014196 .2871525 0
.9249297 .2869108 0
.9475628 .2863067 0
.9689645 .2856873 0
.9893203 .2853342 0
.9999999 .2850979 0
.9999999 .2850483 0
0 .3237471 0
.00232522 .3236344 0
.06414768 .3235059 0
.1157623 .3233396 0
.1592743 .3234497 0
.2006549 .3234939 0
.2424593 .3232616 0
.2819492 .3232501 0
.3204641 .3232607 0
.3587555 .3233959 0
.3965341 .3235546 0
.4342481 .3244486 0
.4715578 .3248714 0
.5078185 .3254572 0
.5432662 .3259654 0
.5779562 .3260892 0
.611503 .3264226 0
.6442795 .3265467 0
.6768997 .3265535 0
.7089161 .326474 0
.7398417 .3266682 0
.7693794 .3271977 0
.7979889 .3267977 0
.8254604 .3263116 0
.8521626 .3256546 0
.8774865 .3253124 0
.901786 .3250604 0
.9252417 .3252807 0
.9477358 .3248544 0
.9691125 .3242921 0
.989421 .3239912 0
.9999999 .3237174 0
.9999999 .3236601 0
0 .3603259 0
.01162862 .3602573 0
.07083336 .3601732 0
.1192006 .3601829 0
.1628064 .3602601 0
.2017922 .3607102 0
.243544 .3605055 0
.2840372 .3602211 0
.3227119 .3599699 0
.3604305 .3598667 0
.397871 .3601055 0
.4348352 .361068 0
.4713674 .3620701 0
.5082383 .3622966 0
.5438165 .3627138 0
.57837 .3631323 0
.6117198 .3634987 0
.6445119 .3635745 0
.6775081 .3632838 0
.7094533 .3631888 0
.7404854 .3631442 0
.7697175 .3639618 0
.7982755 .3637651 0
.8257927 .3636567 0
.8522911 .3633677 0
.8777483 .3628613 0
.9020318 .3626223 0
.9256245 .3621946 0
.9480603 .3616284 0
.969382 .3611803 0
.9896414 .3613077 0
.9999999 .361183 0
.9999999 .3611492 0
0 .396222 0
.01554665 .3962763 0
.07126554 .3963274 0
.1185803 .3964002 0
.1622917 .3965008 0
.2027179 .3968506 0
.242221 .3970851 0
.2830787 .3971362 0
.3225394 .3970686 0
.3603466 .3971457 0
.3976322 .3972149 0
.4349531 .3974405 0
.4715883 .3981632 0
.508391 .3985714 0
.5442051 .3987477 0
.5785884 .3991671 0
.6119265 .3996648 0
.6448923 .399887 0
.6780589 .3995113 0
.7099862 .3992516 0
.7411017 .3992715 0
.7707314 .3994047 0
.7986692 .4002571 0
.8261939 .4001269 0
.852531 .4000292 0
.8779291 .3996932 0
.902354 .3990621 0
.9259438 .3985899 0
.9482562 .3981279 0
.9694776 .3976927 0
.9898184 .3976767 0
.9999999 .3974257 0
.9999999 .3973395 0
0 .4316487 0
.01473331 .4317068 0
.07097214 .4318402 0
.1185443 .4320348 0
.1625535 .4322369 0
.2031611 .4327004 0
.2415054 .4333432 0
.2814182 .4334791 0
.3210345 .4334838 0
.3600238 .4333928 0
.3973427 .4334534 0
.4346073 .4335589 0
.4718042 .433713 0
.5086833 .433808 0
.5443688 .4341445 0
.5788492 .4344568 0
.6120746 .4348992 0
.6455588 .4350698 0
.6787533 .4351803 0
.7106751 .4351807 0
.7415851 .4351639 0
.7711731 .435115 0
.7990857 .4358949 0
.8265185 .4357913 0
.8528298 .4356252 0
.8781333 .4354821 0
.9026654 .4349777 0
.9261448 .4347174 0
.948431 .4344451 0
.9695866 .4340482 0
.9898641 .4334953 0
.9999999 .4333498 0
.9999999 .4333705 0
0 .4674636 0
.00134304 .4675218 0
.06207867 .4675877 0
.1135439 .4676815 0
.1592939 .4677834 0
.2022552 .4678943 0
.2435146 .4680401 0
.2807328 .4686746 0
.3204921 .4686832 0
.3595151 .4686528 0
.3976828 .468578 0
.4352367 .4686976 0
.472154 .4688808 0
.5085261 .4688603 0
.5445408 .4686484 0
.5788737 .4690539 0
.6127282 .469427 0
.646448 .4696515 0
.6792063 .4702569 0
.7113914 .4702502 0
.7419871 .4703144 0
.7715083 .4703938 0
.7999589 .4704276 0
.8266726 .4711335 0
.8529876 .4709675 0
.8782613 .4709515 0
.902664 .4708415 0
.9262791 .4702621 0
.9485251 .4697708 0
.969763 .4692456 0
.9901691 .468991 0
.9999999 .4687063 0
.9999999 .4687202 0
0 .5023144 0
0 .5023668 0
.04536075 .5024258 0
.1043399 .5024633 0
.152988 .5025039 0
.1977905 .5025554 0
.240547 .502619 0
.2804489 .502963 0
.3202448 .5029436 0
.3588753 .5030291 0
.3978461 .5029691 0
.4360122 .5029387 0
.4728556 .5031043 0
.5090257 .503174 0
.5445062 .5029189 0
.5789624 .5030023 0
.6135092 .5035781 0
.6472868 .5042091 0
.6800222 .5045314 0
.7115093 .5049894 0
.7420738 .5050643 0
.7716812 .5050721 0
.8000584 .5051185 0
.8273247 .5052125 0
.853029 .5059111 0
.8783267 .5058264 0
.9027187 .5056022 0
.9260739 .5049564 0
.9486778 .5041363 0
.9700746 .5039322 0
.9905609 .5036535 0
.9999999 .5033405 0
.9999999 .503275 0
0 .5361282 0
0 .5361521 0
.02774691 .5361738 0
.09553064 .5362099 0
.147072 .5362698 0
.1933575 .5363456 0
.237008 .5364377 0
.2789904 .5365465 0
.3176773 .5368721 0
.3582664 .5367497 0
.3972805 .5368066 0
.4360036 .5367843 0
.4733689 .5368926 0
.5091619 .5371409 0
.5445798 .5372221 0
.5796738 .5373293 0
.6141077 .5375611 0
.6479962 .5381249 0
.6806107 .5385885 0
.7118524 .5386472 0
.7422431 .5387871 0
.77167 .5389531 0
.8000936 .5390679 0
.8274566 .5391847 0
.8536543 .5392362 0
.8783501 .5396988 0
.9026565 .5393162 0
.926047 .5389768 0
.9485578 .5385314 0
.9703546 .5378046 0
.9909766 .5373515 0
.9999999 .5370358 0
.9999999 .5369715 0
0 .5693307 0
0 .569349 0
.01169696 .5693697 0
.08688463 .5693993 0
.1414375 .5694456 0
.1890326 .5695283 0
.2335782 .5696244 0
.2763146 .569722 0
.3179732 .5698374 0
.356774 .5700762 0
.3965251 .569937 0
.4353898 .5697893 0
.4735982 .5698663 0
.5097808 .5701718 0
.5450802 .5705419 0
.580155 .570911 0
.6147369 .570967 0
.6483361 .5710288 0
.6807545 .5714093 0
.712019 .5717117 0
.7423807 .5716863 0
.7717922 .5718002 0
.8001122 .5720305 0
.8274895 .5719963 0
.8538333 .5719373 0
.8788405 .5721314 0
.9027283 .5721853 0
.9261053 .5719371 0
.9485705 .5716573 0
.9704332 .5712379 0
.9914818 .5703553 0
.9999999 .5694837 0
.9999999 .5693533 0
0 .6018495 0
0 .6018628 0
0 .6018775 0
.07648263 .6018956 0
.1354334 .6019138 0
.1851207 .6019365 0
.2311683 .6019586 0
.2748714 .602 0
.3167819 .6020927 0
.3563206 .6024054 0
.3960399 .6023784 0
.4353098 .602264 0
.4734237 .6022273 0
.5106086 .6022792 0
.5463712 .6026342 0
.5811839 .6030154 0
.6154535 .6033321 0
.6488295 .6032402 0
.6810702 .6031565 0
.7122335 .6035044 0
.7424842 .6038299 0
.7719682 .6037484 0
.8002832 .6036099 0
.8275169 .6037421 0
.8538707 .603704 0
.8790739 .6037488 0
.9029272 .6042823 0
.9263929 .6040611 0
.9487817 .6037263 0
.9705783 .6029204 0
.9914951 .6022122 0
.9999999 .6015576 0
.9999999 .6011471 0
0 .6333885 0
0 .6333789 0
0 .6333681 0
.06712661 .6333528 0
.1312584 .6333624 0
.1832025 .6333878 0
.2303361 .6334187 0
.2747855 .6334551 0
.3174268 .6334974 0
.3586477 .6335629 0
.3970694 .6338145 0
.434875 .6338634 0
.472802 .6338722 0
.5102947 .6339233 0
.5476262 .6339001 0
.5825516 .6341973 0
.6162477 .6345132 0
.6492645 .6345785 0
.6815643 .6344433 0
.7124407 .6346087 0
.7425106 .6348819 0
.7717243 .6351494 0
.8003382 .6348577 0
.8277368 .6346998 0
.853943 .6348669 0
.8789295 .6350176 0
.9033405 .6349075 0
.9263186 .6351804 0
.9490318 .6345188 0
.9707668 .6340806 0
.9915076 .6335866 0
.9999999 .6331019 0
.9999999 .6329855 0
0 .6641325 0
0 .6641374 0
0 .6641427 0
.06575175 .6641502 0
.1307209 .6641605 0
.1828699 .6641808 0
.2300978 .6642042 0
.2744759 .6642439 0
.3169811 .6643016 0
.3582969 .6643367 0
.3973131 .6645294 0
.4351558 .6645504 0
.4727505 .6645883 0
.5106527 .6645697 0
.5479308 .6645215 0
.5836737 .6644973 0
.6171417 .6648089 0
.6501539 .664737 0
.6822167 .6646306 0
.7129291 .6648861 0
.7427523 .6649494 0
.7715874 .6653956 0
.800074 .6656322 0
.8273625 .6657472 0
.8537539 .6653804 0
.8787888 .6652519 0
.9030427 .6649813 0
.9265616 .6647698 0
.9487132 .6650921 0
.9705525 .6648288 0
.9912854 .6644881 0
.9999999 .6640443 0
.9999999 .6638657 0
0 .6940587 0
0 .6940615 0
0 .6940647 0
.06093889 .694069 0
.1279923 .6940751 0
.1809894 .6940826 0
.2287049 .6940919 0
.273571 .6941251 0
.3163552 .6941298 0
.3576274 .694152 0
.3975716 .6942145 0
.4355023 .6943573 0
.4738562 .6942801 0
.5110813 .6942961 0
.5472572 .6943139 0
.5836568 .6940393 0
.6184079 .6938282 0
.6508223 .693983 0
.6827415 .6939712 0
.7135757 .6941244 0
.7434804 .694154 0
.7723343 .6941953 0
.7999591 .6949984 0
.8273488 .6950997 0
.8534143 .6948435 0
.878871 .6944131 0
.9031499 .6941722 0
.9267456 .6941033 0
.9493822 .6939332 0
.9705849 .6941953 0
.9910802 .6939257 0
.9999999 .6936622 0
.9999999 .6936324 0
0 .7230551 0
0 .72306 0
0 .7230657 0
.05562191 .7230738 0
.1251228 .7230844 0
.1788814 .723098 0
.2270881 .7230965 0
.2718519 .7231106 0
.3147716 .7231227 0
.3563927 .723126 0
.3972345 .7231293 0
.4370769 .7231214 0
.4745091 .7230769 0
.5113385 .7229706 0
.5472925 .7228424 0
.5828654 .7226982 0
.618355 .7223192 0
.651728 .7222026 0
.6835896 .7223117 0
.7144797 .7224032 0
.7442806 .7224437 0
.7729709 .7225578 0
.8009204 .7225994 0
.8271434 .7232897 0
.8531547 .723283 0
.8786181 .7232118 0
.9033924 .7227945 0
.9273083 .7222261 0
.9497557 .7221549 0
.9709652 .7221329 0
.9909146 .7224275 0
.9999999 .72214 0
.9999999 .722118 0
0 .7511402 0
0 .7511449 0
0 .7511505 0
.04842426 .7511533 0
.1212318 .7512344 0
.1756884 .7512933 0
.2241459 .751296 0
.2695103 .7512782 0
.3131246 .7511907 0
.3557563 .7510911 0
.3972878 .7509677 0
.4370386 .7508528 0
.4743153 .7507759 0
.5113606 .7505378 0
.547662 .7502689 0
.5830101 .7501383 0
.6176425 .7501273 0
.6523086 .7498979 0
.6846656 .7497956 0
.7153228 .7498293 0
.7448841 .7499602 0
.7733827 .7500123 0
.8010381 .7501065 0
.8277709 .7502201 0
.853216 .750778 0
.8786603 .7506739 0
.9033918 .7505051 0
.9270867 .7502784 0
.9497936 .749667 0
.9711073 .7493991 0
.9915187 .7492823 0
.9999999 .7498206 0
.9999999 .7497993 0
0 .7782168 0
0 .7782015 0
0 .7781853 0
.03919099 .7781622 0
.1170758 .7781314 0
.1731132 .7781168 0
.2223862 .7780598 0
.2684002 .7779855 0
.3130367 .7778857 0
.3558217 .7777684 0
.3964843 .7776594 0
.4360103 .7775353 0
.4738981 .7774469 0
.5113644 .7772858 0
.5480316 .777114 0
.5832779 .7770794 0
.6178401 .7770087 0
.6517475 .7768916 0
.6848575 .7766079 0
.7157742 .7764944 0
.7452455 .7766388 0
.7738129 .7768388 0
.8011245 .7769949 0
.8278111 .7770337 0
.8536541 .7770717 0
.8788586 .777252 0
.9034222 .7771222 0
.9269174 .7769793 0
.9492541 .7768105 0
.9706878 .7764022 0
.9911649 .7760463 0
.9999999 .7759895 0
.9999999 .7759659 0
0 .8040548 0
0 .8040407 0
0 .8040252 0
.02673466 .8040027 0
.1115899 .803966 0
.1697436 .803907 0
.2209351 .803834 0
.2681926 .8037466 0
.3122456 .8036583 0
.3544996 .8035598 0
.3954545 .8034912 0
.4352666 .803446 0
.4738926 .8033745 0
.5116778 .8032846 0
.5484095 .8031358 0
.5837626 .8030503 0
.617913 .8030725 0
.6512485 .8029745 0
.6838211 .8029252 0
.7154705 .8028553 0
.7456342 .8026621 0
.7742448 .8026614 0
.8014588 .8027775 0
.8280278 .8027866 0
.8540058 .802843 0
.8792284 .8028973 0
.9035007 .8029073 0
.926554 .8028024 0
.9486712 .8027335 0
.9699196 .8026914 0
.9904533 .8024734 0
.9999999 .8018292 0
.9999999 .8017237 0
0 .8289897 0
0 .8289664 0
0 .8289367 0
.01719076 .8288971 0
.109166 .8288465 0
.1689533 .8287879 0
.2199095 .8287527 0
.2668247 .8287234 0
.3112242 .8286881 0
.3538432 .8286528 0
.3949967 .8286231 0
.4348986 .8285906 0
.4738766 .8285168 0
.5120656 .8284227 0
.548564 .8283213 0
.5840529 .8282316 0
.6180257 .8283368 0
.6505745 .8284793 0
.6825992 .8285838 0
.7148932 .8282308 0
.7454491 .8279687 0
.7742974 .8277763 0
.8017979 .8276732 0
.8282651 .8277442 0
.854435 .8277658 0
.8795962 .8278264 0
.9034936 .8277665 0
.9264374 .8276461 0
.9483956 .8276695 0
.9695335 .8275291 0
.9900168 .8273224 0
.9999999 .8270879 0
.9999999 .8269965 0
0 .8531006 0
0 .8531076 0
0 .8531101 0
.01589073 .853102 0
.107793 .8530916 0
.1679115 .8530782 0
.2192352 .8530622 0
.2663416 .8530431 0
.3108607 .853018 0
.3535003 .8529497 0
.394679 .8528734 0
.4344999 .8527967 0
.4734126 .8527946 0
.5115842 .8528269 0
.5485141 .8527392 0
.584065 .8526473 0
.6177387 .8526787 0
.6502602 .852906 0
.6819076 .8531007 0
.7135926 .8529141 0
.7450453 .8523989 0
.7739651 .852161 0
.8018301 .851932 0
.8286853 .8518565 0
.8547811 .8518779 0
.879615 .8518784 0
.9033827 .8518676 0
.9263601 .8516707 0
.9485131 .8512942 0
.9695757 .8513866 0
.9899072 .8513223 0
.9999999 .8512517 0
.9999999 .8512177 0
0 .8764675 0
0 .8764683 0
0 .8764692 0
.01608633 .8764706 0
.1077996 .8764701 0
.1680003 .8764617 0
.2193318 .8764151 0
.2664346 .8763519 0
.3109858 .876299 0
