luts/Timeless 35.cube
# 3D LUT of size 33x33x33 converted by Filestar.
#   Input:
#     color space: sRGB
#     white point: default (D65)
#     transfer function: default (sRGB)
#   Output:
#     color space: sRGB
#     white point: default (D65)
#     transfer function: default (sRGB)
#   Exposure: +0.72999996
#   Contrast: +21
#   Whites: +11
#   Blacks: -27
#   Vibrance: +7
LUT_3D_SIZE 33
.02750685 .00345072 .01606212
.03140268 .00581483 .00716712
.043239 .00652855 .00429054
.09251987 0 .00278741
.1443395 0 0
.1932572 0 0
.2397973 0 0
.2839976 0 0
.3258121 0 0
.366458 0 0
.4067074 0 0
.4460167 0 0
.4835355 0 0
.5195563 0 0
.5552426 0 0
.5901132 0 0
.6236389 0 0
.6557096 0 0
.6864845 0 0
.7170662 0 0
.7466283 0 0
.7748927 0 0
.8018593 0 0
.8277851 0 0
.8524638 0 0
.8756805 0 0
.8978003 0 0
.9189212 0 0
.9389325 0 0
.9579185 0 0
.9759356 0 0
.9928226 0 0
.9999999 0 0
.03324896 .00940916 .01128398
.03735776 .0138008 .00997446
.0597834 .01499131 .00580925
.1040627 .01374311 .00223608
.1505681 .01254847 0
.1965126 .00754287 0
.2423193 .00253128 0
.2853108 .00104534 0
.3267219 .0009771 0
.3671443 .00509606 0
.407277 .00619878 0
.4465382 .00391828 0
.4841571 .0004607 0
.5203722 0 0
.5557703 0 0
.5905501 0 0
.6239844 0 0
.6560386 0 0
.686687 0 0
.7172769 0 0
.7467738 0 0
.7750573 0 0
.8019973 0 0
.8279167 0 0
.8525942 0 0
.8757618 0 0
.8978677 0 0
.9190115 0 0
.9389824 0 0
.9579642 0 0
.9759856 0 0
.9928659 0 0
.9999999 0 0
.00825718 .05767154 .00345949
.02145474 .06096689 0
.0622326 .06205808 0
.1080684 .0627853 0
.1528549 .06084613 0
.1999026 .05934148 0
.244196 .05932679 0
.2862606 .05993742 0
.3275327 .05895368 0
.367996 .06032395 0
.4079165 .06150869 0
.4471288 .05985933 0
.4849015 .05859479 0
.5210441 .05482554 0
.5562009 .05119143 0
.5909817 .04740047 0
.6241995 .04721226 0
.6563286 .04840301 0
.6868091 .05378726 0
.7174106 .0500901 0
.7469314 .04606395 0
.7752566 .03983257 0
.8021581 .03279578 0
.8280519 .02453097 0
.852722 .0167388 0
.8758426 .01026545 0
.8979149 .00173168 0
.9190608 0 0
.93903 0 0
.9580106 0 0
.9760402 0 0
.9929017 0 0
.9999999 0 0
0 .1109085 0
.01079541 .1112723 0
.06105274 .1121289 0
.1082627 .1116643 0
.1557875 .1126069 0
.2009982 .1140993 0
.244797 .1146664 0
.2867472 .1150509 0
.3282556 .1124237 0
.3692358 .1108587 0
.4091149 .1108958 0
.4482619 .1104627 0
.4857748 .1100666 0
.5216735 .1090161 0
.5566782 .1089344 0
.5914676 .106968 0
.6244596 .109101 0
.6565737 .1097054 0
.686904 .1136314 0
.7176676 .1115898 0
.7471935 .1094283 0
.7754307 .1070974 0
.8024241 .1031168 0
.8282443 .09948083 0
.8528407 .09548908 0
.8758869 .09305786 0
.8979659 .08870865 0
.9191297 .08615278 0
.9390978 .08422834 0
.9580767 .08231645 0
.9761083 .08041673 0
.9929479 .07907484 0
.9999999 .07799301 0
0 .1586883 0
.00325417 .1593466 0
.05464047 .1608468 0
.1102566 .1608444 0
.1586372 .1616748 0
.202611 .162718 0
.2449919 .1633719 0
.2877401 .1624874 0
.3291335 .1605366 0
.3697565 .1600433 0
.4094536 .1598243 0
.4483077 .1596945 0
.4858803 .1590877 0
.5218757 .158443 0
.5570955 .1585518 0
.5917591 .1582387 0
.6249118 .1584536 0
.6570611 .1590572 0
.687799 .1612301 0
.7180347 .1620944 0
.7475419 .1606089 0
.7757505 .1591006 0
.8026528 .1577516 0
.8282893 .156454 0
.8528159 .1533789 0
.8759971 .1503904 0
.89804 .1488432 0
.9192014 .1472873 0
.9391879 .1460803 0
.9581645 .144944 0
.9761533 .1438085 0
.9930086 .1429152 0
.9999999 .1423678 0
0 .2047278 0
0 .2056384 0
.05417638 .2061437 0
.1138413 .2057872 0
.1597691 .2063509 0
.2032062 .2069239 0
.2454767 .2072014 0
.2874708 .2063968 0
.3291547 .2058295 0
.3698333 .2056589 0
.4094617 .2056155 0
.4484301 .2053933 0
.4860656 .2050124 0
.5223813 .2047094 0
.5575042 .2054023 0
.5921065 .2055832 0
.6252091 .2056707 0
.6573609 .2060255 0
.6884404 .206352 0
.7185997 .2075647 0
.747931 .2076946 0
.7758713 .2081881 0
.8028864 .206998 0
.8286035 .2047828 0
.8528817 .2028826 0
.8760586 .2011544 0
.8981332 .2002277 0
.919292 .1990946 0
.9393014 .1981731 0
.9582751 .197351 0
.9762093 .1965145 0
.9930755 .1957881 0
.9999999 .1954463 0
0 .2482112 0
0 .2485991 0
.06177071 .2485194 0
.1170118 .248185 0
.1614454 .2483919 0
.2043882 .248651 0
.2466504 .2487882 0
.2883429 .2491538 0
.3291064 .2496724 0
.369868 .249564 0
.4099041 .2493982 0
.4488273 .2492933 0
.4867108 .2490833 0
.5229266 .2492011 0
.5580489 .2499302 0
.5921283 .2504968 0
.6256095 .2502791 0
.6576833 .2506015 0
.6889235 .2507775 0
.7190213 .2520628 0
.748369 .2519258 0
.7764947 .2516022 0
.8032834 .2517516 0
.8290259 .2502638 0
.8531669 .2485993 0
.8761756 .2483227 0
.8982524 .247622 0
.9194016 .246733 0
.9394389 .2459652 0
.9584041 .2453586 0
.9762679 .2447225 0
.993087 .2441127 0
.9999999 .2438388 0
0 .2907977 0
0 .2909109 0
.06113981 .2908196 0
.1160164 .2906909 0
.1618914 .2907827 0
.2075447 .2904399 0
.2497811 .2904809 0
.2907967 .2909439 0
.3310705 .2914776 0
.3703777 .2917801 0
.4102591 .2917163 0
.4495693 .2918871 0
.4869993 .2926596 0
.5231727 .2930246 0
.5586882 .2930253 0
.5927569 .2933303 0
.6260764 .2933524 0
.6580511 .2937477 0
.6895589 .293791 0
.7201197 .2937888 0
.7488922 .2947281 0
.776984 .2943697 0
.8038572 .2939637 0
.8293703 .293541 0
.8537158 .2926657 0
.8765072 .2927948 0
.8984815 .2923608 0
.9195285 .2918925 0
.9395854 .2912762 0
.9585379 .2907843 0
.9762859 .2902152 0
.9930598 .2897581 0
.9999999 .2894743 0
0 .3329471 0
.00023175 .3328531 0
.06731839 .3327472 0
.1215742 .3326266 0
.1666829 .3328588 0
.2095479 .3329862 0
.252924 .3327302 0
.2935934 .3326734 0
.3335699 .3323986 0
.373037 .3324362 0
.4111526 .3336339 0
.4495832 .3345764 0
.4869816 .3349493 0
.523419 .3355695 0
.5590226 .3355883 0
.5932018 .3356585 0
.6264784 .3356405 0
.6586222 .335809 0
.6902285 .3357165 0
.7207274 .3356577 0
.7497477 .3360386 0
.7775385 .3364647 0
.8043684 .336441 0
.8296626 .3363555 0
.854017 .3357048 0
.8768896 .3354067 0
.8989222 .3350109 0
.9199234 .3346297 0
.9398931 .3342418 0
.9586598 .3340496 0
.9763404 .3336119 0
.9931071 .3332391 0
.9999999 .3329484 0
0 .3734891 0
.01313149 .3734861 0
.07391032 .3735469 0
.1242673 .3736278 0
.1699455 .3737364 0
.2102227 .3743137 0
.2532939 .3741748 0
.2953477 .3739965 0
.3351277 .3741014 0
.3739415 .3743311 0
.412149 .3746851 0
.4494818 .3756582 0
.487129 .3760873 0
.5238893 .3763412 0
.5591183 .3767843 0
.5936822 .3767965 0
.6264783 .3771528 0
.6592673 .376866 0
.6909013 .3765962 0
.7213927 .3767203 0
.7506863 .376946 0
.778181 .3779573 0
.8047746 .3778938 0
.8300962 .3777687 0
.8541422 .37757 0
.8772346 .3769756 0
.8992827 .3765758 0
.9202715 .3761538 0
.9402457 .3757547 0
.9589244 .3752773 0
.9765605 .3748896 0
.9933416 .3746471 0
.9999999 .3744739 0
0 .4134136 0
.01323377 .4134736 0
.07212762 .413638 0
.1227632 .4137889 0
.1686796 .4140206 0
.2124929 .4144115 0
.2521255 .4151083 0
.2940655 .4152097 0
.3351765 .4152004 0
.3739738 .4153223 0
.4119051 .4154135 0
.4496654 .4156498 0
.4874247 .4158548 0
.5240463 .4162579 0
.5595065 .4165543 0
.5936925 .4167592 0
.6269206 .4169955 0
.6600301 .4171759 0
.6916839 .4171674 0
.7221301 .4171702 0
.7514495 .4172007 0
.7793492 .4173105 0
.805221 .4180912 0
.8304594 .4179734 0
.854441 .4178603 0
.8774056 .4175194 0
.8997046 .4167468 0
.9206756 .4163924 0
.940518 .4162402 0
.959086 .4160687 0
.9766453 .4158788 0
.9934943 .4159708 0
.9999999 .4161446 0
0 .4533179 0
.00253874 .4533563 0
.06848887 .4533994 0
.122096 .4534613 0
.1689626 .4536255 0
.212307 .4539834 0
.2528901 .4546107 0
.2936355 .4547675 0
.3342988 .4547665 0
.3743159 .4546541 0
.4121701 .4547273 0
.4501581 .4549066 0
.4875573 .4549169 0
.524396 .454829 0
.5597685 .4551932 0
.5936839 .4557046 0
.6277047 .4559223 0
.6605715 .4563891 0
.6924923 .4564574 0
.7228893 .4565043 0
.7521679 .4565341 0
.7798032 .4564895 0
.8061942 .456513 0
.8307557 .4571729 0
.8546823 .4572071 0
.8776115 .4572636 0
.8997123 .4571066 0
.9209134 .4566327 0
.9405979 .4564328 0
.9592618 .4563886 0
.9769245 .4563812 0
.9939024 .4561113 0
.9999999 .4560095 0
0 .4922972 0
0 .4923297 0
.05590009 .4923663 0
.1147302 .4924164 0
.1643195 .4924533 0
.21014 .4924675 0
.2534993 .4925403 0
.2934852 .4928546 0
.333728 .4929674 0
.3734238 .4929665 0
.4130872 .4928443 0
.4509608 .4929788 0
.4881084 .4930822 0
.5248122 .4927486 0
.5602996 .492734 0
.5944378 .4935479 0
.628373 .4942104 0
.6614854 .4943499 0
.6929058 .4949911 0
.7233858 .4951553 0
.7524198 .4953088 0
.7799721 .4953681 0
.8062401 .4955036 0
.8312889 .495629 0
.8547217 .496241 0
.8777645 .4961073 0
.8998396 .4959359 0
.9208065 .4956635 0
.9406922 .4954613 0
.9595491 .4950948 0
.9773917 .4948817 0
.9943283 .4946004 0
.9999999 .4943194 0
0 .5298071 0
0 .5298136 0
.03639136 .5298209 0
.1046769 .5298311 0
.1573409 .5298448 0
.2048991 .529862 0
.249779 .5298828 0
.2925586 .529892 0
.3325399 .5300535 0
.3731369 .5301076 0
.4125555 .530201 0
.4515808 .5301879 0
.4887649 .5305065 0
.5252745 .5307749 0
.5605323 .5309455 0
.5954764 .531065 0
.6291785 .531805 0
.6619269 .5323971 0
.6936815 .5324947 0
.7237951 .532587 0
.752362 .5327594 0
.7799534 .5328364 0
.8063018 .53295 0
.8313857 .5330489 0
.8552964 .5331296 0
.8778837 .5336269 0
.8999662 .5336355 0
.9208544 .5335271 0
.9406554 .533152 0
.9595516 .5327601 0
.9778489 .5320227 0
.9948078 .5317576 0
.9999999 .5315077 0
0 .5664065 0
0 .5664335 0
.01483454 .5664639 0
.09358283 .5665073 0
.1498549 .5665649 0
.1990978 .5666373 0
.2449626 .5667189 0
.2887232 .5667403 0
.3297978 .5669605 0
.3714083 .5667861 0
.4123335 .566664 0
.4514298 .5667934 0
.4899634 .5668789 0
.5260251 .5672066 0
.5612976 .567532 0
.5961564 .5677909 0
.6299833 .5678474 0
.6623847 .5683499 0
.6938032 .5687116 0
.7236845 .5688753 0
.7525692 .5686329 0
.7800767 .568841 0
.8063046 .5690406 0
.8314689 .5691464 0
.8555545 .5693696 0
.8787287 .5694395 0
.9001528 .569849 0
.9209015 .56965 0
.9406725 .5694277 0
.9598144 .5690245 0
.9780566 .5686332 0
.9954178 .5678073 0
.9999999 .5670438 0
0 .6016853 0
0 .6016998 0
0 .601716 0
.08211278 .6017392 0
.1429932 .6017699 0
.1942863 .6018087 0
.2421356 .6018702 0
.2876438 .6019322 0
.3313313 .601989 0
.3718321 .6021638 0
.4124588 .601975 0
.4521849 .6017986 0
.4904478 .6018477 0
.5272227 .6021103 0
.5627373 .6025012 0
.597293 .602882 0
.6307101 .6031939 0
.6630717 .6032407 0
.6938221 .6033973 0
.7236897 .6036874 0
.7523111 .6039426 0
.7801964 .6036066 0
.8064129 .603816 0
.8315423 .6041462 0
.855656 .6042129 0
.8788682 .6042274 0
.9008579 .6042203 0
.9212685 .6046421 0
.9410571 .6043242 0
.9601145 .6039161 0
.9781888 .6031314 0
.995409 .6025429 0
.9999999 .6019961 0
0 .6360333 0
0 .6360415 0
0 .6360506 0
.0717997 .6360624 0
.1383135 .6361011 0
.1920729 .6361499 0
.2408051 .6362051 0
.2869016 .6362674 0
.3308931 .6363415 0
.3730081 .6363977 0
.4120602 .6365079 0
.4509653 .6364319 0
.489487 .6363091 0
.5276683 .6362277 0
.5639069 .6364349 0
.5983992 .6367396 0
.6315277 .6370466 0
.663217 .6372395 0
.6941345 .6371543 0
.7236253 .6374166 0
.752164 .6376916 0
.7800347 .637857 0
.8065047 .637781 0
.8317296 .6375487 0
.8558414 .6376585 0
.8788601 .6377801 0
.9007626 .6376825 0
.9217415 .6374059 0
.941255 .6373609 0
.960351 .636969 0
.9783091 .6366084 0
.9953988 .6361834 0
.9999999 .6358117 0
0 .6689932 0
0 .6690002 0
0 .66901 0
.06590535 .6690239 0
.1352861 .6690417 0
.1902733 .66905 0
.2399192 .6690487 0
.2861161 .6690844 0
.3301129 .669137 0
.3724429 .6692171 0
.4118754 .6693474 0
.4504163 .6692776 0
.4890562 .6691825 0
.5271952 .6690745 0
.5651285 .6687805 0
.599816 .6689385 0
.6324156 .6692382 0
.6641316 .6693838 0
.6949122 .669409 0
.7243791 .6696976 0
.7524414 .6699347 0
.7796328 .6703624 0
.8062923 .6703454 0
.8314654 .670433 0
.8560073 .6700511 0
.8788707 .669787 0
.9004819 .6695973 0
.9215105 .6693798 0
.9414946 .6691928 0
.9600473 .6695341 0
.9781302 .6692625 0
.9952227 .6690443 0
.9999999 .6687682 0
0 .7005295 0
0 .7005345 0
0 .7005403 0
.05811671 .7005478 0
.1313561 .7005543 0
.1879519 .7005745 0
.2381892 .7005555 0
.2850051 .7005333 0
.3295275 .7005078 0
.3720628 .7005139 0
.4124632 .7005537 0
.4512022 .700642 0
.489729 .7005538 0
.5275211 .7004496 0
.5643069 .7003527 0
.6004444 .7000071 0
.6333666 .7000965 0
.6650698 .7002444 0
.6958829 .7002513 0
.7252676 .7004163 0
.7533258 .7005255 0
.7802595 .70069 0
.8058894 .7015092 0
.8314915 .7012824 0
.8557203 .7009816 0
.8787065 .7006957 0
.9007928 .7002858 0
.9216587 .7002506 0
.9414895 .7002227 0
.9605216 .7000406 0
.9779819 .7003937 0
.9948484 .7001743 0
.9999999 .6999546 0
0 .7306831 0
0 .7306885 0
0 .7306892 0
.05213656 .730688 0
.1290486 .7306763 0
.1863269 .7306615 0
.2369419 .7306436 0
.2840229 .7306218 0
.3285697 .7306057 0
.3711326 .7306075 0
.412961 .7306002 0
.4519674 .7308079 0
.4906304 .7306805 0
.528019 .7304556 0
.5639201 .7302675 0
.5992677 .7300957 0
.634189 .7297303 0
.6662027 .7297074 0
.6969822 .7297231 0
.7262096 .7298315 0
.7540711 .7300965 0
.7808696 .7302371 0
.8067321 .7301859 0
.8311988 .7307957 0
.8554645 .7306994 0
.8786521 .730505 0
.9008053 .7303236 0
.922125 .7297358 0
.942001 .7295273 0
.960784 .729459 0
.9783413 .7294509 0
.9950112 .7294593 0
.9999999 .7295315 0
0 .7596487 0
0 .7596423 0
0 .7596309 0
.04593884 .7596148 0
.1263616 .7595933 0
.1846089 .7595662 0
.235732 .7595333 0
.2826678 .7595134 0
.3275057 .7594953 0
.3710538 .759481 0
.4129045 .759337 0
.4530991 .7591509 0
.4911092 .7590788 0
.5284357 .7589207 0
.5643845 .7588059 0
.5992689 .7587325 0
.6333818 .7585593 0
.6668743 .7582195 0
.6980481 .7579674 0
.7268925 .7582071 0
.7544966 .7584187 0
.7811626 .758565 0
.8069652 .7587224 0
.8317215 .7587781 0
.8553456 .7590781 0
.8787168 .7588176 0
.9009077 .758617 0
.9218976 .7584817 0
.9419612 .7581756 0
.9608644 .7576565 0
.9785289 .7574543 0
.9952168 .7574251 0
.9999999 .7574984 0
0 .7870742 0
0 .7870879 0
0 .7870767 0
.0429542 .7870595 0
.1249559 .7870029 0
.1831175 .7869429 0
.2339271 .7868754 0
.2818825 .7867875 0
.3273827 .7866772 0
.3710161 .7866054 0
.4130071 .7865444 0
.4529996 .786484 0
.4913878 .7864321 0
.5288142 .7862795 0
.564846 .7861508 0
.5993552 .7862127 0
.6329733 .7861757 0
.6660232 .7858946 0
.6975541 .7856318 0
.7271139 .7855278 0
.7548812 .7857602 0
.7816027 .7858535 0
.8070974 .7859399 0
.8318427 .7860086 0
.855752 .7860352 0
.8787427 .7859446 0
.9008479 .7857826 0
.9219192 .7855676 0
.9415902 .785432 0
.960133 .7853624 0
.9779188 .785027 0
.9948174 .7847033 0
.9999999 .7845593 0
0 .8130352 0
0 .8130114 0
0 .8129889 0
.03476407 .8129535 0
.1209434 .8129232 0
.1813731 .8128954 0
.2339248 .8128595 0
.2822673 .8128173 0
.3279153 .8127689 0
.3710721 .8127302 0
.4124097 .8127021 0
.4528115 .8126624 0
.4916591 .8126016 0
.5289602 .8125534 0
.5651575 .81246 0
.5995708 .8124501 0
.6325624 .8124815 0
.6647775 .8125337 0
.6964747 .8123079 0
.7265208 .8121362 0
.7550799 .8119354 0
.7819785 .811891 0
.8074105 .8118716 0
.8322623 .8119171 0
.8561211 .8119724 0
.8789175 .8120102 0
.9009566 .8117339 0
.9214872 .8116462 0
.9410247 .8114806 0
.9595456 .8114138 0
.9772397 .8114766 0
.9943483 .8114821 0
.9999999 .8110335 0
0 .8379276 0
0 .8379198 0
0 .8379115 0
.03402019 .8379002 0
.122224 .8378834 0
.1825885 .8378605 0
.2348897 .8378326 0
.2826312 .8378085 0
.3275225 .8377856 0
.3705264 .8377688 0
.4122156 .8377509 0
.4526021 .8376899 0
.491294 .837684 0
.5289782 .8376265 0
.5651201 .8375215 0
.5996575 .8375268 0
.6322879 .837675 0
.6638461 .8378587 0
.6950012 .8377611 0
.7258621 .8373963 0
.7547511 .8371056 0
.7819623 .836818 0
.8077469 .8366997 0
.8327093 .8366598 0
.8565481 .8367144 0
.8792307 .836767 0
.9006588 .8367743 0
.921263 .8364263 0
.9407924 .8364344 0
.9595223 .8363963 0
.9772349 .8363392 0
.9941005 .8363257 0
.9999999 .8361633 0
0 .8617424 0
0 .8617466 0
0 .8617514 0
.04203732 .8617564 0
.1252705 .8617396 0
.183736 .8617345 0
.2349194 .8617269 0
.2822786 .8616885 0
.3271625 .8616446 0
.370268 .8615984 0
.4119974 .8615729 0
.4520714 .8615621 0
.4908822 .8616209 0
.5285838 .8616073 0
.5649672 .8614738 0
.5993794 .8614183 0
.6319637 .8616279 0
.6634395 .8618509 0
.6941897 .861876 0
.7245178 .8615716 0
.7543634 .8610446 0
.7815169 .8607839 0
.8079605 .8605058 0
.8330495 .8603275 0
.856851 .860321 0
.8793594 .860369 0
.9007826 .8604712 0
.9212274 .8605392 0
.941029 .8601663 0
.9597419 .8599417 0
.9773341 .8599681 0
.9940913 .8598974 0
.9999999 .8599042 0
0 .884362 0
0 .8843611 0
0 .88436 0
.04115338 .8843583 0
.1245489 .8843561 0
.1834634 .8843537 0
.23489 .8843551 0
.2821194 .8843179 0
.3269977 .8843536 0
.3699874 .8843506 0
.4114803 .8843604 0
.451552 .8843712 0
.4902512 .8843874 0
.5278444 .8843871 0
.5640382 .8842909 0
.5987741 .8842975 0
.6317279 .8844422 0
.6632755 .8846022 0
.6939703 .8846115 0
.723891 .8844239 0
.7529566 .8840645 0
.7812832 .8836028 0
.8078015 .8833407 0
.8330362 .8830981 0
.8571949 .8829229 0
.8796349 .8829181 0
.9010265 .8829231 0
.9214697 .8829249 0
.9411041 .8828276 0
.9599305 .8824593 0
.9777057 .8821698 0
.9941795 .8823845 0
.9999999 .8824601 0
0 .9059068 0
0 .9058957 0
0 .905883 0
.0330169 .9058651 0
.121102 .9058661 0
.1809668 .9058934 0
.2328576 .9059263 0
.2806862 .9059655 0
.3256928 .9060003 0
.3690866 .9060126 0
.4108177 .9060261 0
.4508302 .9059971 0
.4894133 .9058966 0
.5267044 .9058398 0
.5633784 .9059235 0
.5983894 .9058586 0
.6316229 .9058669 0
.6633156 .9059678 0
.6939271 .9060053 0
.7234022 .9059265 0
.7519825 .9057221 0
.7804931 .9052891 0
.8077386 .9049346 0
.8330722 .9047041 0
.8571064 .9043821 0
.8799175 .904183 0
.9013264 .9041894 0
.9217912 .9041544 0
.941223 .9041384 0
.9597735 .9040085 0
.9775404 .9037389 0
.9944333 .9035265 0
.9999999 .9035465 0
0 .9265879 0
0 .9265803 0
0 .926572 0
.01728623 .9265598 0
.1146174 .9265438 0
.1771791 .9265236 0
.2298404 .926503 0
.2785285 .9264622 0
.3243218 .9264306 0
