luts/Timeless_4.cube
# 3D LUT of size 33x33x33 converted by Filestar.
#   Input:
#     color space: sRGB
#     white point: default (D65)
#     transfer function: default (sRGB)
#   Output:
#     color space: sRGB
#     white point: default (D65)
#     transfer function: default (sRGB)
#   Exposure: -0.01
#   Contrast: +17
#   Whites: +19
#   Blacks: -11
#   Vibrance: +34
LUT_3D_SIZE 33
.01322894 .01887361 .03300441
.02059531 .01790756 .02431367
.03952464 .01508437 .01877424
.07583103 .01012089 .02196647
.1123774 0 .02141059
.1428853 0 .02257705
.1706415 0 .02447083
.1979091 0 .0209705
.2283543 0 .02148964
.2595722 0 .01637118
.2932448 0 .00940559
.3272191 0 .00228591
.3603945 0 0
.3936391 0 0
.4268979 0 0
.4597237 0 0
.492436 0 0
.5250561 0 0
.557671 0 0
.5893188 0 0
.6210732 0 0
.6529924 0 0
.6849107 0 0
.7174404 0 0
.7500997 0 0
.7824338 0 0
.8148192 0 0
.8470396 0 0
.8796065 0 0
.9116423 0 0
.9433689 0 0
.9749495 0 0
.9999999 0 0
.00954056 .02642259 .02892097
.02390331 .02520276 .02217014
.05043401 .02237555 .02141581
.08288693 .017668 .02196345
.1150616 .01016256 .01805882
.1422805 .00591893 .01812
.1714469 .00693104 .01847404
.1994907 .00985804 .02023166
.2291532 .01493584 .01652063
.2609378 .01753049 .0146966
.2945775 .01890001 .00701601
.328062 .01638014 0
.3617592 .01033301 0
.3950115 .00445975 0
.4278415 0 0
.4605068 0 0
.4929929 0 0
.5251524 0 0
.557892 0 0
.5895202 0 0
.6212395 0 0
.6531177 0 0
.685105 0 0
.7176367 0 0
.750248 0 0
.7825801 0 0
.8149536 0 0
.8471909 0 0
.8797476 0 0
.9117588 0 0
.9434813 0 0
.9750597 0 0
.9999999 0 0
.00312925 .05124118 .01834943
.02542243 .05052678 .01784791
.05515577 .05042204 .01637137
.08534839 .04908893 .01295638
.1136467 .04925355 .00883217
.1423919 .0443503 .01433295
.1721099 .04432169 .01536936
.2014949 .04766946 .01675567
.2306474 .05620028 .01584177
.2626217 .0577195 .00976953
.295629 .05880577 .00335731
.3299001 .0549655 0
.3631766 .04806739 0
.395958 .04222674 0
.428571 .03455321 0
.4610996 .02643133 0
.4934965 .02127706 0
.525428 .02130948 0
.5581509 .01301696 0
.5897149 .00879998 0
.6214254 .00453017 0
.6532474 0 0
.6852551 0 0
.7177966 0 0
.7503899 0 0
.7827457 0 0
.8151054 0 0
.847362 0 0
.8799015 0 0
.9118667 0 0
.9436085 0 0
.975186 0 0
.9999999 0 0
0 .08861063 .01159456
.01626812 .08789972 .01012829
.04743254 .08768538 .0081777
.07782217 .0888221 .00371772
.1102269 .09005842 .00283732
.1410321 .09091546 .00643727
.1722162 .09075106 .0082315
.2037976 .09112503 .0111297
.2328528 .09544794 .01126173
.2634605 .09715442 .00619857
.2978196 .09342615 0
.3309793 .09097924 0
.3640864 .08627623 0
.396907 .08164323 0
.4294501 .07656386 0
.4616854 .0727688 0
.4938872 .06988786 0
.5258197 .07021191 0
.5584797 .06529608 0
.5899979 .06288935 0
.6216829 .05988603 0
.6534333 .0531927 0
.6854699 .04516786 0
.7180377 .03587426 0
.7505926 .02327252 0
.7829829 .00894983 0
.8153227 0 0
.8475921 0 0
.8800862 0 0
.9120174 0 0
.9437991 0 0
.9753718 0 0
.9999999 0 0
0 .1269166 .00469753
.02074172 .1274433 .00281978
.05370009 .1278957 0
.08647887 .1277755 0
.1171217 .1274384 .00177764
.1469691 .1274308 .00328356
.1752823 .1273823 .00492507
.2060386 .1267309 .00536926
.2360224 .126865 .00480985
.2657161 .1294034 0
.2985696 .12809 0
.3326192 .1242646 0
.3649243 .1223157 0
.3976163 .11858 0
.4299265 .1153726 0
.4620988 .1130035 0
.4942191 .1116639 0
.5262647 .1118106 0
.558894 .1088243 0
.590371 .1074206 0
.6219719 .1060538 0
.6536681 .1017498 0
.6858054 .09764501 0
.7183496 .09262157 0
.7508508 .08527911 0
.7832739 .07656934 0
.8156142 .06503122 0
.8478565 .05777432 0
.8803494 .04695753 0
.9122197 .03230161 0
.9440559 .01715595 0
.9756203 .00227385 0
.9999999 0 0
0 .1620901 0
.025682 .1622735 0
.05670384 .1620878 0
.08811257 .1617991 0
.1196884 .1612277 0
.1509682 .1604977 0
.1807566 .1597975 0
.2103648 .1591054 0
.2397387 .1589295 0
.2696323 .1604018 0
.2991293 .1626386 0
.3325323 .1606257 0
.3659702 .1570501 0
.3977657 .1553543 0
.4302849 .1531271 0
.4625376 .1510288 0
.4945911 .1503222 0
.5266421 .1503346 0
.5593552 .1479512 0
.5908358 .1470898 0
.6223736 .1459526 0
.6539575 .1429734 0
.6862268 .1404628 0
.7187175 .1368486 0
.751163 .1316316 0
.7835467 .1260005 0
.8156307 .1215397 0
.8481936 .1147179 0
.880581 .1088598 0
.9124563 .1017283 0
.9443314 .09405241 0
.9759172 .08578818 0
.9999999 .07641446 0
0 .1957598 0
.02419135 .1955839 0
.05721223 .1954006 0
.08958711 .194986 0
.1212191 .1943942 0
.152918 .1936974 0
.1840903 .1932434 0
.2128847 .1936739 0
.2418511 .1943093 0
.2725466 .1946406 0
.3019736 .1958306 0
.3329334 .1958862 0
.3659317 .1944642 0
.3988461 .1924861 0
.430628 .1912156 0
.4625661 .1896032 0
.4949237 .1884083 0
.5269287 .1880764 0
.5596717 .1862674 0
.5911704 .1854012 0
.6227232 .1838391 0
.6544409 .1810701 0
.6867603 .1794747 0
.7191094 .1765539 0
.7515219 .1727523 0
.7838633 .168546 0
.81604 .1657409 0
.8486384 .1602612 0
.8808662 .1560977 0
.9127463 .151206 0
.9446235 .146034 0
.9762405 .1406975 0
.9999999 .1353154 0
0 .2315727 0
.01363694 .2315219 0
.0491138 .2314649 0
.0851684 .2313828 0
.1191287 .2311779 0
.1519578 .2304936 0
.1843238 .2299039 0
.2153777 .2294299 0
.2440817 .2300698 0
.2737994 .2305932 0
.3052069 .2299559 0
.3351442 .2308126 0
.3667359 .2309788 0
.3993562 .2297013 0
.4314763 .2280489 0
.4635299 .226322 0
.4948999 .2262922 0
.5271026 .2254683 0
.5590855 .2250011 0
.5914068 .2229285 0
.6229662 .2215569 0
.6548553 .2194344 0
.6872323 .2175408 0
.7194902 .2150987 0
.7517973 .2121103 0
.7841687 .2087968 0
.8164835 .2063342 0
.8491184 .2020813 0
.8811458 .1985809 0
.9129783 .1950086 0
.9448094 .1913386 0
.9764481 .187639 0
.9999999 .1838641 0
0 .2670125 0
0 .2670276 0
.03485523 .2670304 0
.07634666 .2670285 0
.1129328 .2671155 0
.1475452 .2672304 0
.1813082 .2670196 0
.2156801 .2664997 0
.2456637 .2661959 0
.275107 .265988 0
.3052399 .2662738 0
.3370877 .2657138 0
.3679256 .2665249 0
.3997311 .2660378 0
.4322262 .2645013 0
.463889 .2639304 0
.4961746 .2625706 0
.5275996 .2621699 0
.5592556 .2618842 0
.5916327 .2596208 0
.6232509 .2582144 0
.6553606 .2563992 0
.6876607 .2545348 0
.7198467 .2526603 0
.7520189 .2507339 0
.7843458 .2488892 0
.8167369 .2466774 0
.84919 .2432435 0
.8813687 .2388451 0
.9131857 .2359436 0
.9449923 .2330447 0
.9766445 .2304132 0
.9999999 .227156 0
0 .3023731 0
0 .3024122 0
.01138658 .3024564 0
.06116913 .3025194 0
.1031399 .3025751 0
.1408071 .3026045 0
.1765031 .3025712 0
.2123601 .3024665 0
.2452889 .3021424 0
.276914 .3015022 0
.3070418 .3013021 0
.3366202 .3019452 0
.3687554 .3015647 0
.3996505 .3022717 0
.4324145 .3014561 0
.4650845 .3004474 0
.4966222 .2997349 0
.5281011 .2989774 0
.5601881 .2977166 0
.5918114 .2962125 0
.6235213 .2945216 0
.6559085 .2925189 0
.6880744 .2910435 0
.7202481 .2895239 0
.752475 .2881891 0
.7847423 .2871251 0
.8169912 .2857521 0
.8493381 .2825271 0
.8815331 .2784027 0
.9133943 .2752868 0
.9451777 .2726711 0
.976819 .2705754 0
.9999999 .2685096 0
0 .3376164 0
0 .3376687 0
0 .3377377 0
.03769536 .3378169 0
.09010022 .3378904 0
.1317706 .3379557 0
.17042 .3379202 0
.2072495 .3378425 0
.2423483 .337833 0
.2750868 .3376572 0
.3068377 .3371472 0
.3379086 .3370949 0
.3681661 .3372955 0
.4007754 .3371272 0
.4321884 .3378441 0
.465647 .3366838 0
.4978185 .335948 0
.5291184 .3353008 0
.560241 .3345027 0
.5921562 .3326855 0
.624378 .3304324 0
.655971 .3293854 0
.6883669 .3275826 0
.7206784 .3260849 0
.7529598 .3251973 0
.7851891 .324334 0
.8173481 .3229428 0
.8493589 .3207222 0
.8815597 .3172559 0
.9133977 .3143175 0
.9450664 .3123486 0
.976743 .3103318 0
.9999999 .3084225 0
0 .3729892 0
0 .3730158 0
0 .3730458 0
.00589142 .3730888 0
.07141378 .3730901 0
.1205427 .3730375 0
.1620572 .3729445 0
.1998963 .372879 0
.2364752 .3727999 0
.2722885 .3727881 0
.3059295 .3727297 0
.338091 .3725263 0
.3699978 .3724143 0
.4004523 .3727618 0
.4335088 .372333 0
.4652539 .3728845 0
.4980941 .3721815 0
.5303619 .370973 0
.5613872 .3698154 0
.5925649 .3690391 0
.6252183 .3668783 0
.6573517 .3653629 0
.6887965 .3645376 0
.7207974 .3638097 0
.7532399 .3624651 0
.7855329 .3613721 0
.8174657 .359916 0
.8495309 .3576826 0
.8810955 .3562418 0
.9131504 .3536422 0
.9448654 .3515019 0
.9765733 .3494357 0
.9999999 .347372 0
0 .4085024 0
0 .4085059 0
0 .4085044 0
0 .408501 0
.05058184 .4084962 0
.1077674 .4085151 0
.152274 .4085626 0
.1924382 .4086098 0
.2302602 .4086731 0
.2671724 .4087563 0
.3029777 .4088682 0
.336183 .4088992 0
.3682764 .4088566 0
.4007741 .4085579 0
.4320233 .4084044 0
.4647399 .4079702 0
.4975789 .4076508 0
.5302573 .4065965 0
.5625445 .4055552 0
.5941213 .4045074 0
.6256553 .4038611 0
.6583359 .4020413 0
.6904584 .4009114 0
.7220172 .4002502 0
.7533099 .4001635 0
.7855332 .398412 0
.8173655 .3966782 0
.8493161 .3951075 0
.881062 .3936794 0
.913199 .3913709 0
.9447208 .3894517 0
.9762843 .3873118 0
.9999999 .3859679 0
0 .4440699 0
0 .4441174 0
0 .4441472 0
0 .4441707 0
.01876293 .4442101 0
.0913915 .4442601 0
.1415003 .4443233 0
.1846704 .444378 0
.2240331 .444464 0
.2614646 .4445636 0
.2982847 .4446054 0
.3335071 .4444754 0
.3671855 .4442674 0
.3994143 .4441449 0
.4314815 .443801 0
.4634314 .4435034 0
.4953149 .4432254 0
.5286987 .4420892 0
.562014 .4412962 0
.5949289 .4404623 0
.6272389 .4396893 0
.659868 .4384184 0
.6920134 .4373022 0
.7239542 .436471 0
.7552047 .4362283 0
.7859166 .4354135 0
.8165074 .4348204 0
.8486868 .4326925 0
.8809144 .4305256 0
.9127161 .4287165 0
.9447867 .4262411 0
.9764345 .424859 0
.9999999 .4235925 0
0 .4791765 0
0 .4792203 0
0 .4792698 0
0 .4793408 0
0 .4794449 0
.07584488 .4794776 0
.1319174 .4794952 0
.1775501 .479514 0
.2187101 .4795631 0
.2570543 .4796264 0
.2941878 .4796913 0
.3316664 .4794406 0
.3663003 .4791049 0
.3996081 .4790632 0
.4320874 .4791692 0
.463855 .4792435 0
.4955173 .4787546 0
.5284311 .4783366 0
.5617449 .4775172 0
.5955172 .4763646 0
.6283393 .4757126 0
.6603842 .4753468 0
.6930281 .4742626 0
.7251253 .4732016 0
.7570111 .4718415 0
.7878888 .4708926 0
.8186117 .4700187 0
.8492772 .4690799 0
.8804562 .4677444 0
.9125774 .4652893 0
.9444461 .4637237 0
.9766441 .4618743 0
.9999999 .4607251 0
0 .5141869 0
0 .5142246 0
0 .5142646 0
0 .5143173 0
0 .5143881 0
.06014095 .5144488 0
.1215667 .5145004 0
.1704692 .5145218 0
.2133481 .5145783 0
.2531377 .5146375 0
.2914856 .5146047 0
.3293338 .5143784 0
.3655434 .5141279 0
.3987099 .5139602 0
.4309056 .513998 0
.4631688 .514123 0
.4955117 .5144395 0
.5281204 .5142258 0
.5612481 .5136575 0
.5948374 .5130519 0
.628263 .5119497 0
.6609923 .5110431 0
.6937781 .5099338 0
.7255099 .5091171 0
.7569674 .508033 0
.7884035 .5065762 0
.8197675 .5052835 0
.8508921 .5041909 0
.8816047 .50335 0
.9127913 .5022678 0
.944428 .501125 0
.9769297 .4989238 0
.9999999 .4979117 0
0 .5494979 0
0 .5495225 0
0 .5495505 0
0 .5495905 0
0 .5496443 0
.04245867 .5497128 0
.1117016 .5497971 0
.1612655 .5498982 0
.2069819 .5498396 0
.2492286 .5497257 0
.2888504 .5495548 0
.3265926 .5494094 0
.3628869 .5490836 0
.3973089 .5490422 0
.4301405 .5490057 0
.4627379 .5492068 0
.4951355 .5494072 0
.5279724 .54943 0
.5610634 .5489466 0
.5947241 .548211 0
.6282335 .5477607 0
.6610745 .5466066 0
.6928855 .5454745 0
.7249507 .5441752 0
.7566162 .5431175 0
.7884141 .5421066 0
.8198684 .5411955 0
.8511525 .5401438 0
.8825994 .539239 0
.9140378 .5385358 0
.945631 .5375404 0
.976577 .5368078 0
.9999999 .5348556 0
0 .5841648 0
0 .5841713 0
0 .5841789 0
0 .584192 0
0 .5842555 0
.01739913 .5842894 0
.1012569 .5842925 0
.155368 .5842934 0
.2007915 .5842944 0
.2435101 .5842084 0
.2841188 .584129 0
.3229496 .5840236 0
.3594316 .5840052 0
.3949281 .5841616 0
.4292142 .5840704 0
.4623135 .5840123 0
.495003 .5841245 0
.527498 .5842893 0
.5609249 .5841417 0
.5946562 .5837482 0
.6280102 .5826354 0
.6606848 .5817394 0
.6920872 .5810716 0
.724466 .5795761 0
.7561492 .5785173 0
.7880707 .5774184 0
.8200197 .5765437 0
.8515351 .5759817 0
.88298 .5754049 0
.9145017 .5746409 0
.9463262 .5734314 0
.9777197 .5724757 0
.9999999 .5712563 0
0 .6190432 0
0 .6190522 0
0 .6190623 0
0 .6190773 0
0 .6191011 0
0 .6191261 0
.08765673 .619157 0
.1469367 .6191941 0
.1946636 .6192375 0
.2373633 .6192876 0
.2785104 .619274 0
.3175423 .6192849 0
.3547953 .6192986 0
.3907687 .6193664 0
.4263702 .6193737 0
.4608207 .6190908 0
.4941818 .6190442 0
.527397 .6189484 0
.560752 .6186884 0
.5940367 .6183346 0
.6269882 .617831 0
.6600299 .6170315 0
.692171 .6159441 0
.7233843 .615476 0
.7556793 .6139314 0
.7876459 .612882 0
.819646 .6119131 0
.8518732 .6111947 0
.8835382 .6106848 0
.9150317 .610171 0
.9463446 .6095102 0
.978082 .6080338 0
.9999999 .6068933 0
0 .6540254 0
0 .6540351 0
0 .6540461 0
0 .654062 0
0 .6540831 0
0 .6541158 0
.07215597 .6541589 0
.1376804 .6542066 0
.1876972 .6542635 0
.2315736 .6543348 0
.271517 .6544624 0
.3106766 .6545279 0
.3492754 .6546304 0
.38608 .6546452 0
.4221351 .6546618 0
.4577928 .6545471 0
.4918047 .6541016 0
.526045 .653634 0
.5599534 .6532372 0
.5928229 .652803 0
.6256886 .652376 0
.6586778 .6518636 0
.6917142 .6511214 0
.7236609 .6499774 0
.7552067 .6497234 0
.7873725 .6486391 0
.8193562 .6476229 0
.8514235 .6467272 0
.8836718 .6460333 0
.9153765 .6454825 0
.9464846 .6448903 0
.9779909 .6440606 0
.9999999 .642678 0
0 .6890833 0
0 .6890901 0
0 .6890977 0
0 .68911 0
0 .689128 0
0 .689151 0
.04295991 .6891885 0
.1241937 .6893132 0
.1776227 .6893661 0
.2229711 .6894418 0
.2644514 .6895282 0
.3036053 .6896254 0
.3425098 .6896357 0
.3807561 .689607 0
.4173795 .6895859 0
.4533606 .6895272 0
.488508 .6892661 0
.5227902 .6887082 0
.5569962 .6879847 0
.5909605 .6873211 0
.6242756 .6868438 0
.657559 .6864517 0
.6906796 .6860983 0
.7235891 .6857842 0
.7556623 .684683 0
.7875196 .6841913 0
.8193585 .6835233 0
.8510156 .682546 0
.8829483 .6815903 0
.9145605 .680894 0
.9465198 .6802079 0
.9780226 .6797769 0
.9999999 .6785371 0
0 .7238237 0
0 .7238312 0
0 .7238399 0
0 .7238522 0
0 .7238688 0
0 .7239486 0
.00631531 .7239906 0
.1059426 .7240551 0
.1652588 .7241333 0
.2134443 .7242097 0
.256804 .7242722 0
.2973162 .7243508 0
.3360333 .7244466 0
.3747138 .7244651 0
.4119481 .7244384 0
.447971 .7243298 0
.4834123 .7242166 0
.5186703 .7237501 0
.553241 .7232143 0
.5879756 .7225419 0
.6224094 .721877 0
.6563809 .7213704 0
.6899712 .7210496 0
.7230375 .7208502 0
.755187 .7207771 0
.787177 .7195961 0
.8191683 .7187895 0
.8508345 .7183345 0
.8820462 .7174136 0
.9135354 .7165169 0
.9457021 .7156926 0
.9777048 .7150422 0
.9999999 .7139112 0
0 .7586367 0
0 .7586456 0
0 .7586561 0
0 .7586709 0
0 .7586907 0
0 .7587161 0
0 .7587473 0
.08002678 .7587854 0
.1503089 .7588363 0
.2030257 .7588987 0
.2488408 .7589472 0
.2905945 .7590377 0
.330161 .7590464 0
.3681882 .7590573 0
.4050395 .759087 0
.4417376 .7591007 0
.4781271 .759072 0
.5141445 .7591206 0
.549328 .7586896 0
.5843974 .7580712 0
.6191404 .7574276 0
.653599 .7568235 0
.6881794 .7561146 0
.7214972 .7557683 0
.7541628 .755569 0
.7860854 .7554852 0
.8180721 .7544386 0
.8500353 .7534507 0
.8813245 .7530119 0
.9128122 .7523175 0
.9444235 .7514364 0
.9767829 .7502162 0
.9999999 .7494169 0
0 .7929885 0
0 .7929963 0
0 .7930052 0
0 .793016 0
0 .7930289 0
0 .7930455 0
0 .793056 0
.04012473 .7930558 0
.1312908 .7930957 0
.1898905 .7931498 0
.2387944 .7932221 0
.2827857 .7932729 0
.3238788 .7933203 0
.362818 .7933876 0
.3993443 .7935315 0
.4360923 .7936591 0
.4731914 .7936421 0
.5096197 .7938129 0
.5456834 .7936946 0
.5808834 .7930617 0
.6158128 .7924851 0
.6505722 .7918699 0
.685097 .791216 0
.7194452 .7905037 0
.7529854 .7900918 0
.7853597 .7899643 0
.8170169 .7898497 0
.848577 .7889925 0
.8807007 .7875798 0
.9121686 .7870358 0
.9436915 .7863172 0
.9754871 .7854154 0
.9999999 .7841936 0
0 .8273341 0
0 .8273413 0
0 .8273492 0
0 .8273604 0
0 .8273758 0
0 .8273951 0
0 .8274192 0
0 .8274478 0
.1094266 .8274902 0
.1755608 .8275435 0
.2278427 .8276043 0
.2739518 .8276728 0
.3163866 .8277271 0
.3561448 .827782 0
.3934684 .8278934 0
.430268 .8279804 0
.4679165 .8280855 0
.5050266 .828196 0
.5421422 .8280597 0
.5782192 .827666 0
.6128384 .8271459 0
.647656 .8267547 0
.6821075 .8262131 0
.7165508 .8255389 0
.7505057 .8249021 0
.7837348 .8242593 0
.8156601 .8240271 0
.8472134 .8236938 0
.8793553 .8227008 0
.9114045 .8210732 0
.9430838 .82042 0
.9748996 .8198071 0
.9999999 .8188513 0
0 .8614724 0
0 .8614777 0
0 .8614836 0
0 .8614923 0
0 .8615037 0
0 .8615186 0
0 .8615361 0
0 .8615508 0
.08295641 .8615789 0
.1600518 .8616128 0
.2163149 .8616514 0
.2646138 .8616948 0
.308629 .8617434 0
.3498009 .8617723 0
.388481 .8618208 0
.4259166 .8618875 0
.4626672 .8620688 0
.5008385 .8621397 0
.5384841 .8619929 0
.5753943 .861723 0
.6110904 .8612661 0
.6452878 .8608727 0
.6797752 .86045 0
.7140855 .8599678 0
.7474762 .8595027 0
.7805004 .8588277 0
.8134017 .8580669 0
.8457595 .8575442 0
.8777727 .8572252 0
.9099812 .8561826 0
.9427128 .8543763 0
.974767 .8534977 0
.9999999 .8529797 0
0 .8954048 0
0 .8954099 0
0 .8954159 0
0 .8954242 0
0 .8954357 0
0 .89545 0
0 .8954677 0
0 .8954908 0
.04545561 .8955268 0
.1419295 .8955685 0
.2030301 .8956162 0
.2541673 .895765 0
.2998045 .8958307 0
.3423708 .8959013 0
.3830923 .8959309 0
.4212004 .896006 0
.4586918 .8961371 0
.4963421 .8961703 0
.5340085 .8961146 0
.5714498 .8959068 0
.6080647 .8955968 0
.6429814 .8950832 0
.6767532 .8945555 0
.7106246 .893941 0
.7443643 .8933113 0
.7778783 .8926663 0
.8108732 .8920837 0
.8434736 .8916605 0
.8763248 .8910366 0
.908489 .8906846 0
.9409994 .8895326 0
.9738017 .8878517 0
.9999999 .8868578 0
0 .9294933 0
0 .9294993 0
0 .9295067 0
0 .9295174 0
0 .9295285 0
0 .9295431 0
0 .9295607 0
0 .92959 0
.00502314 .9296256 0
