luts/Timeless_46.cube
# 3D LUT of size 33x33x33 converted by Filestar.
#   Input:
#     color space: sRGB
#     white point: default (D65)
#     transfer function: default (sRGB)
#   Output:
#     color space: sRGB
#     white point: default (D65)
#     transfer function: default (sRGB)
#   Exposure: +0.34
#   Contrast: -65
#   Whites: -35
#   Blacks: +22
#   Vibrance: +26
LUT_3D_SIZE 5
.01524699 .01504351 .04726104
.3149399 0 .01635738
.594485 0 0
.8231229 0 0
.9999999 0 0
0 .3131754 0
.3103919 .3103377 0
.5855979 .2995199 0
.8145091 .2877927 0
.9991578 .2671079 0
0 .576176 0
.2844034 .5743124 0
.5691306 .5673732 0
.8012893 .5565721 0
.9864874 .545593 0
0 .7927148 0
.2304188 .7916884 0
.5425981 .7882626 0
.7837359 .7829215 0
.9778705 .7771512 0
0 .9798884 0
.09942064 .9797817 0
.5061917 .9790185 0
.7717738 .9771805 0
.9813727 .9805818 0
.03871852 0 .3189624
.3209005 0 .3172078
.5957804 0 .302131
.8205588 0 .2879522
.9999999 0 .2672429
0 .3093356 .3087729
.3097525 .301109 .3048405
.5820153 .2937243 .2980414
.8128316 .2782298 .2806941
.9995602 .2518001 .2565884
0 .5739536 .2639765
.2515507 .5733277 .2587494
.5660769 .5675527 .2558756
.8028587 .5504895 .2539824
.9869425 .5418534 .2421247
0 .7932606 .1923867
.18327 .792468 .1802747
.5322317 .7889432 .1766056
.7841479 .7841561 .1809422
.983234 .7752147 .1583023
0 .9815257 0
0 .9814748 0
.4899222 .980602 0
.7672337 .9797691 0
.9815297 .9820685 0
0 0 .5884269
.2967124 0 .5864446
.585784 0 .5821952
.8137093 0 .566256
.9995106 0 .546451
0 .2735718 .5829844
.2744741 .2679856 .5816253
.576278 .2575011 .5772524
.810468 .2516131 .5585511
.9979799 .2199138 .5407441
0 .5669234 .565919
.2237819 .5649866 .564476
.5547414 .5507089 .5550309
.7910179 .5454376 .5447455
.988085 .526958 .530064
0 .7930127 .5159837
0 .7917351 .5100828
.5029181 .7882123 .5018446
.7805349 .7842231 .4948067
.9876398 .768903 .4812855
0 .984596 .4523156
0 .9848155 .4479495
.4383621 .9848569 .4375826
.7552484 .9832832 .4374955
.9852467 .9853634 .4430512
0 0 .807711
.2779805 0 .8067057
.553646 0 .8036776
.7976756 0 .7984011
.9916958 0 .7896549
0 .246935 .804778
.244433 .2361403 .8041916
.5441565 .2135605 .8015962
.7983788 .1991107 .7970288
.9943467 .165023 .7873453
0 .528012 .7965583
.09567978 .5229114 .7964067
.5164166 .5095847 .7956345
.7911318 .5062692 .7910641
.9937158 .4980144 .7774645
0 .7844744 .7840163
0 .7838956 .7837833
.4803835 .7807029 .7808856
.7737626 .7713154 .7735615
.9801258 .765057 .7674432
0 .9855003 .7550074
0 .9857262 .752561
.3904492 .9859858 .7455021
.7391031 .9863796 .7396412
.9893139 .9903672 .7438984
0 0 .990021
.2410072 0 .9894903
.5349207 0 .9877834
.7814503 0 .985981
.9813666 0 .9825034
0 .1888917 .9883406
.2069468 .1673307 .9882739
.5166571 .1304139 .9876108
.7757027 .05789734 .9862584
.9824483 0 .9840526
0 .4901558 .9872482
0 .4832625 .987557
.471489 .4658442 .9877142
.7608486 .4537044 .987182
.9858736 .4475905 .9863217
0 .7544196 .9856721
0 .7523851 .9857468
.4080797 .7445306 .9855105
.7363591 .7396165 .9861732
.9861344 .7393771 .9862174
0 .986664 .9863245
0 .9872381 .9867064
.3760315 .9896055 .9884357
.7394721 .9918233 .9908741
.9999999 .9977276 .9973988
